; GCode generated by CraftWare

G28 X0 Y0
G28 Z0

M190 S60 ;set bed temp (wait)
M109 S215 ;set head temp (wait)
; ------------------------------------
; Layer #0
; ------------------------------------
G21 ; mm
G90 ; abs
G92 E0 ; reset extr
M106 S0
;segType:Skirt
G0 F4800 E-1.0000
G0 F300 Z0.200
G0 X100.168 Y122.085 F10800
G0 F4800 E0.0000
G1 X100.492 Y122.275 E0.0125 F600
G1 X101.012 Y122.782 E0.0367
G1 X101.338 Y122.973 E0.0492
G1 X101.858 Y123.481 E0.0734
G1 X102.182 Y123.671 E0.0859
G1 X102.702 Y124.179 E0.1100
G1 X103.028 Y124.369 E0.1226
G1 X103.547 Y124.877 E0.1467
G1 X104.522 Y125.448 E0.1843
G1 X104.912 Y125.575 E0.1979
G1 X106.212 Y126.336 E0.2480
G1 X106.602 Y126.463 E0.2616
G1 X106.862 Y126.717 E0.2737
G1 X107.252 Y126.844 E0.2873
G1 X107.902 Y127.225 E0.3124
G1 X108.032 Y127.352 E0.3184
G1 X108.292 Y127.352 E0.3271
G1 X108.422 Y127.479 E0.3331
G1 X108.877 Y127.542 E0.3484
G1 X110.047 Y127.923 E0.3893
G1 X110.502 Y127.986 E0.4045
G1 X110.632 Y128.113 E0.4106
G1 X110.892 Y128.113 E0.4192
G1 X111.022 Y128.240 E0.4253
G1 X111.282 Y128.240 E0.4339
G1 X111.412 Y128.367 E0.4399
G1 X111.672 Y128.367 E0.4486
G1 X111.802 Y128.494 E0.4546
G1 X112.257 Y128.558 E0.4699
G1 X112.647 Y128.685 E0.4835
G1 X113.101 Y128.748 E0.4988
G1 X113.361 Y128.875 E0.5084
G1 X114.531 Y128.875 E0.5473
G1 X114.661 Y129.002 E0.5533
G1 X115.701 Y129.002 E0.5879
G1 X116.091 Y129.129 E0.6015
G1 X117.131 Y129.129 E0.6361
G1 X117.261 Y129.256 E0.6422
G1 X120.381 Y129.256 E0.7459
G1 X120.771 Y129.129 E0.7595
G1 X121.811 Y129.129 E0.7941
G1 X121.941 Y129.002 E0.8001
G1 X122.981 Y129.002 E0.8347
G1 X123.371 Y128.875 E0.8483
G1 X124.410 Y128.875 E0.8829
G1 X124.540 Y128.748 E0.8889
G1 X125.060 Y128.748 E0.9062
G1 X125.190 Y128.621 E0.9122
G1 X125.645 Y128.558 E0.9275
G1 X126.815 Y128.177 E0.9684
G1 X127.270 Y128.113 E0.9837
G1 X127.400 Y127.986 E0.9897
G1 X127.660 Y127.986 E0.9984
G1 X127.790 Y127.859 E1.0044
G1 X128.050 Y127.859 E1.0131
G1 X128.180 Y127.732 E1.0191
G1 X128.440 Y127.732 E1.0277
G1 X128.570 Y127.606 E1.0338
G1 X129.025 Y127.542 E1.0490
G1 X129.415 Y127.415 E1.0627
G1 X129.740 Y127.225 E1.0752
G1 X130.130 Y127.098 E1.0888
G1 X131.430 Y126.336 E1.1389
G1 X131.820 Y126.209 E1.1526
G1 X133.120 Y125.448 E1.2026
G1 X133.510 Y125.321 E1.2163
G1 X134.160 Y124.940 E1.2413
G1 X134.940 Y124.179 E1.2775
G1 X135.264 Y123.988 E1.2901
G1 X135.524 Y123.735 E1.3021
G1 X135.850 Y123.544 E1.3147
G1 X136.369 Y123.036 E1.3388
G1 X136.694 Y122.846 E1.3513
G1 X137.214 Y122.338 E1.3755
G1 X137.539 Y122.148 E1.3880
G1 X140.919 Y118.848 E1.5451
G1 X141.114 Y118.531 E1.5574
G1 X141.634 Y118.023 E1.5816
G1 X141.829 Y117.706 E1.5940
G1 X142.089 Y117.452 E1.6061
G1 X142.284 Y117.135 E1.6184
G1 X142.544 Y116.881 E1.6305
G1 X142.739 Y116.563 E1.6429
G1 X142.999 Y116.309 E1.6550
G1 X143.194 Y115.992 E1.6673
G1 X143.714 Y115.485 E1.6915
G1 X144.494 Y114.215 E1.7410
G1 X144.624 Y113.835 E1.7544
G1 X145.013 Y113.200 E1.7792
G1 X145.143 Y112.819 E1.7925
G1 X145.533 Y112.185 E1.8173
G1 X145.663 Y111.804 E1.8307
G1 X146.053 Y111.169 E1.8554
G1 X146.183 Y110.788 E1.8688
G1 X146.313 Y110.662 E1.8749
G1 X146.313 Y110.408 E1.8833
G1 X146.443 Y110.281 E1.8893
G1 X146.443 Y110.027 E1.8978
G1 X146.573 Y109.900 E1.9038
G1 X146.639 Y109.456 E1.9187
G1 X147.029 Y108.313 E1.9589
G1 X147.093 Y107.869 E1.9738
G1 X147.223 Y107.742 E1.9798
G1 X147.223 Y107.488 E1.9883
G1 X147.353 Y107.362 E1.9943
G1 X147.353 Y107.108 E2.0027
G1 X147.483 Y106.981 E2.0088
G1 X147.549 Y106.536 E2.0237
G1 X147.679 Y106.156 E2.0371
G1 X147.743 Y105.712 E2.0520
G1 X147.743 Y105.204 E2.0689
G1 X147.873 Y104.823 E2.0823
G1 X147.873 Y103.808 E2.1160
G1 X148.003 Y103.681 E2.1221
G1 X148.003 Y102.665 E2.1558
G1 X148.133 Y102.285 E2.1692
G1 X148.133 Y102.031 E2.1776
G1 X148.588 Y101.967 E2.1929
G1 X156.908 Y101.967 E2.4695
G1 X157.948 Y101.967 E2.5040
G1 X158.728 Y101.206 E2.5403
G1 X158.922 Y100.888 E2.5526
G1 X158.922 Y93.781 E2.7889
G1 X158.728 Y93.464 E2.8013
G1 X157.948 Y92.702 E2.8375
G1 X149.628 Y92.702 E3.1141
G1 X147.289 Y92.702 E3.1919
G1 X147.223 Y92.258 E3.2068
G1 X147.093 Y92.131 E3.2129
G1 X147.093 Y91.877 E3.2213
G1 X146.963 Y91.750 E3.2273
G1 X146.899 Y91.306 E3.2422
G1 X146.639 Y90.544 E3.2690
G1 X146.573 Y90.100 E3.2839
G1 X146.443 Y89.973 E3.2900
G1 X146.443 Y89.719 E3.2984
G1 X146.313 Y89.592 E3.3045
G1 X146.313 Y89.338 E3.3129
G1 X145.923 Y88.704 E3.3377
G1 X145.793 Y88.323 E3.3510
G1 X145.013 Y87.054 E3.4006
G1 X144.884 Y86.673 E3.4139
G1 X144.494 Y86.038 E3.4387
G1 X144.364 Y85.658 E3.4521
G1 X143.779 Y84.706 E3.4892
G1 X143.519 Y84.452 E3.5013
G1 X143.324 Y84.135 E3.5137
G1 X142.804 Y83.627 E3.5378
G1 X142.609 Y83.310 E3.5502
G1 X142.349 Y83.056 E3.5623
G1 X142.154 Y82.738 E3.5747
G1 X141.894 Y82.485 E3.5867
G1 X141.699 Y82.168 E3.5991
G1 X141.439 Y81.914 E3.6112
G1 X141.244 Y81.596 E3.6236
G1 X137.344 Y77.788 E3.8048
G1 X137.019 Y77.598 E3.8173
G1 X136.499 Y77.091 E3.8414
G1 X136.174 Y76.900 E3.8540
G1 X135.654 Y76.392 E3.8781
G1 X135.330 Y76.202 E3.8906
G1 X134.810 Y75.694 E3.9148
G1 X134.484 Y75.504 E3.9273
G1 X134.224 Y75.250 E3.9394
G1 X132.600 Y74.298 E4.0020
G1 X132.210 Y74.171 E4.0156
G1 X130.910 Y73.410 E4.0657
G1 X130.520 Y73.283 E4.0794
G1 X130.260 Y73.029 E4.0914
G1 X129.870 Y72.902 E4.1051
G1 X129.545 Y72.712 E4.1176
G1 X129.090 Y72.648 E4.1329
G1 X128.960 Y72.521 E4.1389
G1 X128.700 Y72.521 E4.1475
G1 X128.570 Y72.394 E4.1536
G1 X128.310 Y72.394 E4.1622
G1 X128.180 Y72.268 E4.1683
G1 X127.920 Y72.268 E4.1769
G1 X127.790 Y72.141 E4.1829
G1 X127.335 Y72.077 E4.1982
G1 X126.165 Y71.696 E4.2391
G1 X125.710 Y71.633 E4.2544
G1 X125.580 Y71.506 E4.2604
G1 X125.320 Y71.506 E4.2691
G1 X125.190 Y71.379 E4.2751
G1 X124.930 Y71.379 E4.2838
G1 X124.800 Y71.252 E4.2898
G1 X123.501 Y71.252 E4.3330
G1 X123.371 Y71.125 E4.3390
G1 X122.331 Y71.125 E4.3736
G1 X121.941 Y70.998 E4.3872
G1 X120.901 Y70.998 E4.4218
G1 X120.771 Y70.871 E4.4279
G1 X117.131 Y70.871 E4.5489
G1 X116.741 Y70.998 E4.5625
G1 X115.701 Y70.998 E4.5971
G1 X115.571 Y71.125 E4.6031
G1 X114.531 Y71.125 E4.6377
G1 X114.141 Y71.252 E4.6513
G1 X113.101 Y71.252 E4.6859
G1 X111.932 Y71.633 E4.7268
G1 X111.672 Y71.633 E4.7354
G1 X111.542 Y71.760 E4.7415
G1 X111.282 Y71.760 E4.7501
G1 X111.152 Y71.887 E4.7561
G1 X110.892 Y71.887 E4.7648
G1 X110.762 Y72.014 E4.7708
G1 X110.502 Y72.014 E4.7795
G1 X110.372 Y72.141 E4.7855
G1 X109.917 Y72.204 E4.8008
G1 X108.747 Y72.585 E4.8417
G1 X108.292 Y72.648 E4.8569
G1 X106.992 Y73.410 E4.9070
G1 X106.602 Y73.537 E4.9207
G1 X106.342 Y73.791 E4.9327
G1 X105.952 Y73.918 E4.9464
G1 X105.302 Y74.298 E4.9714
G1 X104.912 Y74.425 E4.9850
G1 X104.652 Y74.679 E4.9971
G1 X104.262 Y74.806 E5.0108
G1 X103.612 Y75.187 E5.0358
G1 X103.092 Y75.694 E5.0600
G1 X102.768 Y75.885 E5.0725
G1 X102.248 Y76.392 E5.0966
G1 X101.922 Y76.583 E5.1092
G1 X101.402 Y77.091 E5.1333
G1 X101.078 Y77.281 E5.1458
G1 X100.558 Y77.788 E5.1700
G1 X100.232 Y77.979 E5.1825
G1 X96.593 Y81.533 E5.3516
G1 X96.398 Y81.850 E5.3640
G1 X96.138 Y82.104 E5.3761
G1 X95.943 Y82.421 E5.3885
G1 X95.683 Y82.675 E5.4005
G1 X95.488 Y82.992 E5.4129
G1 X94.968 Y83.500 E5.4371
G1 X94.773 Y83.818 E5.4495
G1 X94.513 Y84.071 E5.4615
G1 X94.318 Y84.388 E5.4739
G1 X94.058 Y84.642 E5.4860
G1 X93.668 Y85.277 E5.5108
G1 X93.538 Y85.658 E5.5241
G1 X93.278 Y85.912 E5.5362
G1 X93.148 Y86.292 E5.5496
G1 X92.758 Y86.927 E5.5743
G1 X92.628 Y87.308 E5.5877
G1 X92.238 Y87.942 E5.6125
G1 X92.108 Y88.323 E5.6259
G1 X91.523 Y89.275 E5.6630
G1 X91.458 Y89.719 E5.6779
G1 X91.328 Y89.846 E5.6840
G1 X91.328 Y90.100 E5.6924
G1 X91.198 Y90.227 E5.6984
G1 X91.133 Y90.671 E5.7134
G1 X90.873 Y91.433 E5.7401
G1 X90.809 Y91.877 E5.7550
G1 X90.679 Y92.004 E5.7611
G1 X90.679 Y92.258 E5.7695
G1 X90.549 Y92.385 E5.7756
G1 X90.483 Y92.829 E5.7905
G1 X90.223 Y93.591 E5.8172
G1 X90.159 Y94.035 E5.8322
G1 X90.029 Y94.162 E5.8382
G1 X90.029 Y95.177 E5.8720
G1 X89.899 Y95.304 E5.8780
G1 X89.899 Y96.573 E5.9202
G1 X89.769 Y96.700 E5.9262
G1 X89.769 Y97.715 E5.9600
G1 X89.639 Y98.096 E5.9734
G1 X89.639 Y102.158 E6.1084
G1 X89.769 Y102.285 E6.1144
G1 X89.769 Y103.300 E6.1482
G1 X89.899 Y103.681 E6.1615
G1 X89.899 Y104.696 E6.1953
G1 X90.029 Y104.823 E6.2013
G1 X90.029 Y105.838 E6.2351
G1 X90.159 Y106.219 E6.2485
G1 X90.159 Y106.473 E6.2569
G1 X90.289 Y106.600 E6.2630
G1 X90.289 Y106.854 E6.2714
G1 X90.419 Y106.981 E6.2774
G1 X90.419 Y107.235 E6.2859
G1 X90.549 Y107.362 E6.2919
G1 X90.613 Y107.806 E6.3068
G1 X90.873 Y108.567 E6.3336
G1 X90.939 Y109.012 E6.3485
G1 X91.069 Y109.138 E6.3545
G1 X91.069 Y109.392 E6.3630
G1 X91.198 Y109.519 E6.3690
G1 X91.263 Y109.963 E6.3839
G1 X91.523 Y110.725 E6.4107
G1 X91.718 Y111.042 E6.4231
G1 X91.848 Y111.423 E6.4365
G1 X92.238 Y112.058 E6.4612
G1 X92.368 Y112.438 E6.4746
G1 X92.758 Y113.073 E6.4994
G1 X92.888 Y113.454 E6.5127
G1 X93.668 Y114.723 E6.5623
G1 X93.798 Y115.104 E6.5756
G1 X94.058 Y115.358 E6.5877
G1 X94.253 Y115.675 E6.6001
G1 X94.513 Y115.929 E6.6122
G1 X94.708 Y116.246 E6.6246
G1 X95.228 Y116.754 E6.6487
G1 X95.423 Y117.071 E6.6611
G1 X95.683 Y117.325 E6.6732
G1 X95.878 Y117.642 E6.6856
G1 X96.138 Y117.896 E6.6976
G1 X96.333 Y118.213 E6.7100
G1 X96.593 Y118.467 E6.7221
G1 X96.788 Y118.785 E6.7345
G1 X100.168 Y122.085 E6.8915
G1 X100.232 Y122.529 E6.9064
G1 X100.558 Y122.719 E6.9190
G1 X100.818 Y122.973 E6.9310
G1 X101.142 Y123.163 E6.9435
G1 X101.922 Y123.925 E6.9798
G1 X102.248 Y124.115 E6.9923
G1 X102.508 Y124.369 E7.0044
G1 X102.832 Y124.559 E7.0169
G1 X103.612 Y125.321 E7.0531
G1 X104.002 Y125.448 E7.0668
G1 X104.262 Y125.702 E7.0789
G1 X104.652 Y125.829 E7.0925
G1 X105.952 Y126.590 E7.1426
G1 X106.342 Y126.717 E7.1562
G1 X107.967 Y127.669 E7.2188
G1 X108.357 Y127.796 E7.2324
G1 X108.812 Y127.859 E7.2477
G1 X108.942 Y127.986 E7.2537
G1 X109.202 Y127.986 E7.2624
G1 X109.332 Y128.113 E7.2684
G1 X109.592 Y128.113 E7.2771
G1 X109.722 Y128.240 E7.2831
G1 X109.982 Y128.240 E7.2918
G1 X110.112 Y128.367 E7.2978
G1 X110.762 Y128.494 E7.3198
G1 X111.022 Y128.621 E7.3294
G1 X111.737 Y128.812 E7.3540
G1 X112.191 Y128.875 E7.3693
G1 X112.321 Y129.002 E7.3753
G1 X112.581 Y129.002 E7.3840
G1 X112.711 Y129.129 E7.3900
G1 X113.231 Y129.129 E7.4073
G1 X113.361 Y129.256 E7.4133
G1 X114.401 Y129.256 E7.4479
G1 X114.791 Y129.382 E7.4615
G1 X115.831 Y129.382 E7.4961
G1 X115.961 Y129.509 E7.5022
G1 X117.001 Y129.509 E7.5367
G1 X117.391 Y129.636 E7.5504
G1 X120.511 Y129.636 E7.6541
G1 X120.641 Y129.509 E7.6601
G1 X121.681 Y129.509 E7.6947
G1 X122.071 Y129.382 E7.7083
G1 X123.111 Y129.382 E7.7429
G1 X123.241 Y129.256 E7.7489
G1 X124.280 Y129.256 E7.7835
G1 X124.670 Y129.129 E7.7971
G1 X125.580 Y129.002 E7.8277
G1 X125.710 Y128.875 E7.8337
G1 X125.970 Y128.875 E7.8424
G1 X126.100 Y128.748 E7.8484
G1 X126.360 Y128.748 E7.8570
G1 X126.490 Y128.621 E7.8631
G1 X126.750 Y128.621 E7.8717
G1 X126.880 Y128.494 E7.8778
G1 X127.335 Y128.431 E7.8930
G1 X128.505 Y128.050 E7.9339
G1 X128.960 Y127.986 E7.9492
G1 X129.090 Y127.859 E7.9552
G1 X129.350 Y127.859 E7.9639
G1 X130.000 Y127.479 E7.9889
G1 X130.390 Y127.352 E8.0026
G1 X131.690 Y126.590 E8.0526
G1 X131.914 Y126.517 E8.0605
G0 F4800 E7.0605
G0 X140.078 Y114.108 F10800
G0 X142.424 Y109.718
G0 X143.882 Y104.832
G0 X144.357 Y100.000
G0 X144.400 Y94.600
G0 F4800 E8.0605
;segType:Support
G1 X157.000 Y94.600 E8.4165 F900
G0 F4800 E7.4165
G0 X157.000 Y98.200 F10800
G0 F4800 E8.4165
G1 X144.787 Y98.200 E8.7616 F900
G1 X144.963 Y100.000 E8.8127
G1 X157.000 Y100.000 E9.1529
G0 F4800 E8.1529
G0 X157.000 Y96.400 F10800
G0 F4800 E9.1529
G1 X144.611 Y96.400 E9.5029 F900
G0 F4800 E8.5029
G0 X141.970 Y96.549 F10800
G0 X94.443 Y99.231
G0 F4800 E9.5029
;segType:HShell
G1 X118.853 Y75.396 E10.6371 F600
;segType:Perimeter
G0 X118.550 Y75.311 F10800
G1 X119.021 Y74.802 E10.6602 F360
G1 X123.878 Y75.280 E10.8224
G1 X128.605 Y76.714 E10.9866
G1 X132.961 Y79.043 E11.1508
G1 X136.780 Y82.176 E11.3150
G1 X139.914 Y85.996 E11.4793
G1 X142.250 Y90.375 E11.6443
G1 X143.678 Y95.082 E11.8078
G1 X144.162 Y100.000 E11.9721
G1 X143.688 Y104.811 E12.1328
G1 X143.673 Y104.934 E12.1369
G1 X142.243 Y109.647 E12.3006
G1 X139.914 Y114.004 E12.4649
G1 X136.780 Y117.824 E12.6291
G1 X132.961 Y120.957 E12.7933
G1 X128.605 Y123.286 E12.9575
G1 X123.878 Y124.720 E13.1217
G1 X118.963 Y125.204 E13.2859
G1 X114.048 Y124.720 E13.4501
G1 X109.322 Y123.286 E13.6143
G1 X104.965 Y120.957 E13.7785
G1 X101.146 Y117.824 E13.9428
G1 X98.012 Y114.004 E14.1070
G1 X95.683 Y109.647 E14.2713
G1 X94.248 Y104.918 E14.4355
G1 X93.764 Y100.000 E14.5998
G1 X94.248 Y95.082 E14.7641
G1 X95.683 Y90.354 E14.9283
G1 X98.012 Y85.996 E15.0926
G1 X101.146 Y82.176 E15.2569
G1 X104.965 Y79.043 E15.4211
G1 X109.321 Y76.714 E15.5853
G1 X114.048 Y75.280 E15.7495
G1 X118.905 Y74.802 E15.9117
G1 X119.376 Y75.311
;segType:Loop
G0 X119.991 Y75.290 F10800
G1 X123.798 Y75.665 E16.0389 F600
G1 X128.448 Y77.076 E16.2004
G1 X132.734 Y79.367 E16.3620
G1 X136.493 Y82.451 E16.5236
G1 X139.578 Y86.210 E16.6853
G1 X141.877 Y90.522 E16.8478
G1 X143.283 Y95.157 E17.0088
G1 X143.760 Y100.000 E17.1705
G1 X143.291 Y104.769 E17.3298
G1 X143.280 Y104.854 E17.3327
G1 X141.871 Y109.499 E17.4941
G1 X139.578 Y113.790 E17.6558
G1 X136.493 Y117.549 E17.8175
G1 X132.734 Y120.633 E17.9791
G1 X128.448 Y122.924 E18.1407
G1 X123.798 Y124.335 E18.3022
G1 X118.963 Y124.811 E18.4637
G1 X114.128 Y124.335 E18.6252
G1 X109.478 Y122.924 E18.7867
G1 X105.192 Y120.633 E18.9483
G1 X101.434 Y117.549 E19.1099
G1 X98.349 Y113.790 E19.2716
G1 X96.055 Y109.499 E19.4333
G1 X94.643 Y104.843 E19.5951
G1 X94.166 Y100.000 E19.7569
G1 X94.643 Y95.157 E19.9186
G1 X96.055 Y90.501 E20.0804
G1 X98.349 Y86.210 E20.2421
G1 X101.434 Y82.451 E20.4038
G1 X105.192 Y79.367 E20.5654
G1 X109.478 Y77.076 E20.7270
G1 X114.128 Y75.665 E20.8885
G1 X118.963 Y75.189 E21.0500
G1 X119.797 Y75.271 E21.0779
;segType:HShell
G0 X119.374 Y75.426 F10800
G1 X94.384 Y99.827 E22.2390 F600
G1 X94.401 Y100.349
G1 X119.876 Y75.475 E23.4226
G1 X120.377 Y75.525
G1 X94.450 Y100.841 E24.6273
G1 X94.498 Y101.333
G1 X120.879 Y75.574 E25.8530
G1 X121.380 Y75.623
G1 X94.546 Y101.824 E27.0997
G1 X94.595 Y102.316
G1 X121.882 Y75.673 E28.3675
G1 X122.383 Y75.722
G1 X94.643 Y102.808 E29.6564
G1 X94.692 Y103.299
G1 X122.885 Y75.772 E30.9663
G1 X123.386 Y75.821
G1 X94.740 Y103.791 E32.2973
G1 X94.789 Y104.283
G1 X123.867 Y75.891 E33.6483
G1 X124.288 Y76.018
G1 X94.837 Y104.775 E35.0166
G1 X94.958 Y105.195
G1 X124.709 Y76.146 E36.3989
G1 X125.130 Y76.274
G1 X95.085 Y105.611 E37.7949
G1 X95.211 Y106.027
G1 X125.552 Y76.402 E39.2047
G1 X125.973 Y76.529
G1 X95.337 Y106.443 E40.6281
G1 X95.463 Y106.859
G1 X126.394 Y76.657 E42.0652
G1 X126.815 Y76.785
G1 X95.589 Y107.275 E43.5160
G1 X95.715 Y107.690
G1 X127.237 Y76.913 E44.9806
G1 X127.658 Y77.040
G1 X95.841 Y108.106 E46.4589
G1 X95.968 Y108.522
G1 X128.079 Y77.168 E47.9508
G1 X128.480 Y77.315
G1 X96.094 Y108.938 E49.4556
G1 X96.220 Y109.354
G1 X128.837 Y77.506 E50.9710
G1 X129.194 Y77.697
G1 X96.398 Y109.719 E52.4948
G1 X96.588 Y110.073
G1 X129.550 Y77.887 E54.0263
G1 X129.907 Y78.078
G1 X96.777 Y110.427 E55.5656
G1 X96.966 Y110.781
G1 X130.264 Y78.269 E57.1127
G1 X130.621 Y78.459
G1 X97.156 Y111.135 E58.6676
G1 X97.345 Y111.489
G1 X130.977 Y78.650 E60.2302
G1 X131.334 Y78.841
G1 X97.534 Y111.844 E61.8007
G1 X97.724 Y112.198
G1 X131.691 Y79.032 E63.3789
G1 X132.048 Y79.222
G1 X97.913 Y112.552 E64.9648
G1 X98.102 Y112.906
G1 X132.405 Y79.413 E66.5586
G1 X132.739 Y79.625
G1 X98.292 Y113.260 E68.1591
G1 X98.481 Y113.614
G1 X133.039 Y79.872 E69.7647
G1 X133.339 Y80.118
G1 X98.716 Y113.924 E71.3734
G1 X98.961 Y114.224
G1 X133.639 Y80.364 E72.9846
G1 X133.939 Y80.610
G1 X99.207 Y114.523 E74.5983
G1 X99.452 Y114.822
G1 X134.239 Y80.856 E76.2146
G1 X134.539 Y81.102
G1 X99.698 Y115.121 E77.8334
G1 X99.943 Y115.421
G1 X134.839 Y81.348 E79.4547
G1 X135.139 Y81.595
G1 X100.189 Y115.720 E81.0785
G1 X100.435 Y116.019
G1 X135.439 Y81.841 E82.7049
G1 X135.739 Y82.087
G1 X100.680 Y116.318 E84.3338
G1 X100.926 Y116.618
G1 X136.038 Y82.333 E85.9652
G1 X136.338 Y82.579
G1 X101.171 Y116.917 E87.5992
G1 X101.417 Y117.216
G1 X136.586 Y82.877 E89.2332
G1 X136.831 Y83.176
G1 X101.681 Y117.497 E90.8664
G1 X101.981 Y117.743
G1 X137.077 Y83.475 E92.4970
G1 X137.323 Y83.774
G1 X102.281 Y117.989 E94.1251
G1 X102.581 Y118.236
G1 X137.568 Y84.074 E95.7507
G1 X137.814 Y84.373
G1 X102.881 Y118.482 E97.3738
G1 X103.181 Y118.728
G1 X138.059 Y84.672 E98.9943
G1 X138.305 Y84.971
G1 X103.481 Y118.974 E100.6123
G1 X103.781 Y119.220
G1 X138.550 Y85.271 E102.2278
G1 X138.796 Y85.570
G1 X104.081 Y119.466 E103.8408
G1 X104.381 Y119.712
G1 X139.042 Y85.869 E105.4512
G1 X139.287 Y86.168
G1 X104.681 Y119.959 E107.0591
G1 X104.981 Y120.205
G1 X139.504 Y86.495 E108.6631
G1 X139.693 Y86.850
G1 X105.280 Y120.451 E110.2620
G1 X105.633 Y120.646
G1 X139.882 Y87.204 E111.8534
G1 X140.071 Y87.559
G1 X105.989 Y120.837 E113.4369
G1 X106.346 Y121.028
G1 X140.260 Y87.913 E115.0126
G1 X140.449 Y88.268
G1 X106.703 Y121.218 E116.5806
G1 X107.060 Y121.409
G1 X140.638 Y88.622 E118.1407
G1 X140.828 Y88.977
G1 X107.416 Y121.600 E119.6931
G1 X107.773 Y121.790
G1 X141.017 Y89.331 E121.2377
G1 X141.206 Y89.685
G1 X108.130 Y121.981 E122.7744
G1 X108.487 Y122.172
G1 X141.395 Y90.040 E124.3034
G1 X141.584 Y90.394
G1 X108.843 Y122.362 E125.8246
G1 X109.200 Y122.553
G1 X141.745 Y90.775 E127.3367
G1 X141.872 Y91.191
G1 X109.557 Y122.744 E128.8381
G1 X109.978 Y122.872
G1 X141.998 Y91.607 E130.3258
G1 X142.124 Y92.023
G1 X110.399 Y122.999 E131.7998
G1 X110.820 Y123.127
G1 X142.250 Y92.439 E133.2601
G1 X142.376 Y92.855
G1 X111.242 Y123.255 E134.7067
G1 X111.663 Y123.383
G1 X142.502 Y93.271 E136.1396
G1 X142.629 Y93.686
G1 X112.084 Y123.510 E137.5587
G1 X112.505 Y123.638
G1 X142.755 Y94.102 E138.9642
G1 X142.881 Y94.518
G1 X112.927 Y123.766 E140.3559
G1 X113.348 Y123.894
G1 X143.007 Y94.934 E141.7340
G1 X143.104 Y95.378
G1 X113.769 Y124.021 E143.0969
G1 X114.194 Y124.145
G1 X143.153 Y95.870 E144.4424
G1 X143.201 Y96.362
G1 X114.696 Y124.194 E145.7668
G1 X115.197 Y124.244
G1 X143.249 Y96.853 E147.0702
G1 X143.298 Y97.345
G1 X115.699 Y124.293 E148.3525
G1 X116.200 Y124.343
G1 X143.346 Y97.837 E149.6138
G1 X143.395 Y98.328
G1 X116.702 Y124.392 E150.8540
G1 X117.203 Y124.441
G1 X143.443 Y98.820 E152.0732
G1 X143.492 Y99.312
G1 X117.705 Y124.491 E153.2713
G1 X118.206 Y124.540
G1 X143.540 Y99.804 E154.4484
G1 X143.524 Y100.358
G1 X118.708 Y124.589 E155.6014
G1 X119.264 Y124.585
G1 X143.466 Y100.955 E156.7259
G1 X143.407 Y101.551
G1 X119.878 Y124.525 E157.8191
G1 X120.492 Y124.464
G1 X143.348 Y102.147 E158.8810
G1 X143.289 Y102.744
G1 X121.106 Y124.404 E159.9117
G1 X121.720 Y124.343
G1 X143.231 Y103.340 E160.9111
G1 X143.172 Y103.936
G1 X122.334 Y124.283 E161.8793
G1 X122.948 Y124.222
G1 X143.113 Y104.533 E162.8162
G1 X142.960 Y105.221
G1 X123.562 Y124.162 E163.7175
G1 X124.303 Y123.977
G1 X142.728 Y105.987 E164.5735
G1 X142.495 Y106.753
G1 X125.104 Y123.734 E165.3816
G1 X125.905 Y123.491
G1 X142.263 Y107.519 E166.1416
G1 X142.031 Y108.285
G1 X126.706 Y123.248 E166.8536
G1 X127.506 Y123.006
G1 X141.798 Y109.051 E167.5177
G0 X131.934 Y120.839 F10800
G1 X139.569 Y113.384 E167.8724 F600
G0 X141.377 Y110.001 F10800
G1 X128.307 Y122.763 E168.4797 F600
G0 X129.494 Y122.143 F10800
G1 X140.774 Y111.129 E169.0037 F600
G0 X140.172 Y112.256 F10800
G1 X130.714 Y121.491 E169.4432 F600
G0 X134.132 Y119.231 F10800
G1 X137.775 Y115.675 E169.6124 F600
G0 X94.501 Y98.634 F10800
G1 X118.239 Y75.457 E170.7153 F600
G1 X117.625 Y75.517
G1 X94.560 Y98.038 E171.7869
G1 X94.619 Y97.441
G1 X117.011 Y75.578 E172.8273
G1 X116.397 Y75.638
G1 X94.678 Y96.845 E173.8364
G1 X94.736 Y96.249
G1 X115.783 Y75.699 E174.8143
G1 X115.169 Y75.759
G1 X94.795 Y95.652 E175.7609
G1 X94.894 Y95.016
G1 X114.555 Y75.820 E176.6744
G1 X113.872 Y75.948
G1 X95.127 Y94.250 E177.5453
G1 X95.359 Y93.485
G1 X113.071 Y76.190 E178.3682
G1 X112.270 Y76.433
G1 X95.591 Y92.719 E179.1432
G1 X95.824 Y91.953
G1 X111.469 Y76.676 E179.8701
G1 X110.669 Y76.919
G1 X96.056 Y91.187 E180.5490
G1 X96.362 Y90.349
G1 X109.868 Y77.162 E181.1765
G0 X108.811 Y77.655 F10800
G1 X96.965 Y89.221 E181.7269 F600
G0 X97.568 Y88.094 F10800
G1 X107.591 Y78.307 E182.1926 F600
G0 X106.371 Y78.959 F10800
G1 X98.170 Y86.966 E182.5737 F600
G0 X99.461 Y85.167 F10800
G1 X104.868 Y79.887 E182.8249 F600
; ------------------------------------
; Layer #1
; ------------------------------------
G21 ; mm
G90 ; abs
G92 E0 ; reset extr
M106 S0
G0 F4800 E-1.0000
G0 F300 Z0.400
G0 X141.929 Y93.680 F10800
G0 X144.400 Y94.600
G0 F4800 E0.0000
;segType:Support
G1 X157.000 Y94.600 E0.3560 F5400
G1 X157.000 Y96.400 E0.4069
G1 X144.611 Y96.400 E0.7570
G1 X144.787 Y98.200 E0.8081
G1 X157.000 Y98.200 E1.1532
G1 X157.000 Y100.000 E1.2041
G1 X144.963 Y100.000 E1.5442
;segType:HShell
G0 F4800 E0.5442
G0 X143.522 Y99.614 F10800
G0 F4800 E1.5442
G1 X118.731 Y75.408 E2.6960 F3600
;segType:Perimeter
G0 X118.550 Y75.311 F10800
G1 X119.021 Y74.802 E2.7191 F2160
G1 X123.878 Y75.280 E2.8813
G1 X128.605 Y76.714 E3.0455
G1 X132.961 Y79.043 E3.2097
G1 X136.780 Y82.176 E3.3740
G1 X139.914 Y85.996 E3.5382
G1 X142.257 Y90.397 E3.7040
G1 X143.678 Y95.082 E3.8667
G1 X144.162 Y100.000 E4.0310
G1 X143.700 Y104.688 E4.1876
G1 X143.667 Y104.953 E4.1965
G1 X142.243 Y109.647 E4.3595
G1 X139.914 Y114.004 E4.5238
G1 X136.780 Y117.824 E4.6880
G1 X132.961 Y120.957 E4.8523
G1 X128.605 Y123.286 E5.0165
G1 X123.878 Y124.720 E5.1807
G1 X118.963 Y125.204 E5.3448
G1 X114.048 Y124.720 E5.5090
G1 X109.322 Y123.286 E5.6732
G1 X104.965 Y120.957 E5.8374
G1 X101.146 Y117.824 E6.0017
G1 X98.012 Y114.004 E6.1659
G1 X95.683 Y109.647 E6.3302
G1 X94.248 Y104.918 E6.4944
G1 X93.764 Y100.000 E6.6587
G1 X94.248 Y95.082 E6.8230
G1 X95.683 Y90.354 E6.9873
G1 X98.012 Y85.996 E7.1515
G1 X101.146 Y82.176 E7.3158
G1 X104.965 Y79.043 E7.4800
G1 X109.321 Y76.714 E7.6442
G1 X114.048 Y75.280 E7.8084
G1 X118.905 Y74.802 E7.9706
G1 X119.376 Y75.311
;segType:Loop
G0 X119.991 Y75.290 F10800
G1 X123.798 Y75.665 E8.0978 F3600
G1 X128.448 Y77.076 E8.2594
G1 X132.734 Y79.367 E8.4209
G1 X136.493 Y82.451 E8.5825
G1 X139.578 Y86.210 E8.7442
G1 X141.884 Y90.544 E8.9074
G1 X143.283 Y95.157 E9.0677
G1 X143.760 Y100.000 E9.2294
G1 X143.303 Y104.646 E9.3846
G1 X143.274 Y104.873 E9.3923
G1 X141.871 Y109.499 E9.5530
G1 X139.578 Y113.790 E9.7147
G1 X136.493 Y117.549 E9.8764
G1 X132.734 Y120.633 E10.0380
G1 X128.448 Y122.924 E10.1996
G1 X123.798 Y124.335 E10.3611
G1 X118.963 Y124.811 E10.5226
G1 X114.128 Y124.335 E10.6841
G1 X109.478 Y122.924 E10.8456
G1 X105.192 Y120.633 E11.0072
G1 X101.434 Y117.549 E11.1688
G1 X98.349 Y113.790 E11.3305
G1 X96.055 Y109.499 E11.4922
G1 X94.643 Y104.843 E11.6540
G1 X94.166 Y100.000 E11.8158
G1 X94.643 Y95.157 E11.9775
G1 X96.055 Y90.501 E12.1393
G1 X98.349 Y86.210 E12.3010
G1 X101.434 Y82.451 E12.4627
G1 X105.192 Y79.367 E12.6243
G1 X109.478 Y77.076 E12.7859
G1 X114.128 Y75.665 E12.9474
G1 X118.963 Y75.189 E13.1089
G1 X119.797 Y75.271 E13.1368
;segType:HShell
G0 X118.229 Y75.458 F10800
G1 X143.542 Y100.174 E14.3129 F3600
G1 X143.494 Y100.666
G1 X117.728 Y75.507 E15.5100
G1 X117.226 Y75.556
G1 X143.446 Y101.157 E16.7282
G1 X143.397 Y101.649
G1 X116.725 Y75.606 E17.9675
G1 X116.223 Y75.655
G1 X143.349 Y102.141 E19.2278
G1 X143.300 Y102.633
G1 X115.722 Y75.705 E20.5092
G1 X115.220 Y75.754
G1 X143.252 Y103.124 E21.8116
G1 X143.203 Y103.616
G1 X114.719 Y75.803 E23.1350
G1 X114.217 Y75.853
G1 X143.155 Y104.108 E24.4795
G1 X143.106 Y104.599
G1 X113.788 Y75.973 E25.8417
G1 X113.367 Y76.101
G1 X143.013 Y105.047 E27.2191
G1 X142.887 Y105.463
G1 X112.946 Y76.228 E28.6102
G1 X112.525 Y76.356
G1 X142.760 Y105.879 E30.0151
G1 X142.634 Y106.295
G1 X112.103 Y76.484 E31.4336
G1 X111.682 Y76.612
G1 X142.508 Y106.710 E32.8659
G1 X142.382 Y107.126
G1 X111.261 Y76.739 E34.3118
G1 X110.840 Y76.867
G1 X142.256 Y107.542 E35.7715
G1 X142.130 Y107.958
G1 X110.419 Y76.995 E37.2448
G1 X109.997 Y77.123
G1 X142.004 Y108.374 E38.7319
G1 X141.877 Y108.790
G1 X109.576 Y77.250 E40.2327
G1 X109.216 Y77.438
G1 X141.751 Y109.206 E41.7444
G1 X141.595 Y109.592
G1 X108.860 Y77.629 E43.2653
G1 X108.503 Y77.819
G1 X141.406 Y109.947 E44.7941
G1 X141.217 Y110.301
G1 X108.146 Y78.010 E46.3306
G1 X107.789 Y78.201
G1 X141.028 Y110.655 E47.8750
G1 X140.838 Y111.009
G1 X107.433 Y78.392 E49.4271
G1 X107.076 Y78.582
G1 X140.649 Y111.363 E50.9869
G1 X140.460 Y111.717
G1 X106.719 Y78.773 E52.5546
G1 X106.362 Y78.964
G1 X140.270 Y112.072 E54.1300
G1 X140.081 Y112.426
G1 X106.006 Y79.154 E55.7132
G1 X105.649 Y79.345
G1 X139.892 Y112.780 E57.3042
G1 X139.702 Y113.134
G1 X105.294 Y79.538 E58.9029
G1 X104.994 Y79.784
G1 X139.513 Y113.488 E60.5067
G1 X139.298 Y113.818
G1 X104.694 Y80.030 E62.1145
G1 X104.394 Y80.276
G1 X139.053 Y114.117 E63.7248
G1 X138.807 Y114.416
G1 X104.094 Y80.522 E65.3376
G1 X103.794 Y80.768
G1 X138.562 Y114.716 E66.9530
G1 X138.316 Y115.015
G1 X103.494 Y81.015 E68.5709
G1 X103.195 Y81.261
G1 X138.070 Y115.314 E70.1913
G1 X137.825 Y115.613
G1 X102.895 Y81.507 E71.8142
G1 X102.595 Y81.753
G1 X137.579 Y115.913 E73.4397
G1 X137.334 Y116.212
G1 X102.295 Y81.999 E75.0677
G1 X101.995 Y82.245
G1 X137.088 Y116.511 E76.6982
G1 X136.843 Y116.810
G1 X101.695 Y82.491 E78.3313
G1 X101.428 Y82.770
G1 X136.597 Y117.110 E79.9654
G1 X136.352 Y117.409
G1 X101.182 Y83.069 E81.5994
G1 X100.937 Y83.368
G1 X136.052 Y117.656 E83.2309
G1 X135.752 Y117.902
G1 X100.691 Y83.668 E84.8600
G1 X100.446 Y83.967
G1 X135.452 Y118.148 E86.4865
G1 X135.152 Y118.394
G1 X100.200 Y84.266 E88.1104
G1 X99.955 Y84.566
G1 X134.852 Y118.640 E89.7318
G1 X134.552 Y118.886
G1 X99.709 Y84.865 E91.3507
G1 X99.463 Y85.164
G1 X134.252 Y119.133 E92.9671
G1 X133.953 Y119.379
G1 X99.218 Y85.463 E94.5810
G1 X98.972 Y85.763
G1 X133.653 Y119.625 E96.1923
G1 X133.353 Y119.871
G1 X98.727 Y86.062 E97.8011
G1 X98.489 Y86.369
G1 X133.053 Y120.117 E99.4070
G1 X132.753 Y120.363
G1 X98.300 Y86.723 E101.0077
G1 X98.111 Y87.078
G1 X132.421 Y120.578 E102.6018
G1 X132.064 Y120.769
G1 X97.922 Y87.432 E104.1882
G1 X97.732 Y87.786
G1 X131.707 Y120.960 E105.7668
G1 X131.351 Y121.150
G1 X97.543 Y88.140 E107.3375
G1 X97.354 Y88.494
G1 X130.994 Y121.341 E108.9005
G1 X130.637 Y121.532
G1 X97.164 Y88.848 E110.4558
G1 X96.975 Y89.203
G1 X130.280 Y121.722 E112.0032
G1 X129.924 Y121.913
G1 X96.786 Y89.557 E113.5429
G1 X96.596 Y89.911
G1 X129.567 Y122.104 E115.0748
G1 X129.210 Y122.295
G1 X96.407 Y90.265 E116.5989
G1 X96.226 Y90.627
G1 X128.853 Y122.485 E118.1148
G1 X128.497 Y122.676
G1 X96.100 Y91.043 E119.6201
G1 X95.973 Y91.459
G1 X128.098 Y122.826 E121.1127
G1 X127.677 Y122.954
G1 X95.847 Y91.875 E122.5916
G1 X95.721 Y92.291
G1 X127.256 Y123.082 E124.0567
G1 X126.835 Y123.209
G1 X95.595 Y92.706 E125.5082
G1 X95.469 Y93.122
G1 X126.413 Y123.337 E126.9460
G1 X125.992 Y123.465
G1 X95.343 Y93.538 E128.3700
G1 X95.217 Y93.954
G1 X125.571 Y123.593 E129.7803
G1 X125.150 Y123.720
G1 X95.090 Y94.370 E131.1770
G1 X94.964 Y94.786
G1 X124.729 Y123.848 E132.5599
G1 X124.307 Y123.976
G1 X94.839 Y95.203 E133.9291
G1 X94.791 Y95.695
G1 X123.886 Y124.104 E135.2809
G1 X123.409 Y124.177
G1 X94.743 Y96.186 E136.6128
G1 X94.694 Y96.678
G1 X122.908 Y124.226 E137.9237
G1 X122.406 Y124.276
G1 X94.646 Y97.170 E139.2135
G1 X94.597 Y97.661
G1 X121.905 Y124.325 E140.4823
G1 X121.403 Y124.374
G1 X94.549 Y98.153 E141.7300
G1 X94.500 Y98.645
G1 X120.902 Y124.424 E142.9567
G1 X120.400 Y124.473
G1 X94.452 Y99.137 E144.1623
G1 X94.403 Y99.628
G1 X119.899 Y124.522 E145.3469
G1 X119.397 Y124.572
G1 X94.381 Y100.146 E146.5092
G1 X94.440 Y100.742
G1 X118.881 Y124.607 E147.6448
G1 X118.267 Y124.546
G1 X94.499 Y101.338 E148.7491
G1 X94.557 Y101.935
G1 X117.653 Y124.486 E149.8222
G1 X117.039 Y124.425
G1 X94.616 Y102.531 E150.8640
G1 X94.675 Y103.128
G1 X116.425 Y124.365 E151.8745
G1 X115.811 Y124.304
G1 X94.734 Y103.724 E152.8538
G1 X94.792 Y104.320
G1 X115.197 Y124.244 E153.8019
G1 X114.583 Y124.183
G1 X94.884 Y104.949 E154.7172
G1 X95.116 Y105.714
G1 X113.908 Y124.064 E155.5903
G1 X113.108 Y123.821
G1 X95.348 Y106.480 E156.4154
G1 X95.581 Y107.246
G1 X112.307 Y123.578 E157.1926
G1 X111.506 Y123.335
G1 X95.813 Y108.012 E157.9217
G1 X96.045 Y108.778
G1 X110.705 Y123.092 E158.6029
G1 X109.904 Y122.849
G1 X96.334 Y109.599 E159.2334
G0 X96.937 Y110.727 F10800
G1 X108.866 Y122.375 E159.7876 F3600
G0 X105.027 Y120.243 F10800
G1 X99.360 Y114.710 E160.0509 F3600
G0 X98.143 Y112.982 F10800
G1 X106.427 Y121.071 E160.4358 F3600
G0 X107.647 Y121.723 F10800
G1 X97.540 Y111.855 E160.9054 F3600
G0 X143.463 Y99.018 F10800
G1 X119.292 Y75.418 E162.0284 F3600
G1 X119.906 Y75.478
G1 X143.404 Y98.422 E163.1202
G1 X143.345 Y97.825
G1 X120.520 Y75.539 E164.1807
G1 X121.134 Y75.599
G1 X143.286 Y97.229 E165.2099
G1 X143.228 Y96.632
G1 X121.748 Y75.660 E166.2079
G1 X122.362 Y75.720
G1 X143.169 Y96.036 E167.1746
G1 X143.110 Y95.440
G1 X122.976 Y75.781 E168.1101
G1 X123.590 Y75.841
G1 X142.949 Y94.743 E169.0095
G1 X142.717 Y93.977
G1 X124.340 Y76.034 E169.8634
G1 X125.141 Y76.277
G1 X142.485 Y93.212 E170.6692
G0 X142.020 Y91.680 F10800
G1 X126.742 Y76.763 E171.3790 F3600
G1 X127.543 Y77.006
G1 X141.788 Y90.914 E172.0409
G0 X141.332 Y89.930 F10800
G1 X128.344 Y77.248 E172.6443 F3600
G0 X129.550 Y77.887 F10800
G1 X140.735 Y88.808 E173.1640 F3600
G0 X140.138 Y87.686 F10800
G1 X130.770 Y78.539 E173.5992 F3600
G0 X137.674 Y84.202 F10800
G1 X134.291 Y80.899 E173.7564 F3600
G0 X131.990 Y79.191 F10800
G1 X139.541 Y86.564 E174.1072 F3600
G0 X142.252 Y92.446 F10800
G1 X125.942 Y76.520 E174.8651 F3600
; ------------------------------------
; Layer #2
; ------------------------------------
G21 ; mm
G90 ; abs
G92 E0 ; reset extr
M106 S0
G0 F4800 E-1.0000
G0 F300 Z0.600
G0 X142.554 Y92.792 F10800
G0 X144.400 Y94.600
G0 F4800 E0.0000
;segType:Support
G1 X157.000 Y94.600 E0.3560 F5400
G1 X157.000 Y96.400 E0.4069
G1 X144.611 Y96.400 E0.7570
G1 X144.787 Y98.200 E0.8081
G1 X157.000 Y98.200 E1.1532
G1 X157.000 Y100.000 E1.2041
G1 X144.963 Y100.000 E1.5442
G0 F4800 E0.5442
G0 X142.307 Y99.928 F10800
G0 X94.501 Y98.634
G0 F4800 E1.5442
;segType:HShell
G1 X118.239 Y75.457 E2.6471 F3600
;segType:Perimeter
G0 X118.550 Y75.311 F10800
G1 X119.021 Y74.802 E2.6701 F2160
G1 X123.878 Y75.280 E2.8324
G1 X128.605 Y76.714 E2.9966
G1 X132.961 Y79.043 E3.1608
G1 X136.780 Y82.176 E3.3250
G1 X139.914 Y85.996 E3.4893
G1 X142.243 Y90.353 E3.6535
G1 X143.678 Y95.082 E3.8178
G1 X144.162 Y100.000 E3.9821
G1 X143.713 Y104.565 E4.1346
G1 X143.662 Y104.972 E4.1482
G1 X142.243 Y109.647 E4.3106
G1 X139.914 Y114.004 E4.4748
G1 X136.780 Y117.824 E4.6391
G1 X132.961 Y120.957 E4.8033
G1 X128.605 Y123.286 E4.9675
G1 X123.878 Y124.720 E5.1317
G1 X118.963 Y125.204 E5.2959
G1 X114.048 Y124.720 E5.4601
G1 X109.322 Y123.286 E5.6243
G1 X104.965 Y120.957 E5.7885
G1 X101.146 Y117.824 E5.9527
G1 X98.012 Y114.004 E6.1170
G1 X95.683 Y109.647 E6.2812
G1 X94.248 Y104.918 E6.4455
G1 X93.764 Y100.000 E6.6098
G1 X94.248 Y95.082 E6.7741
G1 X95.683 Y90.354 E6.9383
G1 X98.012 Y85.996 E7.1026
G1 X101.146 Y82.176 E7.2668
G1 X104.965 Y79.043 E7.4311
G1 X109.321 Y76.714 E7.5953
G1 X114.048 Y75.280 E7.7595
G1 X118.905 Y74.802 E7.9217
G1 X119.376 Y75.311
;segType:Loop
G0 X119.991 Y75.290 F10800
G1 X123.798 Y75.665 E8.0489 F3600
G1 X128.448 Y77.076 E8.2104
G1 X132.734 Y79.367 E8.3720
G1 X136.493 Y82.451 E8.5336
G1 X139.578 Y86.210 E8.6953
G1 X141.871 Y90.501 E8.8570
G1 X143.283 Y95.157 E9.0188
G1 X143.760 Y100.000 E9.1805
G1 X143.315 Y104.523 E9.3316
G1 X143.269 Y104.892 E9.3440
G1 X141.871 Y109.499 E9.5041
G1 X139.578 Y113.790 E9.6658
G1 X136.493 Y117.549 E9.8274
G1 X132.734 Y120.633 E9.9891
G1 X128.448 Y122.924 E10.1506
G1 X123.798 Y124.335 E10.3122
G1 X118.963 Y124.811 E10.4737
G1 X114.128 Y124.335 E10.6352
G1 X109.478 Y122.924 E10.7967
G1 X105.192 Y120.633 E10.9583
G1 X101.434 Y117.549 E11.1199
G1 X98.349 Y113.790 E11.2816
G1 X96.055 Y109.499 E11.4433
G1 X94.643 Y104.843 E11.6051
G1 X94.166 Y100.000 E11.7668
G1 X94.643 Y95.157 E11.9286
G1 X96.055 Y90.501 E12.0904
G1 X98.349 Y86.210 E12.2521
G1 X101.434 Y82.451 E12.4138
G1 X105.192 Y79.367 E12.5754
G1 X109.478 Y77.076 E12.7370
G1 X114.128 Y75.665 E12.8985
G1 X118.963 Y75.189 E13.0600
G1 X119.797 Y75.271 E13.0879
;segType:HShell
G0 X117.625 Y75.517 F10800
G1 X94.560 Y98.038 E14.1595 F3600
G1 X94.619 Y97.441
G1 X117.011 Y75.578 E15.1999
G1 X116.397 Y75.638
G1 X94.678 Y96.845 E16.2090
G1 X94.736 Y96.249
G1 X115.783 Y75.699 E17.1869
G1 X115.169 Y75.759
G1 X94.795 Y95.652 E18.1335
G1 X94.894 Y95.016
G1 X114.555 Y75.820 E19.0469
G0 X112.270 Y76.433 F10800
G1 X95.591 Y92.719 E19.8219 F3600
G0 X96.056 Y91.187 F10800
G1 X110.669 Y76.919 E20.5008 F3600
G1 X109.868 Y77.162
G1 X96.362 Y90.349 E21.1283
G0 X96.965 Y89.221 F10800
G1 X108.811 Y77.655 E21.6787 F3600
G0 X107.591 Y78.307 F10800
G1 X97.568 Y88.094 E22.1444 F3600
G0 X98.170 Y86.966 F10800
G1 X106.371 Y78.959 E22.5254 F3600
G0 X104.868 Y79.887 F10800
G1 X99.461 Y85.167 E22.7766 F3600
G0 X111.469 Y76.676 F10800
G1 X95.824 Y91.953 E23.5036 F3600
G0 X95.359 Y93.485 F10800
G1 X113.071 Y76.190 E24.3265 F3600
G1 X113.872 Y75.948
G1 X95.127 Y94.250 E25.1975
G0 X94.443 Y99.231 F10800
G1 X118.853 Y75.396 E26.3316 F3600
G1 X119.374 Y75.426
G1 X94.384 Y99.827 E27.4927
G1 X94.401 Y100.349
G1 X119.876 Y75.475 E28.6763
G1 X120.377 Y75.525
G1 X94.450 Y100.841 E29.8810
G1 X94.498 Y101.333
G1 X120.879 Y75.574 E31.1067
G1 X121.380 Y75.623
G1 X94.546 Y101.824 E32.3535
G1 X94.595 Y102.316
G1 X121.882 Y75.673 E33.6213
G1 X122.383 Y75.722
G1 X94.643 Y102.808 E34.9101
G1 X94.692 Y103.299
G1 X122.885 Y75.772 E36.2200
G1 X123.386 Y75.821
G1 X94.740 Y103.791 E37.5510
G1 X94.789 Y104.283
G1 X123.867 Y75.891 E38.9020
G1 X124.288 Y76.018
G1 X94.837 Y104.775 E40.2704
G1 X94.958 Y105.195
G1 X124.709 Y76.146 E41.6527
G1 X125.130 Y76.274
G1 X95.085 Y105.611 E43.0487
G1 X95.211 Y106.027
G1 X125.552 Y76.402 E44.4584
G1 X125.973 Y76.529
G1 X95.337 Y106.443 E45.8818
G1 X95.463 Y106.859
G1 X126.394 Y76.657 E47.3189
G1 X126.815 Y76.785
G1 X95.589 Y107.275 E48.7698
G1 X95.715 Y107.690
G1 X127.237 Y76.913 E50.2343
G1 X127.658 Y77.040
G1 X95.841 Y108.106 E51.7126
G1 X95.968 Y108.522
G1 X128.079 Y77.168 E53.2045
G1 X128.480 Y77.315
G1 X96.094 Y108.938 E54.7093
G1 X96.220 Y109.354
G1 X128.837 Y77.506 E56.2248
G1 X129.194 Y77.697
G1 X96.398 Y109.719 E57.7485
G1 X96.588 Y110.073
G1 X129.550 Y77.887 E59.2800
G1 X129.907 Y78.078
G1 X96.777 Y110.427 E60.8194
G1 X96.966 Y110.781
G1 X130.264 Y78.269 E62.3664
G1 X130.621 Y78.460
G1 X97.156 Y111.135 E63.9213
G1 X97.345 Y111.489
G1 X130.978 Y78.650 E65.4840
G1 X131.334 Y78.841
G1 X97.534 Y111.844 E67.0544
G1 X97.724 Y112.198
G1 X131.691 Y79.032 E68.6326
G1 X132.048 Y79.222
G1 X97.913 Y112.552 E70.2186
G1 X98.102 Y112.906
G1 X132.405 Y79.413 E71.8123
G1 X132.739 Y79.626
G1 X98.292 Y113.260 E73.4128
G1 X98.481 Y113.614
G1 X133.039 Y79.872 E75.0185
G1 X133.339 Y80.118
G1 X98.716 Y113.924 E76.6271
G1 X98.961 Y114.224
G1 X133.639 Y80.364 E78.2383
G1 X133.939 Y80.610
G1 X99.207 Y114.523 E79.8521
G1 X99.452 Y114.822
G1 X134.239 Y80.856 E81.4683
G1 X134.539 Y81.102
G1 X99.698 Y115.121 E83.0871
G1 X99.943 Y115.421
G1 X134.839 Y81.348 E84.7084
G1 X135.139 Y81.595
G1 X100.189 Y115.720 E86.3322
G1 X100.435 Y116.019
G1 X135.439 Y81.841 E87.9586
G1 X135.739 Y82.087
G1 X100.680 Y116.318 E89.5875
G1 X100.926 Y116.618
G1 X136.038 Y82.333 E91.2189
G1 X136.338 Y82.579
G1 X101.171 Y116.917 E92.8529
G1 X101.417 Y117.216
G1 X136.586 Y82.877 E94.4869
G1 X136.831 Y83.176
G1 X101.681 Y117.497 E96.1201
G1 X101.981 Y117.743
G1 X137.077 Y83.475 E97.7507
G1 X137.323 Y83.774
G1 X102.281 Y117.989 E99.3788
G1 X102.581 Y118.236
G1 X137.568 Y84.074 E101.0044
G1 X137.814 Y84.373
G1 X102.881 Y118.482 E102.6275
G1 X103.181 Y118.728
G1 X138.059 Y84.672 E104.2480
G1 X138.305 Y84.971
G1 X103.481 Y118.974 E105.8660
G1 X103.781 Y119.220
G1 X138.550 Y85.271 E107.4815
G1 X138.796 Y85.570
G1 X104.081 Y119.466 E109.0944
G1 X104.381 Y119.712
G1 X139.041 Y85.869 E110.7049
G1 X139.287 Y86.169
G1 X104.681 Y119.959 E112.3127
G1 X104.981 Y120.205
G1 X139.504 Y86.495 E113.9168
G1 X139.694 Y86.850
G1 X105.280 Y120.451 E115.5157
G1 X105.633 Y120.646
G1 X139.883 Y87.204 E117.1071
G1 X140.072 Y87.558
G1 X105.989 Y120.837 E118.6906
G1 X106.346 Y121.028
G1 X140.262 Y87.912 E120.2664
G1 X140.451 Y88.266
G1 X106.703 Y121.218 E121.8344
G1 X107.060 Y121.409
G1 X140.640 Y88.620 E123.3947
G1 X140.830 Y88.975
G1 X107.416 Y121.600 E124.9471
G1 X107.773 Y121.790
G1 X141.019 Y89.329 E126.4918
G1 X141.208 Y89.683
G1 X108.130 Y121.981 E128.0287
G1 X108.487 Y122.172
G1 X141.397 Y90.037 E129.5578
G1 X141.587 Y90.391
G1 X108.843 Y122.362 E131.0791
G1 X109.200 Y122.553
G1 X141.746 Y90.775 E132.5913
G1 X141.872 Y91.191
G1 X109.557 Y122.744 E134.0927
G1 X109.978 Y122.872
G1 X141.998 Y91.607 E135.5804
G1 X142.124 Y92.023
G1 X110.399 Y122.999 E137.0544
G1 X110.820 Y123.127
G1 X142.250 Y92.439 E138.5147
G1 X142.376 Y92.855
G1 X111.242 Y123.255 E139.9613
G1 X111.663 Y123.383
G1 X142.502 Y93.270 E141.3941
G1 X142.629 Y93.686
G1 X112.084 Y123.510 E142.8133
G1 X112.505 Y123.638
G1 X142.755 Y94.102 E144.2188
G1 X142.881 Y94.518
G1 X112.927 Y123.766 E145.6105
G1 X113.348 Y123.894
G1 X143.007 Y94.934 E146.9885
G1 X143.104 Y95.378
G1 X113.769 Y124.021 E148.3515
G1 X114.194 Y124.145
G1 X143.153 Y95.870 E149.6970
G1 X143.201 Y96.362
G1 X114.696 Y124.194 E151.0214
G1 X115.197 Y124.244
G1 X143.249 Y96.853 E152.3247
G1 X143.298 Y97.345
G1 X115.699 Y124.293 E153.6071
G1 X116.200 Y124.343
G1 X143.346 Y97.837 E154.8683
G1 X143.395 Y98.328
G1 X116.702 Y124.392 E156.1086
G1 X117.203 Y124.441
G1 X143.443 Y98.820 E157.3277
G1 X143.492 Y99.312
G1 X117.705 Y124.491 E158.5259
G1 X118.206 Y124.540
G1 X143.540 Y99.804 E159.7029
G1 X143.524 Y100.358
G1 X118.708 Y124.589 E160.8560
G1 X119.264 Y124.585
G1 X143.465 Y100.955 E161.9804
G1 X143.407 Y101.551
G1 X119.878 Y124.525 E163.0736
G1 X120.492 Y124.464
G1 X143.348 Y102.147 E164.1356
G1 X143.289 Y102.744
G1 X121.106 Y124.404 E165.1662
G1 X121.720 Y124.343
G1 X143.231 Y103.340 E166.1657
G1 X143.172 Y103.936
G1 X122.334 Y124.283 E167.1338
G1 X122.948 Y124.222
G1 X143.112 Y104.534 E168.0707
G1 X142.960 Y105.221
G1 X123.562 Y124.162 E168.9720
G0 X137.775 Y115.675 F10800
G1 X134.132 Y119.231 E169.1412 F3600
G0 X131.934 Y120.839 F10800
G1 X139.569 Y113.384 E169.4959 F3600
G0 X140.172 Y112.256 F10800
G1 X130.714 Y121.491 E169.9354 F3600
G0 X129.494 Y122.143 F10800
G1 X140.774 Y111.129 E170.4595 F3600
G0 X141.377 Y110.001 F10800
G1 X128.307 Y122.763 E171.0667 F3600
G1 X127.506 Y123.006
G1 X141.798 Y109.051 E171.7307
G1 X142.031 Y108.285
G1 X126.706 Y123.248 E172.4428
G1 X125.905 Y123.491
G1 X142.263 Y107.519 E173.2028
G1 X142.495 Y106.753
G1 X125.104 Y123.734 E174.0109
G1 X124.303 Y123.977
G1 X142.728 Y105.987 E174.8669
; ------------------------------------
; Layer #3
; ------------------------------------
G21 ; mm
G90 ; abs
G92 E0 ; reset extr
M106 S255
G0 F4800 E-1.0000
G0 F300 Z0.800
G0 X145.106 Y104.989 F10800
G0 X157.000 Y100.000
G0 F4800 E0.0000
;segType:Support
G1 X144.963 Y100.000 E0.3401 F5400
G0 F4800 E-0.6599
G0 X157.000 Y98.200 F10800
G0 F4800 E0.3401
G1 X144.787 Y98.200 E0.6852 F5400
G1 X144.611 Y96.400 E0.7363
G1 X157.000 Y96.400 E1.0864
G1 X157.000 Y94.600 E1.1373
G1 X144.400 Y94.600 E1.4933
G0 F4800 E0.4933
G0 X142.366 Y92.991 F10800
G0 X119.991 Y75.290
G0 F4800 E1.4933
;segType:Loop
G1 X123.798 Y75.665 E1.6205 F3600
G1 X128.448 Y77.076 E1.7820
G1 X132.734 Y79.367 E1.9436
G1 X136.493 Y82.451 E2.1052
G1 X139.578 Y86.210 E2.2669
G1 X141.871 Y90.501 E2.4286
G1 X143.283 Y95.157 E2.5904
G1 X143.760 Y100.000 E2.7522
G1 X143.283 Y104.843 E2.9139
G1 X141.871 Y109.499 E3.0757
G1 X139.578 Y113.790 E3.2374
G1 X136.493 Y117.549 E3.3991
G1 X132.734 Y120.633 E3.5607
G1 X128.448 Y122.924 E3.7223
G1 X123.798 Y124.335 E3.8838
G1 X118.963 Y124.811 E4.0453
G1 X114.128 Y124.335 E4.2068
G1 X109.478 Y122.924 E4.3684
G1 X105.192 Y120.633 E4.5299
G1 X101.434 Y117.549 E4.6915
G1 X98.349 Y113.790 E4.8532
G1 X96.055 Y109.499 E5.0149
G1 X94.643 Y104.843 E5.1767
G1 X94.166 Y100.000 E5.3385
G1 X94.643 Y95.157 E5.5003
G1 X96.055 Y90.501 E5.6620
G1 X98.349 Y86.210 E5.8237
G1 X101.434 Y82.451 E5.9854
G1 X105.192 Y79.367 E6.1470
G1 X109.478 Y77.076 E6.3086
G1 X114.128 Y75.665 E6.4701
G1 X118.963 Y75.189 E6.6316
G1 X119.797 Y75.271 E6.6595
;segType:Perimeter
G0 X118.550 Y75.311 F10800
G1 X119.021 Y74.802 E6.6826 F2160
G1 X123.878 Y75.280 E6.8448
G1 X128.605 Y76.714 E7.0090
G1 X132.961 Y79.043 E7.1732
G1 X136.780 Y82.176 E7.3374
G1 X139.914 Y85.996 E7.5017
G1 X142.243 Y90.353 E7.6659
G1 X143.678 Y95.082 E7.8302
G1 X144.162 Y100.000 E7.9945
G1 X143.678 Y104.918 E8.1588
G1 X142.243 Y109.647 E8.3230
G1 X139.914 Y114.004 E8.4873
G1 X136.780 Y117.824 E8.6515
G1 X132.961 Y120.957 E8.8158
G1 X128.605 Y123.286 E8.9800
G1 X123.878 Y124.720 E9.1442
G1 X118.963 Y125.204 E9.3084
G1 X114.048 Y124.720 E9.4725
G1 X109.322 Y123.286 E9.6367
G1 X104.965 Y120.957 E9.8009
G1 X101.146 Y117.824 E9.9652
G1 X98.012 Y114.004 E10.1294
G1 X95.683 Y109.647 E10.2937
G1 X94.248 Y104.918 E10.4580
G1 X93.764 Y100.000 E10.6222
G1 X94.248 Y95.082 E10.7865
G1 X95.683 Y90.354 E10.9508
G1 X98.012 Y85.996 E11.1150
G1 X101.146 Y82.176 E11.2793
G1 X104.965 Y79.043 E11.4435
G1 X109.321 Y76.714 E11.6077
G1 X114.048 Y75.280 E11.7719
G1 X118.905 Y74.802 E11.9342
G1 X119.376 Y75.311
;segType:Infill
G0 X117.217 Y75.557 F10800
G1 X117.217 Y124.443 E13.5593 F5400
G0 X121.326 Y124.382 F10800
G1 X121.326 Y75.618 E15.1804 F5400
G0 X125.435 Y76.366 F10800
G1 X125.435 Y123.634 E16.7517 F5400
G0 X129.035 Y122.388 F10800
G1 X108.891 Y122.388 E17.4214 F5400
G1 X108.999 Y122.446 E17.4254
G1 X108.999 Y77.554 E18.9178
G0 X107.689 Y78.255 F10800
G1 X130.238 Y78.255 E19.6674 F5400
G1 X129.544 Y77.884 E19.6935
G1 X129.544 Y122.116 E21.1639
G0 X133.653 Y119.624 F10800
G1 X133.653 Y80.376 E22.4687 F5400
G0 X135.958 Y82.267 F10800
G1 X101.968 Y82.267 E23.5986 F5400
G0 X104.890 Y79.869 F10800
G1 X104.890 Y120.131 E24.9370 F5400
G0 X102.752 Y118.376 F10800
G1 X135.175 Y118.376 E26.0149 F5400
G0 X137.762 Y115.689 F10800
G1 X137.762 Y84.310 E27.0580 F5400
G0 X139.378 Y86.279 F10800
G1 X98.549 Y86.279 E28.4154 F5400
G0 X96.672 Y89.769 F10800
G1 X96.672 Y110.231 E29.0956 F5400
G0 X95.306 Y106.339 F10800
G1 X142.621 Y106.339 E30.6685 F5400
G0 X142.816 Y94.303 F10800
G1 X95.111 Y94.303 E32.2544 F5400
G0 X94.533 Y98.315 F10800
G1 X143.394 Y98.315 E33.8787 F5400
G0 X143.330 Y102.327 F10800
G1 X94.596 Y102.327 E35.4988 F5400
G0 X96.737 Y110.352 F10800
G1 X141.190 Y110.352 E36.9766 F5400
G0 X141.871 Y108.810 F10800
G1 X141.871 Y91.190 E37.5623 F5400
G0 X141.533 Y90.291 F10800
G1 X96.393 Y90.291 E39.0629 F5400
G0 X100.781 Y83.558 F10800
G1 X100.781 Y116.442 E40.1561 F5400
G0 X99.076 Y114.364 F10800
G1 X138.850 Y114.364 E41.4783 F5400
G0 X113.108 Y123.821 F10800
G1 X113.108 Y76.179 E43.0621 F5400
; ------------------------------------
; Layer #4
; ------------------------------------
G21 ; mm
G90 ; abs
G92 E0 ; reset extr
M106 S255
;segType:Loop
G0 F4800 E-1.0000
G0 F300 Z1.000
G0 X119.991 Y75.290 F10800
G0 F4800 E0.0000
G1 X123.798 Y75.665 E0.1272 F3600
G1 X128.448 Y77.076 E0.2887
G1 X132.734 Y79.367 E0.4503
G1 X136.493 Y82.451 E0.6119
G1 X139.578 Y86.210 E0.7736
G1 X141.871 Y90.501 E0.9353
G1 X143.283 Y95.157 E1.0971
G1 X143.760 Y100.000 E1.2588
G1 X143.283 Y104.843 E1.4206
G1 X141.871 Y109.499 E1.5824
G1 X139.578 Y113.790 E1.7441
G1 X136.493 Y117.549 E1.9058
G1 X132.734 Y120.633 E2.0674
G1 X128.448 Y122.924 E2.2290
G1 X123.798 Y124.335 E2.3905
G1 X118.963 Y124.811 E2.5520
G1 X114.128 Y124.335 E2.7135
G1 X109.478 Y122.924 E2.8750
G1 X105.192 Y120.633 E3.0366
G1 X101.434 Y117.549 E3.1982
G1 X98.349 Y113.790 E3.3599
G1 X96.055 Y109.499 E3.5216
G1 X94.643 Y104.843 E3.6834
G1 X94.166 Y100.000 E3.8452
G1 X94.643 Y95.157 E4.0069
G1 X96.055 Y90.501 E4.1687
G1 X98.349 Y86.210 E4.3304
G1 X101.434 Y82.451 E4.4921
G1 X105.192 Y79.367 E4.6537
G1 X109.478 Y77.076 E4.8153
G1 X114.128 Y75.665 E4.9768
G1 X118.963 Y75.189 E5.1383
G1 X119.797 Y75.271 E5.1662
;segType:Perimeter
G0 X118.550 Y75.311 F10800
G1 X119.021 Y74.802 E5.1892 F2160
G1 X123.878 Y75.280 E5.3515
G1 X128.605 Y76.714 E5.5157
G1 X132.961 Y79.043 E5.6799
G1 X136.780 Y82.176 E5.8441
G1 X139.914 Y85.996 E6.0083
G1 X142.243 Y90.353 E6.1726
G1 X143.678 Y95.082 E6.3369
G1 X144.162 Y100.000 E6.5012
G1 X143.678 Y104.918 E6.6654
G1 X142.243 Y109.647 E6.8297
G1 X139.914 Y114.004 E6.9940
G1 X136.780 Y117.824 E7.1582
G1 X132.961 Y120.957 E7.3224
G1 X128.605 Y123.286 E7.4866
G1 X123.878 Y124.720 E7.6508
G1 X118.963 Y125.204 E7.8150
G1 X114.048 Y124.720 E7.9792
G1 X109.322 Y123.286 E8.1434
G1 X104.965 Y120.957 E8.3076
G1 X101.146 Y117.824 E8.4718
G1 X98.012 Y114.004 E8.6361
G1 X95.683 Y109.647 E8.8003
G1 X94.248 Y104.918 E8.9646
G1 X93.764 Y100.000 E9.1289
G1 X94.248 Y95.082 E9.2932
G1 X95.683 Y90.354 E9.4574
G1 X98.012 Y85.996 E9.6217
G1 X101.146 Y82.176 E9.7860
G1 X104.965 Y79.043 E9.9502
G1 X109.321 Y76.714 E10.1144
G1 X114.048 Y75.280 E10.2786
G1 X118.905 Y74.802 E10.4408
G1 X119.376 Y75.311
;segType:Infill
G0 X117.217 Y75.557 F10800
G1 X117.217 Y124.443 E12.0659 F5400
G0 X121.326 Y124.382 F10800
G1 X121.326 Y75.618 E13.6870 F5400
G0 X125.435 Y76.366 F10800
G1 X125.435 Y123.634 E15.2584 F5400
G0 X129.035 Y122.388 F10800
G1 X108.891 Y122.388 E15.9280 F5400
G1 X108.999 Y122.446 E15.9321
G1 X108.999 Y77.554 E17.4245
G0 X107.689 Y78.255 F10800
G1 X130.238 Y78.255 E18.1741 F5400
G1 X129.544 Y77.884 E18.2002
G1 X129.544 Y122.116 E19.6706
G0 X133.653 Y119.624 F10800
G1 X133.653 Y80.376 E20.9753 F5400
G0 X135.958 Y82.267 F10800
G1 X101.968 Y82.267 E22.1053 F5400
G0 X104.890 Y79.869 F10800
G1 X104.890 Y120.131 E23.4437 F5400
G0 X102.752 Y118.376 F10800
G1 X135.175 Y118.376 E24.5216 F5400
G0 X137.762 Y115.689 F10800
G1 X137.762 Y84.310 E25.5647 F5400
G0 X139.378 Y86.279 F10800
G1 X98.549 Y86.279 E26.9220 F5400
G0 X96.672 Y89.769 F10800
G1 X96.672 Y110.231 E27.6023 F5400
G0 X95.306 Y106.339 F10800
G1 X142.621 Y106.339 E29.1752 F5400
G0 X142.816 Y94.303 F10800
G1 X95.111 Y94.303 E30.7611 F5400
G0 X94.533 Y98.315 F10800
G1 X143.394 Y98.315 E32.3854 F5400
G0 X143.330 Y102.327 F10800
G1 X94.596 Y102.327 E34.0055 F5400
G0 X96.737 Y110.352 F10800
G1 X141.190 Y110.352 E35.4832 F5400
G0 X141.871 Y108.810 F10800
G1 X141.871 Y91.190 E36.0690 F5400
G0 X141.533 Y90.291 F10800
G1 X96.393 Y90.291 E37.5696 F5400
G0 X100.781 Y83.558 F10800
G1 X100.781 Y116.442 E38.6627 F5400
G0 X99.076 Y114.364 F10800
G1 X138.850 Y114.364 E39.9850 F5400
G0 X113.108 Y123.821 F10800
G1 X113.108 Y76.179 E41.5687 F5400
;segType:Support
G0 F4800 E40.5687
G0 X144.400 Y94.600 F10800
G0 F4800 E41.5687
G1 X157.000 Y94.600 E41.9248 F5400
G1 X157.000 Y96.400 E41.9756
G1 X144.611 Y96.400 E42.3257
G1 X144.787 Y98.200 E42.3768
G1 X157.000 Y98.200 E42.7219
G1 X157.000 Y100.000 E42.7728
G1 X144.963 Y100.000 E43.1129
; ------------------------------------
; Layer #5
; ------------------------------------
G21 ; mm
G90 ; abs
G92 E0 ; reset extr
M106 S255
;segType:Support
G0 F4800 E-1.0000
G0 F300 Z1.199
G0 X144.963 Y100.000 F10800
G0 F4800 E0.0000
G1 X157.000 Y100.000 E0.3401 F5400
G0 F4800 E-0.6599
G0 X144.611 Y96.400 F10800
G0 F4800 E0.3401
G1 X157.000 Y96.400 E0.6902 F5400
G1 X157.000 Y94.600 E0.7411
G1 X144.400 Y94.600 E1.0971
G0 F4800 E0.0971
G0 X142.366 Y92.991 F10800
G0 X119.991 Y75.290
G0 F4800 E1.0971
;segType:Loop
G1 X123.798 Y75.665 E1.2243 F3600
G1 X128.448 Y77.076 E1.3858
G1 X132.734 Y79.367 E1.5474
G1 X136.493 Y82.451 E1.7090
G1 X139.578 Y86.210 E1.8707
G1 X141.871 Y90.501 E2.0324
G1 X143.283 Y95.157 E2.1942
G1 X143.760 Y100.000 E2.3559
G1 X143.283 Y104.843 E2.5177
G1 X141.871 Y109.499 E2.6795
G1 X139.578 Y113.790 E2.8412
G1 X136.493 Y117.549 E3.0029
G1 X132.734 Y120.633 E3.1645
G1 X128.448 Y122.924 E3.3261
G1 X123.798 Y124.335 E3.4876
G1 X118.963 Y124.811 E3.6491
G1 X114.128 Y124.335 E3.8106
G1 X109.478 Y122.924 E3.9721
G1 X105.192 Y120.633 E4.1337
G1 X101.434 Y117.549 E4.2953
G1 X98.349 Y113.790 E4.4570
G1 X96.055 Y109.499 E4.6187
G1 X94.643 Y104.843 E4.7805
G1 X94.166 Y100.000 E4.9423
G1 X94.643 Y95.157 E5.1040
G1 X96.055 Y90.501 E5.2658
G1 X98.349 Y86.210 E5.4275
G1 X101.434 Y82.451 E5.5892
G1 X105.192 Y79.367 E5.7508
G1 X109.478 Y77.076 E5.9124
G1 X114.128 Y75.665 E6.0739
G1 X118.963 Y75.189 E6.2354
G1 X119.797 Y75.271 E6.2633
;segType:Perimeter
G0 X118.550 Y75.311 F10800
G1 X119.021 Y74.802 E6.2863 F2160
G1 X123.878 Y75.280 E6.4486
G1 X128.605 Y76.714 E6.6128
G1 X132.961 Y79.043 E6.7770
G1 X136.780 Y82.176 E6.9412
G1 X139.914 Y85.996 E7.1055
G1 X142.243 Y90.353 E7.2697
G1 X143.678 Y95.082 E7.4340
G1 X144.162 Y100.000 E7.5983
G1 X143.678 Y104.918 E7.7625
G1 X142.243 Y109.647 E7.9268
G1 X139.914 Y114.004 E8.0911
G1 X136.780 Y117.824 E8.2553
G1 X132.961 Y120.957 E8.4196
G1 X128.605 Y123.286 E8.5838
G1 X123.878 Y124.720 E8.7480
G1 X118.963 Y125.204 E8.9121
G1 X114.048 Y124.720 E9.0763
G1 X109.322 Y123.286 E9.2405
G1 X104.965 Y120.957 E9.4047
G1 X101.146 Y117.824 E9.5690
G1 X98.012 Y114.004 E9.7332
G1 X95.683 Y109.647 E9.8975
G1 X94.248 Y104.918 E10.0617
G1 X93.764 Y100.000 E10.2260
G1 X94.248 Y95.082 E10.3903
G1 X95.683 Y90.354 E10.5546
G1 X98.012 Y85.996 E10.7188
G1 X101.146 Y82.176 E10.8831
G1 X104.965 Y79.043 E11.0473
G1 X109.321 Y76.714 E11.2115
G1 X114.048 Y75.280 E11.3757
G1 X118.905 Y74.802 E11.5379
G1 X119.376 Y75.311
;segType:Infill
G0 X117.217 Y75.557 F10800
G1 X117.217 Y124.443 E13.1631 F5400
G0 X121.326 Y124.382 F10800
G1 X121.326 Y75.618 E14.7841 F5400
G0 X125.435 Y76.366 F10800
G1 X125.435 Y123.634 E16.3555 F5400
G0 X129.035 Y122.388 F10800
G1 X108.891 Y122.388 E17.0251 F5400
G1 X108.999 Y122.446 E17.0292
G1 X108.999 Y77.554 E18.5216
G0 X107.689 Y78.255 F10800
G1 X130.238 Y78.255 E19.2712 F5400
G1 X129.544 Y77.884 E19.2973
G1 X129.544 Y122.116 E20.7677
G0 X133.653 Y119.624 F10800
G1 X133.653 Y80.376 E22.0725 F5400
G0 X135.958 Y82.267 F10800
G1 X101.968 Y82.267 E23.2024 F5400
G0 X104.890 Y79.869 F10800
G1 X104.890 Y120.131 E24.5408 F5400
G0 X102.752 Y118.376 F10800
G1 X135.175 Y118.376 E25.6187 F5400
G0 X137.762 Y115.689 F10800
G1 X137.762 Y84.311 E26.6618 F5400
G0 X139.377 Y86.279 F10800
G1 X98.549 Y86.279 E28.0191 F5400
G0 X96.672 Y89.769 F10800
G1 X96.672 Y110.231 E28.6993 F5400
G0 X95.306 Y106.339 F10800
G1 X142.621 Y106.339 E30.2723 F5400
G0 X142.816 Y94.303 F10800
G1 X95.111 Y94.303 E31.8581 F5400
G0 X94.533 Y98.315 F10800
G1 X143.394 Y98.315 E33.4824 F5400
G0 X143.330 Y102.327 F10800
G1 X94.596 Y102.327 E35.1025 F5400
G0 X96.737 Y110.352 F10800
G1 X141.190 Y110.352 E36.5803 F5400
G0 X141.871 Y108.810 F10800
G1 X141.871 Y91.190 E37.1660 F5400
G0 X141.533 Y90.291 F10800
G1 X96.393 Y90.291 E38.6666 F5400
G0 X100.781 Y83.558 F10800
G1 X100.781 Y116.442 E39.7598 F5400
G0 X99.076 Y114.364 F10800
G1 X138.850 Y114.364 E41.0820 F5400
G0 X113.108 Y123.821 F10800
G1 X113.108 Y76.179 E42.6658 F5400
;segType:Support
G0 F4800 E41.6658
G0 X157.000 Y98.200 F10800
G0 F4800 E42.6658
G1 X144.787 Y98.200 E43.0109 F5400
; ------------------------------------
; Layer #6
; ------------------------------------
G21 ; mm
G90 ; abs
G92 E0 ; reset extr
M106 S255
;segType:Support
G0 F4800 E-1.0000
G0 F300 Z1.399
G0 X144.787 Y98.200 F10800
G0 F4800 E0.0000
G1 X157.000 Y98.200 E0.3451 F5400
G1 X157.000 Y100.000 E0.3960
G1 X144.963 Y100.000 E0.7361
G0 F4800 E-0.2639
G0 X143.179 Y98.235 F10800
G0 X119.991 Y75.290
G0 F4800 E0.7361
;segType:Loop
G1 X123.798 Y75.665 E0.8633 F3600
G1 X128.448 Y77.076 E1.0248
G1 X132.734 Y79.367 E1.1864
G1 X136.493 Y82.451 E1.3480
G1 X139.578 Y86.210 E1.5097
G1 X141.871 Y90.501 E1.6714
G1 X143.283 Y95.157 E1.8332
G1 X143.760 Y100.000 E1.9949
G1 X143.283 Y104.843 E2.1567
G1 X141.871 Y109.499 E2.3185
G1 X139.578 Y113.790 E2.4802
G1 X136.493 Y117.549 E2.6419
G1 X132.734 Y120.633 E2.8035
G1 X128.448 Y122.924 E2.9650
G1 X123.798 Y124.335 E3.1266
G1 X118.963 Y124.811 E3.2881
G1 X114.128 Y124.335 E3.4496
G1 X109.478 Y122.924 E3.6111
G1 X105.192 Y120.633 E3.7727
G1 X101.434 Y117.549 E3.9343
G1 X98.349 Y113.790 E4.0960
G1 X96.055 Y109.499 E4.2577
G1 X94.643 Y104.843 E4.4195
G1 X94.166 Y100.000 E4.5813
G1 X94.643 Y95.157 E4.7430
G1 X96.055 Y90.501 E4.9048
G1 X98.349 Y86.210 E5.0665
G1 X101.434 Y82.451 E5.2282
G1 X105.192 Y79.367 E5.3898
G1 X109.478 Y77.076 E5.5514
G1 X114.128 Y75.665 E5.7129
G1 X118.963 Y75.189 E5.8744
G1 X119.797 Y75.271 E5.9023
;segType:Perimeter
G0 X118.550 Y75.311 F10800
G1 X119.021 Y74.802 E5.9253 F2160
G1 X123.878 Y75.280 E6.0876
G1 X128.605 Y76.714 E6.2518
G1 X132.961 Y79.043 E6.4160
G1 X136.780 Y82.176 E6.5802
G1 X139.914 Y85.996 E6.7444
G1 X142.243 Y90.353 E6.9087
G1 X143.678 Y95.082 E7.0730
G1 X144.162 Y100.000 E7.2373
G1 X143.678 Y104.918 E7.4015
G1 X142.243 Y109.647 E7.5658
G1 X139.914 Y114.004 E7.7301
G1 X136.780 Y117.824 E7.8943
G1 X132.961 Y120.957 E8.0585
G1 X128.605 Y123.286 E8.2227
G1 X123.878 Y124.720 E8.3869
G1 X118.963 Y125.204 E8.5511
G1 X114.048 Y124.720 E8.7153
G1 X109.322 Y123.286 E8.8795
G1 X104.965 Y120.957 E9.0437
G1 X101.146 Y117.824 E9.2079
G1 X98.012 Y114.004 E9.3722
G1 X95.683 Y109.647 E9.5364
G1 X94.248 Y104.918 E9.7007
G1 X93.764 Y100.000 E9.8650
G1 X94.248 Y95.082 E10.0293
G1 X95.683 Y90.354 E10.1935
G1 X98.012 Y85.996 E10.3578
G1 X101.146 Y82.176 E10.5220
G1 X104.965 Y79.043 E10.6863
G1 X109.321 Y76.714 E10.8505
G1 X114.048 Y75.280 E11.0147
G1 X118.905 Y74.802 E11.1769
G1 X119.376 Y75.311
;segType:Infill
G0 X117.217 Y75.557 F10800
G1 X117.217 Y124.443 E12.8020 F5400
G0 X121.326 Y124.382 F10800
G1 X121.326 Y75.618 E14.4231 F5400
G0 X125.435 Y76.366 F10800
G1 X125.435 Y123.634 E15.9945 F5400
G0 X129.035 Y122.388 F10800
G1 X108.891 Y122.388 E16.6641 F5400
G1 X108.999 Y122.446 E16.6682
G1 X108.999 Y77.554 E18.1606
G0 X107.689 Y78.255 F10800
G1 X130.238 Y78.255 E18.9102 F5400
G1 X129.544 Y77.884 E18.9363
G1 X129.544 Y122.116 E20.4067
G0 X133.653 Y119.624 F10800
G1 X133.653 Y80.376 E21.7114 F5400
G0 X135.958 Y82.267 F10800
G1 X101.968 Y82.267 E22.8414 F5400
G0 X104.890 Y79.869 F10800
G1 X104.890 Y120.131 E24.1798 F5400
G0 X102.752 Y118.376 F10800
G1 X135.175 Y118.376 E25.2577 F5400
G0 X137.762 Y115.689 F10800
G1 X137.762 Y84.311 E26.3008 F5400
G0 X139.377 Y86.279 F10800
G1 X98.549 Y86.279 E27.6581 F5400
G0 X96.672 Y89.769 F10800
G1 X96.672 Y110.231 E28.3383 F5400
G0 X95.306 Y106.339 F10800
G1 X142.621 Y106.339 E29.9112 F5400
G0 X142.816 Y94.303 F10800
G1 X95.111 Y94.303 E31.4971 F5400
G0 X94.533 Y98.315 F10800
G1 X143.394 Y98.315 E33.1214 F5400
G0 X143.330 Y102.327 F10800
G1 X94.596 Y102.327 E34.7415 F5400
G0 X96.737 Y110.352 F10800
G1 X141.190 Y110.352 E36.2193 F5400
G0 X141.871 Y108.810 F10800
G1 X141.871 Y91.190 E36.8050 F5400
G0 X141.533 Y90.291 F10800
G1 X96.393 Y90.291 E38.3056 F5400
G0 X100.781 Y83.558 F10800
G1 X100.781 Y116.442 E39.3988 F5400
G0 X99.076 Y114.364 F10800
G1 X138.850 Y114.364 E40.7210 F5400
G0 X113.108 Y123.821 F10800
G1 X113.108 Y76.179 E42.3048 F5400
;segType:Support
G0 F4800 E41.3048
G0 X144.400 Y94.600 F10800
G0 F4800 E42.3048
G1 X157.000 Y94.600 E42.6608 F5400
G1 X157.000 Y96.400 E42.7117
G1 X144.611 Y96.400 E43.0618
; ------------------------------------
; Layer #7
; ------------------------------------
G21 ; mm
G90 ; abs
G92 E0 ; reset extr
M106 S255
;segType:Support
G0 F4800 E-1.0000
G0 F300 Z1.599
G0 X144.611 Y96.400 F10800
G0 F4800 E0.0000
G1 X157.000 Y96.400 E0.3501 F5400
G1 X157.000 Y94.600 E0.4010
G1 X144.400 Y94.600 E0.7570
G0 F4800 E-0.2430
G0 X142.366 Y92.991 F10800
G0 X119.991 Y75.290
G0 F4800 E0.7570
;segType:Loop
G1 X123.798 Y75.665 E0.8842 F3600
G1 X128.448 Y77.076 E1.0457
G1 X132.734 Y79.367 E1.2073
G1 X136.493 Y82.451 E1.3689
G1 X139.578 Y86.210 E1.5306
G1 X141.871 Y90.501 E1.6923
G1 X143.283 Y95.157 E1.8540
G1 X143.760 Y100.000 E2.0158
G1 X143.283 Y104.843 E2.1776
G1 X141.871 Y109.499 E2.3394
G1 X139.578 Y113.790 E2.5011
G1 X136.493 Y117.549 E2.6627
G1 X132.734 Y120.633 E2.8244
G1 X128.448 Y122.924 E2.9859
G1 X123.798 Y124.335 E3.1475
G1 X118.963 Y124.811 E3.3090
G1 X114.128 Y124.335 E3.4705
G1 X109.478 Y122.924 E3.6320
G1 X105.192 Y120.633 E3.7936
G1 X101.434 Y117.549 E3.9552
G1 X98.349 Y113.790 E4.1169
G1 X96.055 Y109.499 E4.2786
G1 X94.643 Y104.843 E4.4404
G1 X94.166 Y100.000 E4.6021
G1 X94.643 Y95.157 E4.7639
G1 X96.055 Y90.501 E4.9257
G1 X98.349 Y86.210 E5.0874
G1 X101.434 Y82.451 E5.2491
G1 X105.192 Y79.367 E5.4107
G1 X109.478 Y77.076 E5.5723
G1 X114.128 Y75.665 E5.7338
G1 X118.963 Y75.189 E5.8953
G1 X119.797 Y75.271 E5.9232
;segType:Perimeter
G0 X118.550 Y75.311 F10800
G1 X119.021 Y74.802 E5.9462 F2160
G1 X123.878 Y75.280 E6.1085
G1 X128.605 Y76.714 E6.2727
G1 X132.961 Y79.043 E6.4369
G1 X136.780 Y82.176 E6.6011
G1 X139.914 Y85.996 E6.7653
G1 X142.243 Y90.353 E6.9296
G1 X143.678 Y95.082 E7.0939
G1 X144.162 Y100.000 E7.2581
G1 X143.678 Y104.918 E7.4224
G1 X142.243 Y109.647 E7.5867
G1 X139.914 Y114.004 E7.7509
G1 X136.780 Y117.824 E7.9152
G1 X132.961 Y120.957 E8.0794
G1 X128.605 Y123.286 E8.2436
G1 X123.878 Y124.720 E8.4078
G1 X118.963 Y125.204 E8.5720
G1 X114.048 Y124.720 E8.7362
G1 X109.322 Y123.286 E8.9004
G1 X104.965 Y120.957 E9.0646
G1 X101.146 Y117.824 E9.2288
G1 X98.012 Y114.004 E9.3931
G1 X95.683 Y109.647 E9.5573
G1 X94.248 Y104.918 E9.7216
G1 X93.764 Y100.000 E9.8859
G1 X94.248 Y95.082 E10.0502
G1 X95.683 Y90.354 E10.2144
G1 X98.012 Y85.996 E10.3787
G1 X101.146 Y82.176 E10.5429
G1 X104.965 Y79.043 E10.7072
G1 X109.321 Y76.714 E10.8714
G1 X114.048 Y75.280 E11.0356
G1 X118.905 Y74.802 E11.1978
G1 X119.376 Y75.311
;segType:Infill
G0 X117.217 Y75.557 F10800
G1 X117.217 Y124.443 E12.8229 F5400
G0 X121.326 Y124.382 F10800
G1 X121.326 Y75.618 E14.4440 F5400
G0 X125.435 Y76.366 F10800
G1 X125.435 Y123.634 E16.0153 F5400
G0 X129.035 Y122.388 F10800
G1 X108.891 Y122.388 E16.6850 F5400
G1 X108.999 Y122.446 E16.6891
G1 X108.999 Y77.554 E18.1814
G0 X107.689 Y78.255 F10800
G1 X130.238 Y78.255 E18.9310 F5400
G1 X129.544 Y77.884 E18.9572
G1 X129.544 Y122.116 E20.4276
G0 X133.653 Y119.624 F10800
G1 X133.653 Y80.376 E21.7323 F5400
G0 X135.958 Y82.267 F10800
G1 X101.968 Y82.267 E22.8623 F5400
G0 X104.890 Y79.869 F10800
G1 X104.890 Y120.131 E24.2007 F5400
G0 X102.752 Y118.376 F10800
G1 X135.175 Y118.376 E25.2785 F5400
G0 X137.762 Y115.689 F10800
G1 X137.762 Y84.311 E26.3217 F5400
G0 X139.377 Y86.279 F10800
G1 X98.549 Y86.279 E27.6790 F5400
G0 X96.672 Y89.769 F10800
G1 X96.672 Y110.231 E28.3592 F5400
G0 X95.306 Y106.339 F10800
G1 X142.621 Y106.339 E29.9321 F5400
G0 X142.816 Y94.303 F10800
G1 X95.111 Y94.303 E31.5180 F5400
G0 X94.533 Y98.315 F10800
G1 X143.394 Y98.315 E33.1423 F5400
G0 X143.330 Y102.327 F10800
G1 X94.596 Y102.327 E34.7624 F5400
G0 X96.737 Y110.352 F10800
G1 X141.190 Y110.352 E36.2402 F5400
G0 X141.871 Y108.810 F10800
G1 X141.871 Y91.190 E36.8259 F5400
G0 X141.533 Y90.291 F10800
G1 X96.393 Y90.291 E38.3265 F5400
G0 X100.781 Y83.558 F10800
G1 X100.781 Y116.442 E39.4197 F5400
G0 X99.076 Y114.364 F10800
G1 X138.850 Y114.364 E40.7419 F5400
G0 X113.108 Y123.821 F10800
G1 X113.108 Y76.179 E42.3257 F5400
;segType:Support
G0 F4800 E41.3257
G0 X144.963 Y100.000 F10800
G0 F4800 E42.3257
G1 X157.000 Y100.000 E42.6658 F5400
G1 X157.000 Y98.200 E42.7167
G1 X144.787 Y98.200 E43.0618
; ------------------------------------
; Layer #8
; ------------------------------------
G21 ; mm
G90 ; abs
G92 E0 ; reset extr
M106 S255
;segType:Support
G0 F4800 E-1.0000
G0 F300 Z1.799
G0 X144.787 Y98.200 F10800
G0 F4800 E0.0000
G1 X157.000 Y98.200 E0.3451 F5400
G1 X157.000 Y100.000 E0.3960
G1 X144.963 Y100.000 E0.7361
G0 F4800 E-0.2639
G0 X143.179 Y98.235 F10800
G0 X119.991 Y75.290
G0 F4800 E0.7361
;segType:Loop
G1 X123.798 Y75.665 E0.8633 F3600
G1 X128.448 Y77.076 E1.0248
G1 X132.734 Y79.367 E1.1864
G1 X136.493 Y82.451 E1.3480
G1 X139.578 Y86.210 E1.5097
G1 X141.871 Y90.501 E1.6714
G1 X143.283 Y95.157 E1.8332
G1 X143.760 Y100.000 E1.9949
G1 X143.283 Y104.843 E2.1567
G1 X141.871 Y109.499 E2.3185
G1 X139.578 Y113.790 E2.4802
G1 X136.493 Y117.549 E2.6419
G1 X132.734 Y120.633 E2.8035
G1 X128.448 Y122.924 E2.9650
G1 X123.798 Y124.335 E3.1266
G1 X118.963 Y124.811 E3.2881
G1 X114.128 Y124.335 E3.4496
G1 X109.478 Y122.924 E3.6111
G1 X105.192 Y120.633 E3.7727
G1 X101.434 Y117.549 E3.9343
G1 X98.349 Y113.790 E4.0960
G1 X96.055 Y109.499 E4.2577
G1 X94.643 Y104.843 E4.4195
G1 X94.166 Y100.000 E4.5813
G1 X94.643 Y95.157 E4.7430
G1 X96.055 Y90.501 E4.9048
G1 X98.349 Y86.210 E5.0665
G1 X101.434 Y82.451 E5.2282
G1 X105.192 Y79.367 E5.3898
G1 X109.478 Y77.076 E5.5514
G1 X114.128 Y75.665 E5.7129
G1 X118.963 Y75.189 E5.8744
G1 X119.797 Y75.271 E5.9023
;segType:Perimeter
G0 X118.550 Y75.311 F10800
G1 X119.021 Y74.802 E5.9253 F2160
G1 X123.878 Y75.280 E6.0876
G1 X128.605 Y76.714 E6.2518
G1 X132.961 Y79.043 E6.4160
G1 X136.780 Y82.176 E6.5802
G1 X139.914 Y85.996 E6.7444
G1 X142.243 Y90.353 E6.9087
G1 X143.678 Y95.082 E7.0730
G1 X144.162 Y100.000 E7.2373
G1 X143.678 Y104.918 E7.4015
G1 X142.243 Y109.647 E7.5658
G1 X139.914 Y114.004 E7.7301
G1 X136.780 Y117.824 E7.8943
G1 X132.961 Y120.957 E8.0585
G1 X128.605 Y123.286 E8.2227
G1 X123.878 Y124.720 E8.3869
G1 X118.963 Y125.204 E8.5511
G1 X114.048 Y124.720 E8.7153
G1 X109.322 Y123.286 E8.8795
G1 X104.965 Y120.957 E9.0437
G1 X101.146 Y117.824 E9.2079
G1 X98.012 Y114.004 E9.3722
G1 X95.683 Y109.647 E9.5364
G1 X94.248 Y104.918 E9.7007
G1 X93.764 Y100.000 E9.8650
G1 X94.248 Y95.082 E10.0293
G1 X95.683 Y90.354 E10.1935
G1 X98.012 Y85.996 E10.3578
G1 X101.146 Y82.176 E10.5220
G1 X104.965 Y79.043 E10.6863
G1 X109.321 Y76.714 E10.8505
G1 X114.048 Y75.280 E11.0147
G1 X118.905 Y74.802 E11.1769
G1 X119.376 Y75.311
;segType:Infill
G0 X117.217 Y75.557 F10800
G1 X117.217 Y124.443 E12.8020 F5400
G0 X121.326 Y124.382 F10800
G1 X121.326 Y75.618 E14.4231 F5400
G0 X125.435 Y76.366 F10800
G1 X125.435 Y123.634 E15.9945 F5400
G0 X129.035 Y122.388 F10800
G1 X108.891 Y122.388 E16.6641 F5400
G1 X108.999 Y122.446 E16.6682
G1 X108.999 Y77.554 E18.1606
G0 X107.689 Y78.255 F10800
G1 X130.238 Y78.255 E18.9102 F5400
G1 X129.544 Y77.884 E18.9363
G1 X129.544 Y122.116 E20.4067
G0 X133.653 Y119.624 F10800
G1 X133.653 Y80.376 E21.7114 F5400
G0 X135.958 Y82.267 F10800
G1 X101.968 Y82.267 E22.8414 F5400
G0 X104.890 Y79.869 F10800
G1 X104.890 Y120.131 E24.1798 F5400
G0 X102.752 Y118.376 F10800
G1 X135.175 Y118.376 E25.2577 F5400
G0 X137.762 Y115.689 F10800
G1 X137.762 Y84.311 E26.3008 F5400
G0 X139.377 Y86.279 F10800
G1 X98.549 Y86.279 E27.6581 F5400
G0 X96.672 Y89.769 F10800
G1 X96.672 Y110.231 E28.3383 F5400
G0 X95.306 Y106.339 F10800
G1 X142.621 Y106.339 E29.9112 F5400
G0 X142.816 Y94.303 F10800
G1 X95.111 Y94.303 E31.4971 F5400
G0 X94.533 Y98.315 F10800
G1 X143.394 Y98.315 E33.1214 F5400
G0 X143.330 Y102.327 F10800
G1 X94.596 Y102.327 E34.7415 F5400
G0 X96.737 Y110.352 F10800
G1 X141.190 Y110.352 E36.2193 F5400
G0 X141.871 Y108.810 F10800
G1 X141.871 Y91.190 E36.8050 F5400
G0 X141.533 Y90.291 F10800
G1 X96.393 Y90.291 E38.3056 F5400
G0 X100.781 Y83.558 F10800
G1 X100.781 Y116.442 E39.3988 F5400
G0 X99.076 Y114.364 F10800
G1 X138.850 Y114.364 E40.7210 F5400
G0 X113.108 Y123.821 F10800
G1 X113.108 Y76.179 E42.3048 F5400
;segType:Support
G0 F4800 E41.3048
G0 X144.400 Y94.600 F10800
G0 F4800 E42.3048
G1 X157.000 Y94.600 E42.6608 F5400
G1 X157.000 Y96.400 E42.7117
G1 X144.611 Y96.400 E43.0618
; ------------------------------------
; Layer #9
; ------------------------------------
G21 ; mm
G90 ; abs
G92 E0 ; reset extr
M106 S255
;segType:Support
G0 F4800 E-1.0000
G0 F300 Z1.999
G0 X144.611 Y96.400 F10800
G0 F4800 E0.0000
G1 X157.000 Y96.400 E0.3501 F5400
G1 X157.000 Y94.600 E0.4010
G1 X144.400 Y94.600 E0.7570
G0 F4800 E-0.2430
G0 X142.366 Y92.991 F10800
G0 X119.991 Y75.290
G0 F4800 E0.7570
;segType:Loop
G1 X123.798 Y75.665 E0.8842 F3600
G1 X128.448 Y77.076 E1.0457
G1 X132.734 Y79.367 E1.2073
G1 X136.493 Y82.451 E1.3689
G1 X139.578 Y86.210 E1.5306
G1 X141.871 Y90.501 E1.6923
G1 X143.283 Y95.157 E1.8540
G1 X143.760 Y100.000 E2.0158
G1 X143.283 Y104.843 E2.1776
G1 X141.871 Y109.499 E2.3394
G1 X139.578 Y113.790 E2.5011
G1 X136.493 Y117.549 E2.6627
G1 X132.734 Y120.633 E2.8244
G1 X128.448 Y122.924 E2.9859
G1 X123.798 Y124.335 E3.1475
G1 X118.963 Y124.811 E3.3090
G1 X114.128 Y124.335 E3.4705
G1 X109.478 Y122.924 E3.6320
G1 X105.192 Y120.633 E3.7936
G1 X101.434 Y117.549 E3.9552
G1 X98.349 Y113.790 E4.1169
G1 X96.055 Y109.499 E4.2786
G1 X94.643 Y104.843 E4.4404
G1 X94.166 Y100.000 E4.6021
G1 X94.643 Y95.157 E4.7639
G1 X96.055 Y90.501 E4.9257
G1 X98.349 Y86.210 E5.0874
G1 X101.434 Y82.451 E5.2491
G1 X105.192 Y79.367 E5.4107
G1 X109.478 Y77.076 E5.5723
G1 X114.128 Y75.665 E5.7338
G1 X118.963 Y75.189 E5.8953
G1 X119.797 Y75.271 E5.9232
;segType:Perimeter
G0 X118.550 Y75.311 F10800
G1 X119.021 Y74.802 E5.9462 F2160
G1 X123.878 Y75.280 E6.1085
G1 X128.605 Y76.714 E6.2727
G1 X132.961 Y79.043 E6.4369
G1 X136.780 Y82.176 E6.6011
G1 X139.914 Y85.996 E6.7653
G1 X142.243 Y90.353 E6.9296
G1 X143.678 Y95.082 E7.0939
G1 X144.162 Y100.000 E7.2581
G1 X143.678 Y104.918 E7.4224
G1 X142.243 Y109.647 E7.5867
G1 X139.914 Y114.004 E7.7509
G1 X136.780 Y117.824 E7.9152
G1 X132.961 Y120.957 E8.0794
G1 X128.605 Y123.286 E8.2436
G1 X123.878 Y124.720 E8.4078
G1 X118.963 Y125.204 E8.5720
G1 X114.048 Y124.720 E8.7362
G1 X109.322 Y123.286 E8.9004
G1 X104.965 Y120.957 E9.0646
G1 X101.146 Y117.824 E9.2288
G1 X98.012 Y114.004 E9.3931
G1 X95.683 Y109.647 E9.5573
G1 X94.248 Y104.918 E9.7216
G1 X93.764 Y100.000 E9.8859
G1 X94.248 Y95.082 E10.0502
G1 X95.683 Y90.354 E10.2144
G1 X98.012 Y85.996 E10.3787
G1 X101.146 Y82.176 E10.5429
G1 X104.965 Y79.043 E10.7072
G1 X109.321 Y76.714 E10.8714
G1 X114.048 Y75.280 E11.0356
G1 X118.905 Y74.802 E11.1978
G1 X119.376 Y75.311
;segType:Infill
G0 X117.217 Y75.557 F10800
G1 X117.217 Y124.443 E12.8229 F5400
G0 X121.326 Y124.382 F10800
G1 X121.326 Y75.618 E14.4440 F5400
G0 X125.435 Y76.366 F10800
G1 X125.435 Y123.634 E16.0153 F5400
G0 X129.035 Y122.388 F10800
G1 X108.891 Y122.388 E16.6850 F5400
G1 X108.999 Y122.446 E16.6891
G1 X108.999 Y77.554 E18.1814
G0 X107.689 Y78.255 F10800
G1 X130.238 Y78.255 E18.9310 F5400
G1 X129.544 Y77.884 E18.9572
G1 X129.544 Y122.116 E20.4276
G0 X133.653 Y119.624 F10800
G1 X133.653 Y80.376 E21.7323 F5400
G0 X135.958 Y82.267 F10800
G1 X101.968 Y82.267 E22.8623 F5400
G0 X104.890 Y79.869 F10800
G1 X104.890 Y120.131 E24.2007 F5400
G0 X102.752 Y118.376 F10800
G1 X135.175 Y118.376 E25.2785 F5400
G0 X137.762 Y115.689 F10800
G1 X137.762 Y84.311 E26.3217 F5400
G0 X139.377 Y86.279 F10800
G1 X98.549 Y86.279 E27.6790 F5400
G0 X96.672 Y89.769 F10800
G1 X96.672 Y110.231 E28.3592 F5400
G0 X95.306 Y106.339 F10800
G1 X142.621 Y106.339 E29.9321 F5400
G0 X142.816 Y94.303 F10800
G1 X95.111 Y94.303 E31.5180 F5400
G0 X94.533 Y98.315 F10800
G1 X143.394 Y98.315 E33.1423 F5400
G0 X143.330 Y102.327 F10800
G1 X94.596 Y102.327 E34.7624 F5400
G0 X96.737 Y110.352 F10800
G1 X141.190 Y110.352 E36.2402 F5400
G0 X141.871 Y108.810 F10800
G1 X141.871 Y91.190 E36.8259 F5400
G0 X141.533 Y90.291 F10800
G1 X96.393 Y90.291 E38.3265 F5400
G0 X100.781 Y83.558 F10800
G1 X100.781 Y116.442 E39.4197 F5400
G0 X99.076 Y114.364 F10800
G1 X138.850 Y114.364 E40.7419 F5400
G0 X113.108 Y123.821 F10800
G1 X113.108 Y76.179 E42.3257 F5400
;segType:Support
G0 F4800 E41.3257
G0 X144.963 Y100.000 F10800
G0 F4800 E42.3257
G1 X157.000 Y100.000 E42.6658 F5400
G1 X157.000 Y98.200 E42.7167
G1 X144.787 Y98.200 E43.0618
; ------------------------------------
; Layer #10
; ------------------------------------
G21 ; mm
G90 ; abs
G92 E0 ; reset extr
M106 S255
;segType:Support
G0 F4800 E-1.0000
G0 F300 Z2.199
G0 X144.787 Y98.200 F10800
G0 F4800 E0.0000
G1 X157.000 Y98.200 E0.3451 F5400
G1 X157.000 Y100.000 E0.3960
G1 X144.963 Y100.000 E0.7361
G0 F4800 E-0.2639
G0 X143.179 Y98.235 F10800
G0 X119.991 Y75.290
G0 F4800 E0.7361
;segType:Loop
G1 X123.798 Y75.665 E0.8633 F3600
G1 X128.448 Y77.076 E1.0248
G1 X132.734 Y79.367 E1.1864
G1 X136.493 Y82.451 E1.3480
G1 X139.578 Y86.210 E1.5097
G1 X141.871 Y90.501 E1.6714
G1 X143.283 Y95.157 E1.8332
G1 X143.760 Y100.000 E1.9949
G1 X143.283 Y104.843 E2.1567
G1 X141.871 Y109.499 E2.3185
G1 X139.578 Y113.790 E2.4802
G1 X136.493 Y117.549 E2.6419
G1 X132.734 Y120.633 E2.8035
G1 X128.448 Y122.924 E2.9650
G1 X123.798 Y124.335 E3.1266
G1 X118.963 Y124.811 E3.2881
G1 X114.128 Y124.335 E3.4496
G1 X109.478 Y122.924 E3.6111
G1 X105.192 Y120.633 E3.7727
G1 X101.434 Y117.549 E3.9343
G1 X98.349 Y113.790 E4.0960
G1 X96.055 Y109.499 E4.2577
G1 X94.643 Y104.843 E4.4195
G1 X94.166 Y100.000 E4.5813
G1 X94.643 Y95.157 E4.7430
G1 X96.055 Y90.501 E4.9048
G1 X98.349 Y86.210 E5.0665
G1 X101.434 Y82.451 E5.2282
G1 X105.192 Y79.367 E5.3898
G1 X109.478 Y77.076 E5.5514
G1 X114.128 Y75.665 E5.7129
G1 X118.963 Y75.189 E5.8744
G1 X119.797 Y75.271 E5.9023
;segType:Perimeter
G0 X118.550 Y75.311 F10800
G1 X119.021 Y74.802 E5.9253 F2160
G1 X123.878 Y75.280 E6.0876
G1 X128.605 Y76.714 E6.2518
G1 X132.961 Y79.043 E6.4160
G1 X136.780 Y82.176 E6.5802
G1 X139.914 Y85.996 E6.7444
G1 X142.243 Y90.353 E6.9087
G1 X143.678 Y95.082 E7.0730
G1 X144.162 Y100.000 E7.2373
G1 X143.678 Y104.918 E7.4015
G1 X142.243 Y109.647 E7.5658
G1 X139.914 Y114.004 E7.7301
G1 X136.780 Y117.824 E7.8943
G1 X132.961 Y120.957 E8.0585
G1 X128.605 Y123.286 E8.2227
G1 X123.878 Y124.720 E8.3869
G1 X118.963 Y125.204 E8.5511
G1 X114.048 Y124.720 E8.7153
G1 X109.322 Y123.286 E8.8795
G1 X104.965 Y120.957 E9.0437
G1 X101.146 Y117.824 E9.2079
G1 X98.012 Y114.004 E9.3722
G1 X95.683 Y109.647 E9.5364
G1 X94.248 Y104.918 E9.7007
G1 X93.764 Y100.000 E9.8650
G1 X94.248 Y95.082 E10.0293
G1 X95.683 Y90.354 E10.1935
G1 X98.012 Y85.996 E10.3578
G1 X101.146 Y82.176 E10.5220
G1 X104.965 Y79.043 E10.6863
G1 X109.321 Y76.714 E10.8505
G1 X114.048 Y75.280 E11.0147
G1 X118.905 Y74.802 E11.1769
G1 X119.376 Y75.311
;segType:Infill
G0 X117.217 Y75.557 F10800
G1 X117.217 Y124.443 E12.8020 F5400
G0 X121.326 Y124.382 F10800
G1 X121.326 Y75.618 E14.4231 F5400
G0 X125.435 Y76.366 F10800
G1 X125.435 Y123.634 E15.9945 F5400
G0 X129.035 Y122.388 F10800
G1 X108.891 Y122.388 E16.6641 F5400
G1 X108.999 Y122.446 E16.6682
G1 X108.999 Y77.554 E18.1606
G0 X107.689 Y78.255 F10800
G1 X130.238 Y78.255 E18.9102 F5400
G1 X129.544 Y77.884 E18.9363
G1 X129.544 Y122.116 E20.4067
G0 X133.653 Y119.624 F10800
G1 X133.653 Y80.376 E21.7114 F5400
G0 X135.958 Y82.267 F10800
G1 X101.968 Y82.267 E22.8414 F5400
G0 X104.890 Y79.869 F10800
G1 X104.890 Y120.131 E24.1798 F5400
G0 X102.752 Y118.376 F10800
G1 X135.175 Y118.376 E25.2577 F5400
G0 X137.762 Y115.689 F10800
G1 X137.762 Y84.311 E26.3008 F5400
G0 X139.377 Y86.279 F10800
G1 X98.549 Y86.279 E27.6581 F5400
G0 X96.672 Y89.769 F10800
G1 X96.672 Y110.231 E28.3383 F5400
G0 X95.306 Y106.339 F10800
G1 X142.621 Y106.339 E29.9112 F5400
G0 X142.816 Y94.303 F10800
G1 X95.111 Y94.303 E31.4971 F5400
G0 X94.533 Y98.315 F10800
G1 X143.394 Y98.315 E33.1214 F5400
G0 X143.330 Y102.327 F10800
G1 X94.596 Y102.327 E34.7415 F5400
G0 X96.737 Y110.352 F10800
G1 X141.190 Y110.352 E36.2193 F5400
G0 X141.871 Y108.810 F10800
G1 X141.871 Y91.190 E36.8050 F5400
G0 X141.533 Y90.291 F10800
G1 X96.393 Y90.291 E38.3056 F5400
G0 X100.781 Y83.558 F10800
G1 X100.781 Y116.442 E39.3988 F5400
G0 X99.076 Y114.364 F10800
G1 X138.850 Y114.364 E40.7210 F5400
G0 X113.108 Y123.821 F10800
G1 X113.108 Y76.179 E42.3048 F5400
;segType:Support
G0 F4800 E41.3048
G0 X144.400 Y94.600 F10800
G0 F4800 E42.3048
G1 X157.000 Y94.600 E42.6608 F5400
G1 X157.000 Y96.400 E42.7117
G1 X144.611 Y96.400 E43.0618
; ------------------------------------
; Layer #11
; ------------------------------------
G21 ; mm
G90 ; abs
G92 E0 ; reset extr
M106 S255
;segType:Support
G0 F4800 E-1.0000
G0 F300 Z2.399
G0 X144.611 Y96.400 F10800
G0 F4800 E0.0000
G1 X157.000 Y96.400 E0.3501 F5400
G1 X157.000 Y94.600 E0.4010
G1 X144.400 Y94.600 E0.7570
G0 F4800 E-0.2430
G0 X142.366 Y92.991 F10800
G0 X119.991 Y75.290
G0 F4800 E0.7570
;segType:Loop
G1 X123.798 Y75.665 E0.8842 F3600
G1 X128.448 Y77.076 E1.0457
G1 X132.734 Y79.367 E1.2073
G1 X136.493 Y82.451 E1.3689
G1 X139.578 Y86.210 E1.5306
G1 X141.871 Y90.501 E1.6923
G1 X143.283 Y95.157 E1.8540
G1 X143.760 Y100.000 E2.0158
G1 X143.283 Y104.843 E2.1776
G1 X141.871 Y109.499 E2.3394
G1 X139.578 Y113.790 E2.5011
G1 X136.493 Y117.549 E2.6627
G1 X132.734 Y120.633 E2.8244
G1 X128.448 Y122.924 E2.9859
G1 X123.798 Y124.335 E3.1475
G1 X118.963 Y124.811 E3.3090
G1 X114.128 Y124.335 E3.4705
G1 X109.478 Y122.924 E3.6320
G1 X105.192 Y120.633 E3.7936
G1 X101.434 Y117.549 E3.9552
G1 X98.349 Y113.790 E4.1169
G1 X96.055 Y109.499 E4.2786
G1 X94.643 Y104.843 E4.4404
G1 X94.166 Y100.000 E4.6021
G1 X94.643 Y95.157 E4.7639
G1 X96.055 Y90.501 E4.9257
G1 X98.349 Y86.210 E5.0874
G1 X101.434 Y82.451 E5.2491
G1 X105.192 Y79.367 E5.4107
G1 X109.478 Y77.076 E5.5723
G1 X114.128 Y75.665 E5.7338
G1 X118.963 Y75.189 E5.8953
G1 X119.797 Y75.271 E5.9232
;segType:Perimeter
G0 X118.550 Y75.311 F10800
G1 X119.021 Y74.802 E5.9462 F2160
G1 X123.878 Y75.280 E6.1085
G1 X128.605 Y76.714 E6.2727
G1 X132.961 Y79.043 E6.4369
G1 X136.780 Y82.176 E6.6011
G1 X139.914 Y85.996 E6.7653
G1 X142.243 Y90.353 E6.9296
G1 X143.678 Y95.082 E7.0939
G1 X144.162 Y100.000 E7.2581
G1 X143.678 Y104.918 E7.4224
G1 X142.243 Y109.647 E7.5867
G1 X139.914 Y114.004 E7.7509
G1 X136.780 Y117.824 E7.9152
G1 X132.961 Y120.957 E8.0794
G1 X128.605 Y123.286 E8.2436
G1 X123.878 Y124.720 E8.4078
G1 X118.963 Y125.204 E8.5720
G1 X114.048 Y124.720 E8.7362
G1 X109.322 Y123.286 E8.9004
G1 X104.965 Y120.957 E9.0646
G1 X101.146 Y117.824 E9.2288
G1 X98.012 Y114.004 E9.3931
G1 X95.683 Y109.647 E9.5573
G1 X94.248 Y104.918 E9.7216
G1 X93.764 Y100.000 E9.8859
G1 X94.248 Y95.082 E10.0502
G1 X95.683 Y90.354 E10.2144
G1 X98.012 Y85.996 E10.3787
G1 X101.146 Y82.176 E10.5429
G1 X104.965 Y79.043 E10.7072
G1 X109.321 Y76.714 E10.8714
G1 X114.048 Y75.280 E11.0356
G1 X118.905 Y74.802 E11.1978
G1 X119.376 Y75.311
;segType:Infill
G0 X117.217 Y75.557 F10800
G1 X117.217 Y124.443 E12.8229 F5400
G0 X121.326 Y124.382 F10800
G1 X121.326 Y75.618 E14.4440 F5400
G0 X125.435 Y76.366 F10800
G1 X125.435 Y123.634 E16.0153 F5400
G0 X129.035 Y122.388 F10800
G1 X108.891 Y122.388 E16.6850 F5400
G1 X108.999 Y122.446 E16.6891
G1 X108.999 Y77.554 E18.1814
G0 X107.689 Y78.255 F10800
G1 X130.238 Y78.255 E18.9310 F5400
G1 X129.544 Y77.884 E18.9572
G1 X129.544 Y122.116 E20.4276
G0 X133.653 Y119.624 F10800
G1 X133.653 Y80.376 E21.7323 F5400
G0 X135.958 Y82.267 F10800
G1 X101.968 Y82.267 E22.8623 F5400
G0 X104.890 Y79.869 F10800
G1 X104.890 Y120.131 E24.2007 F5400
G0 X102.752 Y118.376 F10800
G1 X135.175 Y118.376 E25.2785 F5400
G0 X137.762 Y115.689 F10800
G1 X137.762 Y84.311 E26.3217 F5400
G0 X139.377 Y86.279 F10800
G1 X98.549 Y86.279 E27.6790 F5400
G0 X96.672 Y89.769 F10800
G1 X96.672 Y110.231 E28.3592 F5400
G0 X95.306 Y106.339 F10800
G1 X142.621 Y106.339 E29.9321 F5400
G0 X142.816 Y94.303 F10800
G1 X95.111 Y94.303 E31.5180 F5400
G0 X94.533 Y98.315 F10800
G1 X143.394 Y98.315 E33.1423 F5400
G0 X143.330 Y102.327 F10800
G1 X94.596 Y102.327 E34.7624 F5400
G0 X96.737 Y110.352 F10800
G1 X141.190 Y110.352 E36.2402 F5400
G0 X141.871 Y108.810 F10800
G1 X141.871 Y91.190 E36.8259 F5400
G0 X141.533 Y90.291 F10800
G1 X96.393 Y90.291 E38.3265 F5400
G0 X100.781 Y83.558 F10800
G1 X100.781 Y116.442 E39.4197 F5400
G0 X99.076 Y114.364 F10800
G1 X138.850 Y114.364 E40.7419 F5400
G0 X113.108 Y123.821 F10800
G1 X113.108 Y76.179 E42.3257 F5400
;segType:Support
G0 F4800 E41.3257
G0 X144.963 Y100.000 F10800
G0 F4800 E42.3257
G1 X157.000 Y100.000 E42.6658 F5400
G1 X157.000 Y98.200 E42.7167
G1 X144.787 Y98.200 E43.0618
; ------------------------------------
; Layer #12
; ------------------------------------
G21 ; mm
G90 ; abs
G92 E0 ; reset extr
M106 S255
;segType:Support
G0 F4800 E-1.0000
G0 F300 Z2.599
G0 X144.787 Y98.200 F10800
G0 F4800 E0.0000
G1 X157.000 Y98.200 E0.3451 F5400
G1 X157.000 Y100.000 E0.3960
G1 X144.963 Y100.000 E0.7361
G0 F4800 E-0.2639
G0 X143.179 Y98.235 F10800
G0 X119.991 Y75.290
G0 F4800 E0.7361
;segType:Loop
G1 X123.798 Y75.665 E0.8633 F3600
G1 X128.448 Y77.076 E1.0248
G1 X132.734 Y79.367 E1.1864
G1 X136.493 Y82.451 E1.3480
G1 X139.578 Y86.210 E1.5097
G1 X141.871 Y90.501 E1.6714
G1 X143.283 Y95.157 E1.8332
G1 X143.760 Y100.000 E1.9949
G1 X143.283 Y104.843 E2.1567
G1 X141.871 Y109.499 E2.3185
G1 X139.578 Y113.790 E2.4802
G1 X136.493 Y117.549 E2.6419
G1 X132.734 Y120.633 E2.8035
G1 X128.448 Y122.924 E2.9650
G1 X123.798 Y124.335 E3.1266
G1 X118.963 Y124.811 E3.2881
G1 X114.128 Y124.335 E3.4496
G1 X109.478 Y122.924 E3.6111
G1 X105.192 Y120.633 E3.7727
G1 X101.434 Y117.549 E3.9343
G1 X98.349 Y113.790 E4.0960
G1 X96.055 Y109.499 E4.2577
G1 X94.643 Y104.843 E4.4195
G1 X94.166 Y100.000 E4.5813
G1 X94.643 Y95.157 E4.7430
G1 X96.055 Y90.501 E4.9048
G1 X98.349 Y86.210 E5.0665
G1 X101.434 Y82.451 E5.2282
G1 X105.192 Y79.367 E5.3898
G1 X109.478 Y77.076 E5.5514
G1 X114.128 Y75.665 E5.7129
G1 X118.963 Y75.189 E5.8744
G1 X119.797 Y75.271 E5.9023
;segType:Perimeter
G0 X118.550 Y75.311 F10800
G1 X119.021 Y74.802 E5.9253 F2160
G1 X123.878 Y75.280 E6.0876
G1 X128.605 Y76.714 E6.2518
G1 X132.961 Y79.043 E6.4160
G1 X136.780 Y82.176 E6.5802
G1 X139.914 Y85.996 E6.7444
G1 X142.243 Y90.353 E6.9087
G1 X143.678 Y95.082 E7.0730
G1 X144.162 Y100.000 E7.2373
G1 X143.678 Y104.918 E7.4015
G1 X142.243 Y109.647 E7.5658
G1 X139.914 Y114.004 E7.7301
G1 X136.780 Y117.824 E7.8943
G1 X132.961 Y120.957 E8.0585
G1 X128.605 Y123.286 E8.2227
G1 X123.878 Y124.720 E8.3869
G1 X118.963 Y125.204 E8.5511
G1 X114.048 Y124.720 E8.7153
G1 X109.322 Y123.286 E8.8795
G1 X104.965 Y120.957 E9.0437
G1 X101.146 Y117.824 E9.2079
G1 X98.012 Y114.004 E9.3722
G1 X95.683 Y109.647 E9.5364
G1 X94.248 Y104.918 E9.7007
G1 X93.764 Y100.000 E9.8650
G1 X94.248 Y95.082 E10.0293
G1 X95.683 Y90.354 E10.1935
G1 X98.012 Y85.996 E10.3578
G1 X101.146 Y82.176 E10.5220
G1 X104.965 Y79.043 E10.6863
G1 X109.321 Y76.714 E10.8505
G1 X114.048 Y75.280 E11.0147
G1 X118.905 Y74.802 E11.1769
G1 X119.376 Y75.311
;segType:Infill
G0 X117.217 Y75.557 F10800
G1 X117.217 Y124.443 E12.8020 F5400
G0 X121.326 Y124.382 F10800
G1 X121.326 Y75.618 E14.4231 F5400
G0 X125.435 Y76.366 F10800
G1 X125.435 Y123.634 E15.9945 F5400
G0 X129.035 Y122.388 F10800
G1 X108.891 Y122.388 E16.6641 F5400
G1 X108.999 Y122.446 E16.6682
G1 X108.999 Y77.554 E18.1606
G0 X107.689 Y78.255 F10800
G1 X130.238 Y78.255 E18.9102 F5400
G1 X129.544 Y77.884 E18.9363
G1 X129.544 Y122.116 E20.4067
G0 X133.653 Y119.624 F10800
G1 X133.653 Y80.376 E21.7114 F5400
G0 X135.958 Y82.267 F10800
G1 X101.968 Y82.267 E22.8414 F5400
G0 X104.890 Y79.869 F10800
G1 X104.890 Y120.131 E24.1798 F5400
G0 X102.752 Y118.376 F10800
G1 X135.175 Y118.376 E25.2577 F5400
G0 X137.762 Y115.689 F10800
G1 X137.762 Y84.311 E26.3008 F5400
G0 X139.377 Y86.279 F10800
G1 X98.549 Y86.279 E27.6581 F5400
G0 X96.672 Y89.769 F10800
G1 X96.672 Y110.231 E28.3383 F5400
G0 X95.306 Y106.339 F10800
G1 X142.621 Y106.339 E29.9112 F5400
G0 X142.816 Y94.303 F10800
G1 X95.111 Y94.303 E31.4971 F5400
G0 X94.533 Y98.315 F10800
G1 X143.394 Y98.315 E33.1214 F5400
G0 X143.330 Y102.327 F10800
G1 X94.596 Y102.327 E34.7415 F5400
G0 X96.737 Y110.352 F10800
G1 X141.190 Y110.352 E36.2193 F5400
G0 X141.871 Y108.810 F10800
G1 X141.871 Y91.190 E36.8050 F5400
G0 X141.533 Y90.291 F10800
G1 X96.393 Y90.291 E38.3056 F5400
G0 X100.781 Y83.558 F10800
G1 X100.781 Y116.442 E39.3988 F5400
G0 X99.076 Y114.364 F10800
G1 X138.850 Y114.364 E40.7210 F5400
G0 X113.108 Y123.821 F10800
G1 X113.108 Y76.179 E42.3048 F5400
;segType:Support
G0 F4800 E41.3048
G0 X144.400 Y94.600 F10800
G0 F4800 E42.3048
G1 X157.000 Y94.600 E42.6608 F5400
G1 X157.000 Y96.400 E42.7117
G1 X144.611 Y96.400 E43.0618
; ------------------------------------
; Layer #13
; ------------------------------------
G21 ; mm
G90 ; abs
G92 E0 ; reset extr
M106 S255
;segType:Support
G0 F4800 E-1.0000
G0 F300 Z2.799
G0 X144.611 Y96.400 F10800
G0 F4800 E0.0000
G1 X157.000 Y96.400 E0.3501 F5400
G1 X157.000 Y94.600 E0.4010
G1 X144.400 Y94.600 E0.7570
G0 F4800 E-0.2430
G0 X142.366 Y92.991 F10800
G0 X119.991 Y75.290
G0 F4800 E0.7570
;segType:Loop
G1 X123.798 Y75.665 E0.8842 F3600
G1 X128.448 Y77.076 E1.0457
G1 X132.734 Y79.367 E1.2073
G1 X136.493 Y82.451 E1.3689
G1 X139.578 Y86.210 E1.5306
G1 X141.871 Y90.501 E1.6923
G1 X143.283 Y95.157 E1.8540
G1 X143.760 Y100.000 E2.0158
G1 X143.283 Y104.843 E2.1776
G1 X141.871 Y109.499 E2.3394
G1 X139.578 Y113.790 E2.5011
G1 X136.493 Y117.549 E2.6627
G1 X132.734 Y120.633 E2.8244
G1 X128.448 Y122.924 E2.9859
G1 X123.798 Y124.335 E3.1475
G1 X118.963 Y124.811 E3.3090
G1 X114.128 Y124.335 E3.4705
G1 X109.478 Y122.924 E3.6320
G1 X105.192 Y120.633 E3.7936
G1 X101.434 Y117.549 E3.9552
G1 X98.349 Y113.790 E4.1169
G1 X96.055 Y109.499 E4.2786
G1 X94.643 Y104.843 E4.4404
G1 X94.166 Y100.000 E4.6021
G1 X94.643 Y95.157 E4.7639
G1 X96.055 Y90.501 E4.9257
G1 X98.349 Y86.210 E5.0874
G1 X101.434 Y82.451 E5.2491
G1 X105.192 Y79.367 E5.4107
G1 X109.478 Y77.076 E5.5723
G1 X114.128 Y75.665 E5.7338
G1 X118.963 Y75.189 E5.8953
G1 X119.797 Y75.271 E5.9232
;segType:Perimeter
G0 X118.550 Y75.311 F10800
G1 X119.021 Y74.802 E5.9462 F2160
G1 X123.878 Y75.280 E6.1085
G1 X128.605 Y76.714 E6.2727
G1 X132.961 Y79.043 E6.4369
G1 X136.780 Y82.176 E6.6011
G1 X139.914 Y85.996 E6.7653
G1 X142.243 Y90.353 E6.9296
G1 X143.678 Y95.082 E7.0939
G1 X144.162 Y100.000 E7.2581
G1 X143.678 Y104.918 E7.4224
G1 X142.243 Y109.647 E7.5867
G1 X139.914 Y114.004 E7.7509
G1 X136.780 Y117.824 E7.9152
G1 X132.961 Y120.957 E8.0794
G1 X128.605 Y123.286 E8.2436
G1 X123.878 Y124.720 E8.4078
G1 X118.963 Y125.204 E8.5720
G1 X114.048 Y124.720 E8.7362
G1 X109.322 Y123.286 E8.9004
G1 X104.965 Y120.957 E9.0646
G1 X101.146 Y117.824 E9.2288
G1 X98.012 Y114.004 E9.3931
G1 X95.683 Y109.647 E9.5573
G1 X94.248 Y104.918 E9.7216
G1 X93.764 Y100.000 E9.8859
G1 X94.248 Y95.082 E10.0502
G1 X95.683 Y90.354 E10.2144
G1 X98.012 Y85.996 E10.3787
G1 X101.146 Y82.176 E10.5429
G1 X104.965 Y79.043 E10.7072
G1 X109.321 Y76.714 E10.8714
G1 X114.048 Y75.280 E11.0356
G1 X118.905 Y74.802 E11.1978
G1 X119.376 Y75.311
;segType:Infill
G0 X121.326 Y75.618 F10800
G1 X121.326 Y76.255 E11.2190 F5400
;segType:HShell
G0 X123.719 Y76.505 F10800
G1 X142.291 Y94.640 E12.0819 F3600
G1 X142.505 Y95.388
G1 X123.087 Y76.428 E12.9841
G1 X122.473 Y76.368
G1 X142.564 Y95.984 E13.9175
G1 X142.622 Y96.580
G1 X121.860 Y76.307 E14.8822
G1 X121.246 Y76.247
G1 X142.681 Y97.177 E15.8782
G1 X142.740 Y97.773
G1 X120.632 Y76.187 E16.9054
G1 X120.018 Y76.126
G1 X142.799 Y98.370 E17.9638
G1 X142.858 Y98.966
G1 X119.404 Y76.066 E19.0535
G1 X118.821 Y76.036
G1 X142.917 Y99.563 E20.1731
G1 X142.946 Y100.131
G1 X118.320 Y76.085 E21.3172
G1 X117.818 Y76.135
G1 X142.898 Y100.622 E22.4825
G1 X142.849 Y101.114
G1 X117.317 Y76.184 E23.6688
G1 X116.816 Y76.234
G1 X142.801 Y101.606 E24.8761
G1 X142.753 Y102.098
G1 X116.314 Y76.283 E26.1045
G1 X115.813 Y76.333
G1 X142.704 Y102.590 E27.3539
G1 X142.656 Y103.082
G1 X115.312 Y76.382 E28.6244
G1 X114.810 Y76.432
G1 X142.608 Y103.574 E29.9160
G1 X142.559 Y104.065
G1 X114.309 Y76.481 E31.2286
G1 X113.882 Y76.603
G1 X142.511 Y104.557 E32.5587
G1 X142.403 Y104.991
G1 X113.461 Y76.731 E33.9034
G1 X113.040 Y76.859
G1 X142.277 Y105.406 E35.2618
G1 X142.151 Y105.822
G1 X112.619 Y76.987 E36.6340
G1 X112.198 Y77.115
G1 X142.025 Y106.238 E38.0198
G1 X141.898 Y106.654
G1 X111.776 Y77.243 E39.4193
G1 X111.355 Y77.370
G1 X141.772 Y107.070 E40.8326
G1 X141.646 Y107.486
G1 X110.934 Y77.498 E42.2595
G1 X110.513 Y77.626
G1 X141.520 Y107.902 E43.7002
G1 X141.394 Y108.318
G1 X110.092 Y77.754 E45.1546
G1 X109.686 Y77.897
G1 X141.268 Y108.734 E46.6219
G1 X141.142 Y109.150
G1 X109.329 Y78.087 E48.1000
G1 X108.973 Y78.278
G1 X140.955 Y109.506 E49.5860
G1 X140.766 Y109.860
G1 X108.616 Y78.469 E51.0798
G1 X108.259 Y78.660
G1 X140.577 Y110.215 E52.5813
G1 X140.387 Y110.569
G1 X107.903 Y78.850 E54.0906
G1 X107.546 Y79.041
G1 X140.198 Y110.923 E55.6077
G1 X140.009 Y111.277
G1 X107.189 Y79.232 E57.1326
G1 X106.833 Y79.423
G1 X139.820 Y111.632 E58.6652
G1 X139.630 Y111.986
G1 X106.476 Y79.613 E60.2057
G1 X106.119 Y79.804
G1 X139.441 Y112.340 E61.7539
G1 X139.252 Y112.694
G1 X105.762 Y79.995 E63.3099
G1 X105.440 Y80.219
G1 X139.063 Y113.049 E64.8721
G1 X138.859 Y113.389
G1 X105.140 Y80.465 E66.4387
G1 X104.840 Y80.711
G1 X138.613 Y113.688 E68.0079
G1 X138.368 Y113.987
G1 X104.540 Y80.958 E69.5796
G1 X104.240 Y81.204
G1 X138.122 Y114.286 E71.1538
G1 X137.877 Y114.586
G1 X103.940 Y81.450 E72.7306
G1 X103.641 Y81.696
G1 X137.631 Y114.885 E74.3099
G1 X137.385 Y115.184
G1 X103.341 Y81.942 E75.8917
G1 X103.041 Y82.189
G1 X137.140 Y115.484 E77.4760
G1 X136.894 Y115.783
G1 X102.741 Y82.435 E79.0628
G1 X102.441 Y82.681
G1 X136.649 Y116.082 E80.6522
G1 X136.403 Y116.381
G1 X102.141 Y82.927 E82.2441
G1 X101.867 Y83.199
G1 X136.158 Y116.681 E83.8373
G1 X135.906 Y116.974
G1 X101.622 Y83.498 E85.4303
G1 X101.376 Y83.798
G1 X135.606 Y117.220 E87.0207
G1 X135.306 Y117.466
G1 X101.131 Y84.097 E88.6085
G1 X100.885 Y84.396
G1 X135.006 Y117.712 E90.1939
G1 X134.706 Y117.959
G1 X100.640 Y84.695 E91.7767
G1 X100.394 Y84.995
G1 X134.406 Y118.205 E93.3570
G1 X134.106 Y118.451
G1 X100.149 Y85.294 E94.9347
G1 X99.903 Y85.593
G1 X133.807 Y118.697 E96.5100
G1 X133.507 Y118.943
G1 X99.657 Y85.892 E98.0827
G1 X99.412 Y86.192
G1 X133.207 Y119.190 E99.6529
G1 X132.907 Y119.436
G1 X99.166 Y86.491 E101.2205
G1 X98.940 Y86.809
G1 X132.607 Y119.682 E102.7848
G1 X132.307 Y119.928
G1 X98.751 Y87.163 E104.3439
G1 X98.561 Y87.517
G1 X131.951 Y120.119 E105.8953
G1 X131.594 Y120.310
G1 X98.372 Y87.872 E107.4388
G1 X98.183 Y88.226
G1 X131.237 Y120.501 E108.9746
G1 X130.881 Y120.691
G1 X97.994 Y88.580 E110.5026
G1 X97.804 Y88.934
G1 X130.524 Y120.882 E112.0228
G1 X130.167 Y121.073
G1 X97.615 Y89.289 E113.5353
G1 X97.426 Y89.643
G1 X129.810 Y121.264 E115.0399
G1 X129.454 Y121.454
G1 X97.237 Y89.997 E116.5368
G1 X97.047 Y90.351
G1 X129.097 Y121.645 E118.0259
G1 X128.740 Y121.836
G1 X96.858 Y90.706 E119.5073
G1 X96.709 Y91.099
G1 X128.384 Y122.027 E120.9789
G1 X128.004 Y122.195
G1 X96.583 Y91.515 E122.4388
G1 X96.457 Y91.931
G1 X127.583 Y122.322 E123.8850
G1 X127.161 Y122.450
G1 X96.331 Y92.347 E125.3175
G1 X96.205 Y92.763
G1 X126.740 Y122.578 E126.7362
G1 X126.319 Y122.706
G1 X96.079 Y93.179 E128.1413
G1 X95.953 Y93.595
G1 X125.898 Y122.834 E129.5326
G1 X125.477 Y122.962
G1 X95.826 Y94.010 E130.9102
G1 X95.700 Y94.426
G1 X125.056 Y123.089 E132.2742
G1 X124.635 Y123.217
G1 X95.574 Y94.842 E133.6244
G1 X95.448 Y95.258
G1 X124.214 Y123.345 E134.9609
G1 X123.792 Y123.473
G1 X95.386 Y95.737 E136.2807
G1 X95.338 Y96.229
G1 X123.318 Y123.549 E137.5807
G1 X122.816 Y123.598
G1 X95.290 Y96.721 E138.8596
G1 X95.241 Y97.212
G1 X122.315 Y123.647 E140.1175
G1 X121.814 Y123.697
G1 X95.193 Y97.704 E141.3544
G1 X95.145 Y98.196
G1 X121.312 Y123.746 E142.5702
G1 X120.811 Y123.796
G1 X95.097 Y98.688 E143.7649
G1 X95.048 Y99.180
G1 X120.309 Y123.845 E144.9386
G1 X119.808 Y123.895
G1 X95.000 Y99.672 E146.0913
G1 X94.986 Y100.197
G1 X119.307 Y123.944 E147.2213
G1 X118.769 Y123.958
G1 X95.045 Y100.794 E148.3235
G1 X95.104 Y101.390
G1 X118.155 Y123.898 E149.3945
G1 X117.541 Y123.838
G1 X95.163 Y101.987 E150.4343
G1 X95.221 Y102.583
G1 X116.927 Y123.777 E151.4428
G1 X116.314 Y123.717
G1 X95.280 Y103.180 E152.4201
G1 X95.339 Y103.776
G1 X115.700 Y123.657 E153.3661
G1 X115.086 Y123.596
G1 X95.398 Y104.373 E154.2808
;segType:Infill
G0 X95.196 Y102.327 F10800
G1 X94.596 Y102.327 E154.3008 F5400
G0 X94.533 Y98.315 F10800
G1 X95.133 Y98.315 E154.3207 F5400
G0 X95.111 Y94.303 F10800
G1 X95.738 Y94.303 E154.3416 F5400
G0 X96.672 Y91.221 F10800
G1 X96.672 Y89.769 E154.3898 F5400
G1 X96.393 Y90.291 E154.4095
G1 X97.080 Y90.291 E154.4323
G0 X99.340 Y86.279 F10800
G1 X98.549 Y86.279 E154.4586 F5400
G0 X100.781 Y84.523 F10800
G1 X100.781 Y83.558 E154.4907 F5400
G0 X101.968 Y82.267 F10800
G1 X102.945 Y82.267 E154.5232 F5400
G0 X104.890 Y80.670 F10800
G1 X104.890 Y79.869 E154.5498 F5400
G0 X107.689 Y78.255 F10800
G1 X109.016 Y78.255 E154.5940 F5400
G1 X108.999 Y78.264 E154.5946
G1 X108.999 Y77.554 E154.6182
G0 X113.108 Y76.179 F10800
G1 X113.108 Y76.838 E154.6401 F5400
;segType:HShell
G0 X95.774 Y105.818 F10800
G1 X113.729 Y123.349 E155.4744 F3600
;segType:Infill
G0 X113.108 Y123.821 F10800
G1 X113.108 Y123.161 E155.4963 F5400
;segType:HShell
G0 X112.928 Y123.107 F10800
G1 X96.006 Y106.584 E156.2825 F3600
G0 X96.471 Y108.116 F10800
G1 X111.327 Y122.621 E156.9728 F3600
;segType:Infill
G0 X110.558 Y122.388 F10800
G1 X108.891 Y122.388 E157.0282 F5400
G0 X104.890 Y120.131 F10800
G1 X104.890 Y119.329 E157.0548 F5400
G0 X103.729 Y118.376 F10800
G1 X102.752 Y118.376 E157.0873 F5400
;segType:HShell
G0 X103.342 Y118.059 F10800
G1 X101.120 Y115.889 E157.1905 F3600
;segType:Infill
G0 X100.781 Y116.442 F10800
G1 X100.781 Y115.476 E157.2226 F5400
G0 X99.867 Y114.364 F10800
G1 X99.076 Y114.364 E157.2489 F5400
;segType:HShell
G0 X98.976 Y113.256 F10800
G1 X106.041 Y120.155 E157.5772 F3600
G0 X107.260 Y120.806 F10800
G1 X98.373 Y112.128 E157.9901 F3600
G0 X97.769 Y111.000 F10800
G1 X108.479 Y121.458 E158.4877 F3600
;segType:Infill
G0 X108.999 Y122.446 F10800
G1 X108.999 Y121.735 E158.5113 F5400
;segType:HShell
G0 X109.698 Y122.109 F10800
G1 X97.166 Y109.872 E159.0936 F3600
;segType:Infill
G0 X96.672 Y108.777 F10800
G1 X96.672 Y110.231 E159.1419 F5400
G1 X96.737 Y110.352 E159.1465
G1 X97.422 Y110.352 E159.1693
;segType:HShell
G0 X96.704 Y108.882 F10800
G1 X110.526 Y122.378 E159.8115 F3600
G0 X112.128 Y122.864 F10800
G1 X96.239 Y107.350 E160.5497 F3600
;segType:Infill
G0 X95.932 Y106.339 F10800
G1 X95.306 Y106.339 E160.5705 F5400
;segType:HShell
G0 X95.541 Y105.052 F10800
G1 X114.472 Y123.536 E161.4501 F3600
;segType:Infill
G0 X117.217 Y123.806 F10800
G1 X117.217 Y124.443 E161.4713 F5400
G0 X121.326 Y124.382 F10800
G1 X121.326 Y123.745 E161.4925 F5400
G0 X125.435 Y123.634 F10800
G1 X125.435 Y122.974 E161.5144 F5400
G0 X127.367 Y122.388 F10800
G1 X129.035 Y122.388 E161.5699 F5400
G0 X129.544 Y121.406 F10800
G1 X129.544 Y122.116 E161.5935 F5400
G0 X133.653 Y119.624 F10800
G1 X133.653 Y118.823 E161.6201 F5400
G1 X134.198 Y118.376 E161.6435
G1 X135.175 Y118.376 E161.6760
G0 X137.762 Y115.689 F10800
G1 X137.762 Y114.725 E161.7081 F5400
G0 X138.850 Y114.364 F10800
G1 X138.059 Y114.364 E161.7344 F5400
G0 X140.503 Y110.352 F10800
G1 X141.190 Y110.352 E161.7572 F5400
G0 X141.871 Y108.810 F10800
G1 X141.871 Y106.743 E161.8259 F5400
G1 X141.994 Y106.339 E161.8399
G1 X142.621 Y106.339 E161.8608
G0 X142.730 Y102.327 F10800
G1 X143.330 Y102.327 E161.8807 F5400
G0 X142.794 Y98.315 F10800
G1 X143.394 Y98.315 E161.9006 F5400
G0 X142.816 Y94.303 F10800
G1 X142.189 Y94.303 E161.9215 F5400
G0 X141.871 Y93.257 F10800
G1 X141.871 Y91.190 E161.9902 F5400
;segType:HShell
G0 X141.594 Y92.342 F10800
G1 X126.121 Y77.234 E162.7091 F3600
G1 X126.921 Y77.476
G1 X141.361 Y91.576 E163.3800
;segType:Infill
G0 X141.533 Y90.291 F10800
G1 X140.848 Y90.291 E163.4028 F5400
;segType:HShell
G0 X141.121 Y90.802 F10800
G1 X127.722 Y77.719 E164.0253 F3600
G0 X128.718 Y78.153 F10800
G1 X140.518 Y89.674 E164.5736 F3600
G0 X139.914 Y88.546 F10800
G1 X129.937 Y78.804 E165.0371 F3600
;segType:Infill
G0 X129.544 Y78.594 F10800
G1 X129.544 Y77.884 E165.0607 F5400
G0 X133.653 Y80.376 F10800
G1 X133.653 Y81.177 E165.0874 F5400
;segType:HShell
G0 X132.517 Y80.245 F10800
G1 X138.141 Y85.737 E165.3487 F3600
;segType:Infill
G0 X137.762 Y85.275 F10800
G1 X137.762 Y84.311 E165.3808 F5400
G0 X134.981 Y82.267 F10800
G1 X135.958 Y82.267 E165.4133 F5400
G0 X138.587 Y86.279 F10800
G1 X139.377 Y86.279 E165.4396 F5400
;segType:HShell
G0 X139.311 Y87.418 F10800
G1 X131.156 Y79.455 E165.8184 F3600
;segType:Infill
G0 X130.238 Y78.255 F10800
G1 X128.909 Y78.255 E165.8626 F5400
G0 X125.435 Y76.366 F10800
G1 X125.435 Y77.026 E165.8845 F5400
;segType:HShell
G0 X125.320 Y76.991 F10800
G1 X141.826 Y93.108 E166.6515 F3600
G1 X142.059 Y93.874
G1 X124.519 Y76.748 E167.4664
;segType:Infill
G0 X117.217 Y76.194 F10800
G1 X117.217 Y75.557 E167.4876 F5400
;segType:Support
G0 F4800 E166.4876
G0 X144.963 Y100.000 F10800
G0 F4800 E167.4876
G1 X157.000 Y100.000 E167.8277 F5400
G1 X157.000 Y98.200 E167.8785
G1 X144.787 Y98.200 E168.2237
; ------------------------------------
; Layer #14
; ------------------------------------
G21 ; mm
G90 ; abs
G92 E0 ; reset extr
M106 S255
;segType:Support
G0 F4800 E-1.0000
G0 F300 Z2.998
G0 X144.787 Y98.200 F10800
G0 F4800 E0.0000
G1 X157.000 Y98.200 E0.3451 F5400
G1 X157.000 Y100.000 E0.3960
G1 X144.963 Y100.000 E0.7361
G0 F4800 E-0.2639
G0 X143.179 Y98.235 F10800
G0 X119.991 Y75.290
G0 F4800 E0.7361
;segType:Loop
G1 X123.798 Y75.665 E0.8633 F3600
G1 X128.448 Y77.076 E1.0248
G1 X132.734 Y79.367 E1.1864
G1 X136.493 Y82.451 E1.3480
G1 X139.578 Y86.210 E1.5097
G1 X141.871 Y90.501 E1.6714
G1 X143.283 Y95.157 E1.8332
G1 X143.760 Y100.000 E1.9949
G1 X143.283 Y104.843 E2.1567
G1 X141.871 Y109.499 E2.3185
G1 X139.578 Y113.790 E2.4802
G1 X136.493 Y117.549 E2.6419
G1 X132.734 Y120.633 E2.8035
G1 X128.448 Y122.924 E2.9650
G1 X123.798 Y124.335 E3.1266
G1 X118.963 Y124.811 E3.2881
G1 X114.128 Y124.335 E3.4496
G1 X109.478 Y122.924 E3.6111
G1 X105.192 Y120.633 E3.7727
G1 X101.434 Y117.549 E3.9343
G1 X98.349 Y113.790 E4.0960
G1 X96.055 Y109.499 E4.2577
G1 X94.643 Y104.843 E4.4195
G1 X94.166 Y100.000 E4.5813
G1 X94.643 Y95.157 E4.7430
G1 X96.055 Y90.501 E4.9048
G1 X98.349 Y86.210 E5.0665
G1 X101.434 Y82.451 E5.2282
G1 X105.192 Y79.367 E5.3898
G1 X109.478 Y77.076 E5.5514
G1 X114.128 Y75.665 E5.7129
G1 X118.963 Y75.189 E5.8744
G1 X119.797 Y75.271 E5.9023
;segType:Perimeter
G0 X118.550 Y75.311 F10800
G1 X119.021 Y74.802 E5.9253 F2160
G1 X123.878 Y75.280 E6.0876
G1 X128.605 Y76.714 E6.2518
G1 X132.961 Y79.043 E6.4160
G1 X136.780 Y82.176 E6.5802
G1 X139.914 Y85.996 E6.7444
G1 X142.243 Y90.353 E6.9087
G1 X143.678 Y95.082 E7.0730
G1 X144.162 Y100.000 E7.2373
G1 X143.678 Y104.918 E7.4015
G1 X142.243 Y109.647 E7.5658
G1 X139.914 Y114.004 E7.7301
G1 X136.780 Y117.824 E7.8943
G1 X132.961 Y120.957 E8.0585
G1 X128.605 Y123.286 E8.2227
G1 X123.878 Y124.720 E8.3869
G1 X118.963 Y125.204 E8.5511
G1 X114.048 Y124.720 E8.7153
G1 X109.322 Y123.286 E8.8795
G1 X104.965 Y120.957 E9.0437
G1 X101.146 Y117.824 E9.2079
G1 X98.012 Y114.004 E9.3722
G1 X95.683 Y109.647 E9.5364
G1 X94.248 Y104.918 E9.7007
G1 X93.764 Y100.000 E9.8650
G1 X94.248 Y95.082 E10.0293
G1 X95.683 Y90.354 E10.1935
G1 X98.012 Y85.996 E10.3578
G1 X101.146 Y82.176 E10.5220
G1 X104.965 Y79.043 E10.6863
G1 X109.321 Y76.714 E10.8505
G1 X114.048 Y75.280 E11.0147
G1 X118.905 Y74.802 E11.1769
G1 X119.376 Y75.311
;segType:Infill
G0 X121.326 Y75.618 F10800
G1 X121.326 Y76.255 E11.1981 F5400
G0 X125.435 Y76.366 F10800
G1 X125.435 Y77.026 E11.2200 F5400
G0 X128.909 Y78.255 F10800
G1 X130.238 Y78.255 E11.2642 F5400
G1 X129.544 Y77.884 E11.2903
G1 X129.544 Y78.594 E11.3139
G0 X133.653 Y80.376 F10800
G1 X133.653 Y81.177 E11.3406 F5400
G0 X134.981 Y82.267 F10800
G1 X135.958 Y82.267 E11.3730 F5400
G0 X137.762 Y84.311 F10800
G1 X137.762 Y85.275 E11.4051 F5400
G0 X138.587 Y86.279 F10800
G1 X139.377 Y86.279 E11.4314 F5400
G0 X140.848 Y90.291 F10800
G1 X141.533 Y90.291 E11.4542 F5400
G0 X141.871 Y91.190 F10800
G1 X141.871 Y93.257 E11.5229 F5400
G0 X142.816 Y94.303 F10800
G1 X142.189 Y94.303 E11.5437 F5400
;segType:HShell
G0 X110.484 Y77.638 F10800
G1 X96.714 Y91.084 E12.1835 F3600
;segType:Infill
G0 X97.083 Y90.291 F10800
G1 X96.393 Y90.291 E12.2064 F5400
;segType:HShell
G0 X97.203 Y90.067 F10800
G1 X109.645 Y77.918 E12.7846 F3600
;segType:Infill
G0 X108.999 Y77.554 F10800
G1 X108.999 Y78.264 E12.8082 F5400
G1 X109.017 Y78.255 E12.8088
G1 X107.689 Y78.255 E12.8530
G0 X104.890 Y80.671 F10800
G1 X104.890 Y79.869 E12.8797 F5400
G0 X102.950 Y82.267 F10800
G1 X101.968 Y82.267 E12.9123 F5400
G0 X100.781 Y83.558 F10800
G1 X100.781 Y84.525 E12.9445 F5400
G0 X99.345 Y86.279 F10800
G1 X98.549 Y86.279 E12.9709 F5400
;segType:HShell
G0 X101.224 Y83.985 F10800
G1 X103.163 Y82.091 E13.0610 F3600
G0 X105.975 Y79.885 F10800
G1 X99.021 Y86.675 E13.3841 F3600
G0 X98.402 Y87.818 F10800
G1 X107.198 Y79.230 E13.7928 F3600
G0 X108.422 Y78.574 F10800
G1 X97.802 Y88.943 E14.2862 F3600
;segType:Infill
G0 X96.672 Y89.769 F10800
G1 X96.672 Y91.222 E14.3345 F5400
;segType:HShell
G0 X96.483 Y91.848 F10800
G1 X111.286 Y77.394 E15.0223 F3600
G1 X112.088 Y77.150
G1 X96.252 Y92.613 E15.7581
G1 X96.021 Y93.378
G1 X112.891 Y76.905 E16.5419
;segType:Infill
G0 X113.108 Y76.839 F10800
G1 X113.108 Y76.179 E16.5638 F5400
;segType:HShell
G0 X113.693 Y76.661 F10800
G1 X95.789 Y94.142 E17.3957 F3600
;segType:Infill
G0 X95.741 Y94.303 F10800
G1 X95.111 Y94.303 E17.4166 F5400
G0 X95.135 Y98.315 F10800
G1 X94.533 Y98.315 E17.4367 F5400
G0 X94.596 Y102.327 F10800
G1 X95.198 Y102.327 E17.4567 F5400
G0 X95.306 Y106.339 F10800
G1 X95.934 Y106.339 E17.4776 F5400
G0 X96.672 Y108.765 F10800
G1 X96.672 Y110.231 E17.5263 F5400
G1 X96.737 Y110.352 E17.5308
G1 X97.424 Y110.352 E17.5537
G0 X99.076 Y114.364 F10800
G1 X99.869 Y114.364 E17.5800 F5400
G0 X100.781 Y115.473 F10800
G1 X100.781 Y116.442 E17.6122 F5400
G0 X102.752 Y118.376 F10800
G1 X103.731 Y118.376 E17.6448 F5400
G0 X104.890 Y119.325 F10800
G1 X104.890 Y120.131 E17.6715 F5400
G0 X108.999 Y121.732 F10800
G1 X108.999 Y122.446 E17.6953 F5400
G1 X108.891 Y122.388 E17.6993
G1 X110.560 Y122.388 E17.7548
G0 X113.108 Y123.158 F10800
G1 X113.108 Y123.821 E17.7769 F5400
G0 X117.217 Y123.803 F10800
G1 X117.217 Y124.443 E17.7981 F5400
G0 X121.326 Y124.382 F10800
G1 X121.326 Y123.745 E17.8193 F5400
;segType:HShell
G0 X123.680 Y123.507 F10800
G1 X142.301 Y105.325 E18.6845 F3600
G1 X142.069 Y106.091
G1 X124.481 Y123.264 E19.5016
;segType:Infill
G0 X125.435 Y123.634 F10800
G1 X125.435 Y122.974 E19.5235 F5400
;segType:HShell
G0 X127.686 Y122.291 F10800
G1 X141.141 Y109.154 E20.1487 F3600
;segType:Infill
G0 X140.503 Y110.352 F10800
G1 X141.190 Y110.352 E20.1715 F5400
;segType:HShell
G0 X140.544 Y110.275 F10800
G1 X128.660 Y121.879 E20.7236 F3600
;segType:Infill
G0 X133.653 Y119.624 F10800
G1 X133.653 Y118.823 E20.7503 F5400
G1 X134.198 Y118.376 E20.7737
G1 X135.175 Y118.376 E20.8062
;segType:HShell
G0 X135.819 Y117.045 F10800
G1 X136.021 Y116.847 E20.8155 F3600
;segType:Infill
G0 X137.762 Y115.689 F10800
G1 X137.762 Y114.725 E20.8476 F5400
G1 X138.059 Y114.364 E20.8631
G1 X138.850 Y114.364 E20.8894
;segType:HShell
G0 X138.243 Y114.139 F10800
G1 X132.351 Y119.893 E21.1632 F3600
G0 X131.102 Y120.573 F10800
G1 X139.340 Y112.529 E21.5460 F3600
G0 X139.942 Y111.402 F10800
G1 X129.881 Y121.226 E22.0135 F3600
;segType:Infill
G0 X129.544 Y121.406 F10800
G1 X129.544 Y122.116 E22.0371 F5400
G1 X129.035 Y122.388 E22.0563
G1 X127.367 Y122.388 E22.1117
;segType:HShell
G0 X126.885 Y122.534 F10800
G1 X141.373 Y108.388 E22.7849 F3600
G1 X141.605 Y107.623
G1 X126.084 Y122.778 E23.5060
G1 X125.283 Y123.021
G1 X141.837 Y106.857 E24.2752
;segType:Infill
G0 X141.871 Y108.810 F10800
G1 X141.871 Y106.743 E24.3439 F5400
G1 X141.994 Y106.339 E24.3579
G1 X142.621 Y106.339 E24.3787
G0 X142.730 Y102.327 F10800
G1 X143.330 Y102.327 E24.3987 F5400
G0 X143.394 Y98.315 F10800
G1 X142.794 Y98.315 E24.4186 F5400
;segType:HShell
G0 X142.508 Y104.584 F10800
G1 X123.060 Y123.574 E25.3222 F3600
G1 X122.446 Y123.635
G1 X142.567 Y103.988 E26.2571
G1 X142.626 Y103.392
G1 X121.832 Y123.695 E27.2233
G1 X121.217 Y123.756
G1 X142.684 Y102.795 E28.2206
G1 X142.743 Y102.199
G1 X120.603 Y123.817 E29.2493
G1 X119.989 Y123.877
G1 X142.801 Y101.603 E30.3092
G1 X142.860 Y101.007
G1 X119.375 Y123.938 E31.4004
G1 X118.802 Y123.958
G1 X142.919 Y100.411 E32.5209
G1 X142.945 Y99.846
G1 X118.300 Y123.909 E33.6659
G1 X117.798 Y123.860
G1 X142.896 Y99.354 E34.8320
G1 X142.848 Y98.863
G1 X117.296 Y123.811 E36.0192
G1 X116.795 Y123.762
G1 X142.799 Y98.371 E37.2274
G1 X142.751 Y97.879
G1 X116.293 Y123.713 E38.4567
G1 X115.791 Y123.664
G1 X142.702 Y97.388 E39.7070
G1 X142.654 Y96.896
G1 X115.289 Y123.615 E40.9785
G1 X114.787 Y123.566
G1 X142.605 Y96.404 E42.2710
G1 X142.557 Y95.913
G1 X114.288 Y123.515 E43.5844
G1 X113.866 Y123.387
G1 X142.508 Y95.421 E44.9152
G1 X142.398 Y94.990
G1 X113.445 Y123.260 E46.2604
G1 X113.023 Y123.132
G1 X142.271 Y94.574 E47.6193
G1 X142.145 Y94.158
G1 X112.602 Y123.005 E48.9920
G1 X112.180 Y122.878
G1 X142.019 Y93.743 E50.3784
G1 X141.893 Y93.327
G1 X111.759 Y122.750 E51.7785
G1 X111.337 Y122.623
G1 X141.767 Y92.911 E53.1923
G1 X141.640 Y92.495
G1 X110.915 Y122.495 E54.6198
G1 X110.494 Y122.368
G1 X141.514 Y92.079 E56.0611
G1 X141.388 Y91.664
G1 X110.072 Y122.240 E57.5161
G1 X109.673 Y122.091
G1 X141.262 Y91.248 E58.9838
G1 X141.135 Y90.832
G1 X109.316 Y121.901 E60.4622
G1 X108.959 Y121.710
G1 X140.947 Y90.477 E61.9484
G1 X140.758 Y90.123
G1 X108.602 Y121.520 E63.4424
G1 X108.245 Y121.330
