; GCode generated by CraftWare

G28 X0 Y0
G28 Z0

M190 S60 ;set bed temp (wait)
M109 S215 ;set head temp (wait)
; ------------------------------------
; Layer #0
; ------------------------------------
G21 ; mm
G90 ; abs
G92 E0 ; reset extr
M106 S0
;segType:Skirt
G0 F4800 E-1.0000
G0 F300 Z0.300
G0 X98.298 Y107.348 F10800
G0 F4800 E0.0000
G1 X98.451 Y107.501 E0.0108 F600
G1 X98.605 Y107.654 E0.0216
G1 X98.962 Y107.705 E0.0396
G1 X111.224 Y107.705 E0.6514
G1 X113.472 Y105.457 E0.8100
G1 X113.523 Y105.100 E0.8280
G1 X113.523 Y92.838 E1.4397
G1 X113.370 Y92.583 E1.4546
G1 X111.224 Y90.437 E1.6060
G1 X98.962 Y90.437 E2.2177
G1 X98.605 Y90.488 E2.2357
G1 X96.357 Y92.736 E2.3943
G1 X96.357 Y105.406 E3.0265
G1 X98.298 Y107.348 E3.1634
G1 X98.298 Y107.654 E3.1787
G1 X98.451 Y107.807 E3.1895
G1 X98.605 Y107.961 E3.2004
G1 X98.962 Y108.012 E3.2184
G1 X111.224 Y108.012 E3.8301
G1 X113.676 Y105.559 E4.0031
G1 X113.829 Y105.304 E4.0180
G1 X113.829 Y93.042 E4.6297
G1 X113.778 Y92.685 E4.6477
G1 X111.224 Y90.130 E4.8280
G1 X98.962 Y90.130 E5.4397
G1 X98.605 Y90.181 E5.4577
G1 X96.050 Y92.736 E5.6380
G1 X96.050 Y105.406 E6.2701
G1 X98.298 Y107.654 E6.4287
G1 X98.298 Y107.961 E6.4440
G1 X98.451 Y108.114 E6.4548
G1 X98.605 Y108.267 E6.4656
G1 X98.962 Y108.318 E6.4836
G1 X111.224 Y108.318 E7.0954
G1 X114.085 Y105.457 E7.2972
G1 X114.136 Y105.100 E7.3153
G1 X114.136 Y92.838 E7.9270
G1 X113.983 Y92.583 E7.9418
G1 X111.224 Y89.824 E8.1365
G1 X98.962 Y89.824 E8.7482
G1 X98.605 Y89.875 E8.7662
G1 X95.744 Y92.736 E8.9681
G1 X95.744 Y105.406 E9.6002
G1 X98.168 Y107.830 E9.7713
G0 F4800 E8.7713
G0 X100.737 Y104.831 F10800
G0 X102.022 Y103.331
G0 X109.730 Y94.331
G0 F4800 E9.7713
;segType:HShell
G1 X100.251 Y103.810 E10.4401 F600
;segType:Perimeter
G0 X100.161 Y104.153 F10800
G1 X99.651 Y104.364 E10.4676 F360
G1 X99.651 Y93.731 E10.9981
G1 X110.330 Y93.731 E11.5309
G1 X110.330 Y104.410 E12.0637
G1 X99.697 Y104.410 E12.5941
G1 X99.909 Y103.900
;segType:Loop
G0 X100.051 Y103.567 F10800
G1 X100.051 Y94.131 E13.0649 F600
G1 X109.930 Y94.131 E13.5578
G1 X109.930 Y104.010 E14.0506
G1 X100.051 Y104.010 E14.5435
G1 X100.051 Y103.720 E14.5580
;segType:HShell
G0 X100.251 Y103.377 F10800
G1 X109.297 Y94.331 E15.1962 F600
G1 X108.863 Y94.331
G1 X100.251 Y102.943 E15.8038
G1 X100.251 Y102.509
G1 X108.429 Y94.331 E16.3808
G1 X107.995 Y94.331
G1 X100.251 Y102.075 E16.9272
G1 X100.251 Y101.641
G1 X107.561 Y94.331 E17.4429
G1 X107.127 Y94.331
G1 X100.251 Y101.207 E17.9281
G1 X100.251 Y100.773
G1 X106.693 Y94.331 E18.3826
G1 X106.259 Y94.331
G1 X100.251 Y100.339 E18.8065
G1 X100.251 Y99.905
G1 X105.825 Y94.331 E19.1997
G1 X105.391 Y94.331
G1 X100.251 Y99.471 E19.5624
G1 X100.251 Y99.037
G1 X104.957 Y94.331 E19.8944
G1 X104.523 Y94.331
G1 X100.251 Y98.603 E20.1958
G1 X100.251 Y98.169
G1 X104.089 Y94.331 E20.4666
G1 X103.655 Y94.331
G1 X100.251 Y97.735 E20.7068
G1 X100.251 Y97.301
G1 X103.221 Y94.331 E20.9164
G1 X102.787 Y94.331
G1 X100.251 Y96.867 E21.0953
G1 X100.251 Y96.433
G1 X102.353 Y94.331 E21.2436
G1 X101.919 Y94.331
G1 X100.251 Y95.999 E21.3613
G1 X100.251 Y95.565
G1 X101.485 Y94.331 E21.4484
G1 X101.051 Y94.331
G1 X100.251 Y95.132 E21.5049
G1 X100.251 Y94.698
G1 X100.617 Y94.331 E21.5307
G0 X109.730 Y94.765 F10800
G1 X100.685 Y103.810 E22.1689 F600
G1 X101.119 Y103.810
G1 X109.730 Y95.199 E22.7764
G1 X109.730 Y95.633
G1 X101.553 Y103.810 E23.3534
G1 X101.987 Y103.810
G1 X109.730 Y96.067 E23.8997
G1 X109.730 Y96.501
G1 X102.421 Y103.810 E24.4154
G1 X102.855 Y103.810
G1 X109.730 Y96.935 E24.9005
G1 X109.730 Y97.369
G1 X103.289 Y103.810 E25.3550
G1 X103.723 Y103.810
G1 X109.730 Y97.803 E25.7788
G1 X109.730 Y98.237
G1 X104.157 Y103.810 E26.1721
G1 X104.591 Y103.810
G1 X109.730 Y98.671 E26.5347
G1 X109.730 Y99.105
G1 X105.025 Y103.810 E26.8667
G1 X105.459 Y103.810
G1 X109.730 Y99.539 E27.1681
G1 X109.730 Y99.973
G1 X105.893 Y103.810 E27.4388
G1 X106.327 Y103.810
G1 X109.730 Y100.407 E27.6790
G1 X109.730 Y100.841
G1 X106.760 Y103.810 E27.8885
G1 X107.194 Y103.810
G1 X109.730 Y101.275 E28.0675
G1 X109.730 Y101.708
G1 X107.628 Y103.810 E28.2158
G1 X108.062 Y103.810
G1 X109.730 Y102.142 E28.3335
G1 X109.730 Y102.576
G1 X108.496 Y103.810 E28.4205
G1 X108.930 Y103.811
G1 X109.730 Y103.010 E28.4770
G1 X109.730 Y103.444
G1 X109.364 Y103.811 E28.5028
; ------------------------------------
; Layer #1
; ------------------------------------
G21 ; mm
G90 ; abs
G92 E0 ; reset extr
M106 S0
;segType:Loop
G0 F4800 E-1.0000
G0 F300 Z0.600
G0 X100.051 Y103.567 F10800
G0 F4800 E0.0000
G1 X100.051 Y94.131 E0.4707 F3600
G1 X109.930 Y94.131 E0.9636
G1 X109.930 Y104.010 E1.4565
G1 X100.051 Y104.010 E1.9494
G1 X100.051 Y103.720 E1.9638
;segType:Perimeter
G0 X100.161 Y104.153 F10800
G1 X99.651 Y104.364 E1.9914 F2160
G1 X99.651 Y93.731 E2.5219
G1 X110.330 Y93.731 E3.0547
G1 X110.330 Y104.410 E3.5874
G1 X99.697 Y104.410 E4.1179
G1 X99.909 Y103.900
;segType:HShell
G0 X109.730 Y94.758 F10800
G1 X109.303 Y94.331 E4.1481 F3600
G1 X108.869 Y94.331
G1 X109.730 Y95.192 E4.2088
G1 X109.730 Y95.626
G1 X108.436 Y94.331 E4.3002
G1 X108.002 Y94.331
G1 X109.730 Y96.060 E4.4221
G1 X109.730 Y96.494
G1 X107.568 Y94.331 E4.5747
G1 X107.134 Y94.331
G1 X109.730 Y96.928 E4.7579
G1 X109.730 Y97.362
G1 X106.700 Y94.331 E4.9718
G1 X106.266 Y94.331
G1 X109.730 Y97.796 E5.2162
G1 X109.730 Y98.230
G1 X105.832 Y94.331 E5.4913
G1 X105.398 Y94.331
G1 X109.730 Y98.664 E5.7970
G1 X109.730 Y99.098
G1 X104.964 Y94.331 E6.1333
G1 X104.530 Y94.331
G1 X109.730 Y99.532 E6.5002
G1 X109.730 Y99.966
G1 X104.096 Y94.331 E6.8977
G1 X103.662 Y94.331
G1 X109.730 Y100.400 E7.3259
G1 X109.730 Y100.834
G1 X103.228 Y94.331 E7.7846
G1 X102.794 Y94.331
G1 X109.730 Y101.267 E8.2740
G1 X109.730 Y101.701
G1 X102.360 Y94.331 E8.7940
G1 X101.926 Y94.331
G1 X109.730 Y102.135 E9.3446
G1 X109.730 Y102.569
G1 X101.492 Y94.331 E9.9259
G1 X101.058 Y94.331
G1 X109.730 Y103.003 E10.5377
G1 X109.730 Y103.437
G1 X100.624 Y94.331 E11.1802
G1 X100.251 Y94.392
G1 X109.670 Y103.811 E11.8447
G1 X109.236 Y103.811
G1 X100.251 Y94.826 E12.4787
G1 X100.251 Y95.260
G1 X108.802 Y103.811 E13.0820
G1 X108.368 Y103.811
G1 X100.251 Y95.694 E13.6546
G1 X100.251 Y96.128
G1 X107.934 Y103.811 E14.1967
G1 X107.500 Y103.811
G1 X100.251 Y96.562 E14.7082
G1 X100.251 Y96.996
G1 X107.066 Y103.811 E15.1890
G1 X106.632 Y103.811
G1 X100.251 Y97.430 E15.6392
G1 X100.251 Y97.863
G1 X106.198 Y103.811 E16.0588
G1 X105.764 Y103.811
G1 X100.251 Y98.297 E16.4478
G1 X100.251 Y98.731
G1 X105.330 Y103.811 E16.8061
G1 X104.896 Y103.811
G1 X100.251 Y99.165 E17.1339
G1 X100.251 Y99.599
G1 X104.462 Y103.811 E17.4310
G1 X104.028 Y103.811
G1 X100.251 Y100.033 E17.6975
G1 X100.251 Y100.467
G1 X103.594 Y103.811 E17.9334
G1 X103.161 Y103.811
G1 X100.251 Y100.901 E18.1387
G1 X100.251 Y101.335
G1 X102.727 Y103.811 E18.3133
G1 X102.293 Y103.811
G1 X100.251 Y101.769 E18.4574
G1 X100.251 Y102.203
G1 X101.859 Y103.811 E18.5708
G1 X101.425 Y103.811
G1 X100.251 Y102.637 E18.6536
G1 X100.251 Y103.071
G1 X100.991 Y103.811 E18.7058
G1 X100.557 Y103.811
G1 X100.251 Y103.505 E18.7273
; ------------------------------------
; Layer #2
; ------------------------------------
G21 ; mm
G90 ; abs
G92 E0 ; reset extr
M106 S0
;segType:HShell
G0 F4800 E-1.0000
G0 F300 Z0.900
G0 X109.730 Y94.331 F10800
G0 F4800 E0.0000
G1 X100.251 Y103.811 E0.6688 F3600
;segType:Perimeter
G0 X100.161 Y104.153 F10800
G1 X99.651 Y104.364 E0.6964 F2160
G1 X99.651 Y93.731 E1.2269
G1 X110.330 Y93.731 E1.7596
G1 X110.330 Y104.410 E2.2924
G1 X99.697 Y104.410 E2.8229
G1 X99.909 Y103.900
;segType:Loop
G0 X100.051 Y103.567 F10800
G1 X100.051 Y94.131 E3.2936 F3600
G1 X109.930 Y94.131 E3.7865
G1 X109.930 Y104.010 E4.2794
G1 X100.051 Y104.010 E4.7723
G1 X100.051 Y103.720 E4.7867
;segType:HShell
G0 X100.251 Y103.377 F10800
G1 X109.296 Y94.331 E5.4249 F3600
G1 X108.862 Y94.331
G1 X100.251 Y102.943 E6.0325
G1 X100.251 Y102.509
G1 X108.429 Y94.331 E6.6095
G1 X107.995 Y94.331
G1 X100.251 Y102.075 E7.1558
G1 X100.251 Y101.641
G1 X107.561 Y94.331 E7.6716
G1 X107.127 Y94.331
G1 X100.251 Y101.207 E8.1567
G1 X100.251 Y100.773
G1 X106.693 Y94.331 E8.6112
G1 X106.259 Y94.331
G1 X100.251 Y100.339 E9.0350
G1 X100.251 Y99.905
G1 X105.825 Y94.331 E9.4283
G1 X105.391 Y94.331
G1 X100.251 Y99.471 E9.7909
G1 X100.251 Y99.037
G1 X104.957 Y94.331 E10.1229
G1 X104.523 Y94.331
G1 X100.251 Y98.603 E10.4243
G1 X100.251 Y98.169
G1 X104.089 Y94.331 E10.6951
G1 X103.655 Y94.331
G1 X100.251 Y97.735 E10.9353
G1 X100.251 Y97.301
G1 X103.221 Y94.331 E11.1448
G1 X102.787 Y94.331
G1 X100.251 Y96.867 E11.3238
G1 X100.251 Y96.433
G1 X102.353 Y94.331 E11.4721
G1 X101.919 Y94.331
G1 X100.251 Y95.999 E11.5898
G1 X100.251 Y95.565
G1 X101.485 Y94.331 E11.6769
G1 X101.051 Y94.331
G1 X100.251 Y95.132 E11.7333
G1 X100.251 Y94.698
G1 X100.617 Y94.331 E11.7592
G0 X109.730 Y94.765 F10800
G1 X100.685 Y103.811 E12.3974 F3600
G1 X101.119 Y103.811
G1 X109.730 Y95.199 E13.0050
G1 X109.730 Y95.633
G1 X101.553 Y103.811 E13.5819
G1 X101.987 Y103.811
G1 X109.730 Y96.067 E14.1283
G1 X109.730 Y96.501
G1 X102.421 Y103.811 E14.6440
G1 X102.855 Y103.811
G1 X109.730 Y96.935 E15.1291
G1 X109.730 Y97.369
G1 X103.289 Y103.811 E15.5836
G1 X103.723 Y103.811
G1 X109.730 Y97.803 E16.0075
G1 X109.730 Y98.237
G1 X104.157 Y103.811 E16.4007
G1 X104.591 Y103.811
G1 X109.730 Y98.671 E16.7633
G1 X109.730 Y99.105
G1 X105.025 Y103.811 E17.0954
G1 X105.459 Y103.811
G1 X109.730 Y99.539 E17.3968
G1 X109.730 Y99.973
G1 X105.892 Y103.811 E17.6676
G1 X106.326 Y103.811
G1 X109.730 Y100.407 E17.9077
G1 X109.730 Y100.841
G1 X106.760 Y103.811 E18.1173
G1 X107.194 Y103.811
G1 X109.730 Y101.274 E18.2962
G1 X109.730 Y101.708
G1 X107.628 Y103.811 E18.4445
G1 X108.062 Y103.811
G1 X109.730 Y102.142 E18.5622
G1 X109.730 Y102.576
G1 X108.496 Y103.811 E18.6493
G1 X108.930 Y103.811
G1 X109.730 Y103.010 E18.7058
G1 X109.730 Y103.444
G1 X109.364 Y103.811 E18.7316
; ------------------------------------
; Layer #3
; ------------------------------------
G21 ; mm
G90 ; abs
G92 E0 ; reset extr
M106 S255
;segType:Loop
G0 F4800 E-1.0000
G0 F300 Z1.200
G0 X100.051 Y103.567 F10800
G0 F4800 E0.0000
G1 X100.051 Y94.131 E0.4707 F2029
G1 X109.930 Y94.131 E0.9636
G1 X109.930 Y104.010 E1.4565
G1 X100.051 Y104.010 E1.9494
G1 X100.051 Y103.720 E1.9638
;segType:Perimeter
G0 X100.161 Y104.153 F10800
G1 X99.651 Y104.364 E1.9914 F1217
G1 X99.651 Y93.731 E2.5219
G1 X110.330 Y93.731 E3.0547
G1 X110.330 Y104.410 E3.5874
G1 X99.697 Y104.410 E4.1179
G1 X99.909 Y103.900
;segType:Infill
G0 X101.681 Y103.811 F10800
G1 X101.681 Y94.331 E4.5909 F3044
G0 X104.911 Y94.331 F10800
G1 X104.911 Y103.811 E5.0638 F3044
G0 X109.730 Y99.150 F10800
G1 X100.251 Y99.150 E5.5367 F3044
G0 X100.251 Y102.380 F10800
G1 X109.730 Y102.380 E6.0096 F3044
G0 X108.141 Y103.811 F10800
G1 X108.141 Y94.331 E6.4825 F3044
G0 X109.730 Y95.920 F10800
G1 X100.251 Y95.920 E6.9555 F3044
; ------------------------------------
; Layer #4
; ------------------------------------
G21 ; mm
G90 ; abs
G92 E0 ; reset extr
M106 S255
;segType:Loop
G0 F4800 E-1.0000
G0 F300 Z1.500
G0 X100.051 Y103.567 F10800
G0 F4800 E0.0000
G1 X100.051 Y94.131 E0.4707 F2029
G1 X109.930 Y94.131 E0.9636
G1 X109.930 Y104.010 E1.4565
G1 X100.051 Y104.010 E1.9494
G1 X100.051 Y103.720 E1.9638
;segType:Perimeter
G0 X100.161 Y104.153 F10800
G1 X99.651 Y104.364 E1.9914 F1217
G1 X99.651 Y93.731 E2.5219
G1 X110.330 Y93.731 E3.0547
G1 X110.330 Y104.410 E3.5874
G1 X99.697 Y104.410 E4.1179
G1 X99.909 Y103.900
;segType:Infill
G0 X101.681 Y103.811 F10800
G1 X101.681 Y94.331 E4.5909 F3044
G0 X104.911 Y94.331 F10800
G1 X104.911 Y103.811 E5.0638 F3044
G0 X109.730 Y99.150 F10800
G1 X100.251 Y99.150 E5.5367 F3044
G0 X100.251 Y102.380 F10800
G1 X109.730 Y102.380 E6.0096 F3044
G0 X108.141 Y103.811 F10800
G1 X108.141 Y94.331 E6.4825 F3044
G0 X109.730 Y95.920 F10800
G1 X100.251 Y95.920 E6.9555 F3044
; ------------------------------------
; Layer #5
; ------------------------------------
G21 ; mm
G90 ; abs
G92 E0 ; reset extr
M106 S255
;segType:Loop
G0 F4800 E-1.0000
G0 F300 Z1.800
G0 X100.051 Y103.567 F10800
G0 F4800 E0.0000
G1 X100.051 Y94.131 E0.4707 F2029
G1 X109.930 Y94.131 E0.9636
G1 X109.930 Y104.010 E1.4565
G1 X100.051 Y104.010 E1.9494
G1 X100.051 Y103.720 E1.9638
;segType:Perimeter
G0 X100.161 Y104.153 F10800
G1 X99.651 Y104.364 E1.9914 F1217
G1 X99.651 Y93.731 E2.5219
G1 X110.330 Y93.731 E3.0547
G1 X110.330 Y104.410 E3.5874
G1 X99.697 Y104.410 E4.1179
G1 X99.909 Y103.900
;segType:Infill
G0 X101.681 Y103.811 F10800
G1 X101.681 Y94.331 E4.5909 F3044
G0 X104.911 Y94.331 F10800
G1 X104.911 Y103.811 E5.0638 F3044
G0 X109.730 Y99.150 F10800
G1 X100.251 Y99.150 E5.5367 F3044
G0 X100.251 Y102.380 F10800
G1 X109.730 Y102.380 E6.0096 F3044
G0 X108.141 Y103.811 F10800
G1 X108.141 Y94.331 E6.4825 F3044
G0 X109.730 Y95.920 F10800
G1 X100.251 Y95.920 E6.9555 F3044
; ------------------------------------
; Layer #6
; ------------------------------------
G21 ; mm
G90 ; abs
G92 E0 ; reset extr
M106 S255
;segType:Loop
G0 F4800 E-1.0000
G0 F300 Z2.100
G0 X100.051 Y103.567 F10800
G0 F4800 E0.0000
G1 X100.051 Y94.131 E0.4707 F2029
G1 X109.930 Y94.131 E0.9636
G1 X109.930 Y104.010 E1.4565
G1 X100.051 Y104.010 E1.9494
G1 X100.051 Y103.720 E1.9638
;segType:Perimeter
G0 X100.161 Y104.153 F10800
G1 X99.651 Y104.364 E1.9914 F1217
G1 X99.651 Y93.731 E2.5219
G1 X110.330 Y93.731 E3.0547
G1 X110.330 Y104.410 E3.5874
G1 X99.697 Y104.410 E4.1179
G1 X99.909 Y103.900
;segType:Infill
G0 X101.681 Y103.811 F10800
G1 X101.681 Y94.331 E4.5909 F3044
G0 X104.911 Y94.331 F10800
G1 X104.911 Y103.811 E5.0638 F3044
G0 X109.730 Y99.150 F10800
G1 X100.251 Y99.150 E5.5367 F3044
G0 X100.251 Y102.380 F10800
G1 X109.730 Y102.380 E6.0096 F3044
G0 X108.141 Y103.811 F10800
G1 X108.141 Y94.331 E6.4825 F3044
G0 X109.730 Y95.920 F10800
G1 X100.251 Y95.920 E6.9555 F3044
; ------------------------------------
; Layer #7
; ------------------------------------
G21 ; mm
G90 ; abs
G92 E0 ; reset extr
M106 S255
;segType:Loop
G0 F4800 E-1.0000
G0 F300 Z2.400
G0 X100.051 Y103.567 F10800
G0 F4800 E0.0000
G1 X100.051 Y94.131 E0.4707 F2029
G1 X109.930 Y94.131 E0.9636
G1 X109.930 Y104.010 E1.4565
G1 X100.051 Y104.010 E1.9494
G1 X100.051 Y103.720 E1.9638
;segType:Perimeter
G0 X100.161 Y104.153 F10800
G1 X99.651 Y104.364 E1.9914 F1217
G1 X99.651 Y93.731 E2.5219
G1 X110.330 Y93.731 E3.0547
G1 X110.330 Y104.410 E3.5874
G1 X99.697 Y104.410 E4.1179
G1 X99.909 Y103.900
;segType:Infill
G0 X101.681 Y103.811 F10800
G1 X101.681 Y94.331 E4.5909 F3044
G0 X104.911 Y94.331 F10800
G1 X104.911 Y103.811 E5.0638 F3044
G0 X109.730 Y99.150 F10800
G1 X100.251 Y99.150 E5.5367 F3044
G0 X100.251 Y102.380 F10800
G1 X109.730 Y102.380 E6.0096 F3044
G0 X108.141 Y103.811 F10800
G1 X108.141 Y94.331 E6.4825 F3044
G0 X109.730 Y95.920 F10800
G1 X100.251 Y95.920 E6.9555 F3044
; ------------------------------------
; Layer #8
; ------------------------------------
G21 ; mm
G90 ; abs
G92 E0 ; reset extr
M106 S255
;segType:Loop
G0 F4800 E-1.0000
G0 F300 Z2.700
G0 X100.051 Y103.567 F10800
G0 F4800 E0.0000
G1 X100.051 Y94.131 E0.4707 F2029
G1 X109.930 Y94.131 E0.9636
G1 X109.930 Y104.010 E1.4565
G1 X100.051 Y104.010 E1.9494
G1 X100.051 Y103.720 E1.9638
;segType:Perimeter
G0 X100.161 Y104.153 F10800
G1 X99.651 Y104.364 E1.9914 F1217
G1 X99.651 Y93.731 E2.5219
G1 X110.330 Y93.731 E3.0547
G1 X110.330 Y104.410 E3.5874
G1 X99.697 Y104.410 E4.1179
G1 X99.909 Y103.900
;segType:Infill
G0 X101.681 Y103.811 F10800
G1 X101.681 Y94.331 E4.5909 F3044
G0 X104.911 Y94.331 F10800
G1 X104.911 Y103.811 E5.0638 F3044
G0 X109.730 Y99.150 F10800
G1 X100.251 Y99.150 E5.5367 F3044
G0 X100.251 Y102.380 F10800
G1 X109.730 Y102.380 E6.0096 F3044
G0 X108.141 Y103.811 F10800
G1 X108.141 Y94.331 E6.4825 F3044
G0 X109.730 Y95.920 F10800
G1 X100.251 Y95.920 E6.9555 F3044
; ------------------------------------
; Layer #9
; ------------------------------------
G21 ; mm
G90 ; abs
G92 E0 ; reset extr
M106 S255
;segType:Loop
G0 F4800 E-1.0000
G0 F300 Z3.000
G0 X100.051 Y103.567 F10800
G0 F4800 E0.0000
G1 X100.051 Y94.131 E0.4707 F2029
G1 X109.930 Y94.131 E0.9636
G1 X109.930 Y104.010 E1.4565
G1 X100.051 Y104.010 E1.9494
G1 X100.051 Y103.720 E1.9638
;segType:Perimeter
G0 X100.161 Y104.153 F10800
G1 X99.651 Y104.364 E1.9914 F1217
G1 X99.651 Y93.731 E2.5219
G1 X110.330 Y93.731 E3.0547
G1 X110.330 Y104.410 E3.5874
G1 X99.697 Y104.410 E4.1179
G1 X99.909 Y103.900
;segType:Infill
G0 X101.681 Y103.811 F10800
G1 X101.681 Y94.331 E4.5909 F3044
G0 X104.911 Y94.331 F10800
G1 X104.911 Y103.811 E5.0638 F3044
G0 X109.730 Y99.150 F10800
G1 X100.251 Y99.150 E5.5367 F3044
G0 X100.251 Y102.380 F10800
G1 X109.730 Y102.380 E6.0096 F3044
G0 X108.141 Y103.811 F10800
G1 X108.141 Y94.331 E6.4825 F3044
G0 X109.730 Y95.920 F10800
G1 X100.251 Y95.920 E6.9555 F3044
; ------------------------------------
; Layer #10
; ------------------------------------
G21 ; mm
G90 ; abs
G92 E0 ; reset extr
M106 S255
;segType:Loop
G0 F4800 E-1.0000
G0 F300 Z3.300
G0 X100.051 Y103.567 F10800
G0 F4800 E0.0000
G1 X100.051 Y94.131 E0.4707 F2029
G1 X109.930 Y94.131 E0.9636
G1 X109.930 Y104.010 E1.4565
G1 X100.051 Y104.010 E1.9494
G1 X100.051 Y103.720 E1.9638
;segType:Perimeter
G0 X100.161 Y104.153 F10800
G1 X99.651 Y104.364 E1.9914 F1217
G1 X99.651 Y93.731 E2.5219
G1 X110.330 Y93.731 E3.0547
G1 X110.330 Y104.410 E3.5874
G1 X99.697 Y104.410 E4.1179
G1 X99.909 Y103.900
;segType:Infill
G0 X101.681 Y103.811 F10800
G1 X101.681 Y94.331 E4.5909 F3044
G0 X104.911 Y94.331 F10800
G1 X104.911 Y103.811 E5.0638 F3044
G0 X109.730 Y99.150 F10800
G1 X100.251 Y99.150 E5.5367 F3044
G0 X100.251 Y102.380 F10800
G1 X109.730 Y102.380 E6.0096 F3044
G0 X108.141 Y103.811 F10800
G1 X108.141 Y94.331 E6.4825 F3044
G0 X109.730 Y95.920 F10800
G1 X100.251 Y95.920 E6.9555 F3044
; ------------------------------------
; Layer #11
; ------------------------------------
G21 ; mm
G90 ; abs
G92 E0 ; reset extr
M106 S255
;segType:Loop
G0 F4800 E-1.0000
G0 F300 Z3.600
G0 X100.051 Y103.567 F10800
G0 F4800 E0.0000
G1 X100.051 Y94.131 E0.4707 F2029
G1 X109.930 Y94.131 E0.9636
G1 X109.930 Y104.010 E1.4565
G1 X100.051 Y104.010 E1.9494
G1 X100.051 Y103.720 E1.9638
;segType:Perimeter
G0 X100.161 Y104.153 F10800
G1 X99.651 Y104.364 E1.9914 F1217
G1 X99.651 Y93.731 E2.5219
G1 X110.330 Y93.731 E3.0547
G1 X110.330 Y104.410 E3.5874
G1 X99.697 Y104.410 E4.1179
G1 X99.909 Y103.900
;segType:Infill
G0 X101.681 Y103.811 F10800
G1 X101.681 Y94.331 E4.5909 F3044
G0 X104.911 Y94.331 F10800
G1 X104.911 Y103.811 E5.0638 F3044
G0 X109.730 Y99.150 F10800
G1 X100.251 Y99.150 E5.5367 F3044
G0 X100.251 Y102.380 F10800
G1 X109.730 Y102.380 E6.0096 F3044
G0 X108.141 Y103.811 F10800
G1 X108.141 Y94.331 E6.4825 F3044
G0 X109.730 Y95.920 F10800
G1 X100.251 Y95.920 E6.9555 F3044
; ------------------------------------
; Layer #12
; ------------------------------------
G21 ; mm
G90 ; abs
G92 E0 ; reset extr
M106 S255
;segType:Loop
G0 F4800 E-1.0000
G0 F300 Z3.900
G0 X100.051 Y103.567 F10800
G0 F4800 E0.0000
G1 X100.051 Y94.131 E0.4707 F2029
G1 X109.930 Y94.131 E0.9636
G1 X109.930 Y104.010 E1.4565
G1 X100.051 Y104.010 E1.9494
G1 X100.051 Y103.720 E1.9638
;segType:Perimeter
G0 X100.161 Y104.153 F10800
G1 X99.651 Y104.364 E1.9914 F1217
G1 X99.651 Y93.731 E2.5219
G1 X110.330 Y93.731 E3.0547
G1 X110.330 Y104.410 E3.5874
G1 X99.697 Y104.410 E4.1179
G1 X99.909 Y103.900
;segType:Infill
G0 X101.681 Y103.811 F10800
G1 X101.681 Y94.331 E4.5909 F3044
G0 X104.911 Y94.331 F10800
G1 X104.911 Y103.811 E5.0638 F3044
G0 X109.730 Y99.150 F10800
G1 X100.251 Y99.150 E5.5367 F3044
G0 X100.251 Y102.380 F10800
G1 X109.730 Y102.380 E6.0096 F3044
G0 X108.141 Y103.811 F10800
G1 X108.141 Y94.331 E6.4825 F3044
G0 X109.730 Y95.920 F10800
G1 X100.251 Y95.920 E6.9555 F3044
; ------------------------------------
; Layer #13
; ------------------------------------
G21 ; mm
G90 ; abs
G92 E0 ; reset extr
M106 S255
;segType:Loop
G0 F4800 E-1.0000
G0 F300 Z4.200
G0 X100.051 Y103.567 F10800
G0 F4800 E0.0000
G1 X100.051 Y94.131 E0.4707 F2029
G1 X109.930 Y94.131 E0.9636
G1 X109.930 Y104.010 E1.4565
G1 X100.051 Y104.010 E1.9494
G1 X100.051 Y103.720 E1.9638
;segType:Perimeter
G0 X100.161 Y104.153 F10800
G1 X99.651 Y104.364 E1.9914 F1217
G1 X99.651 Y93.731 E2.5219
G1 X110.330 Y93.731 E3.0547
G1 X110.330 Y104.410 E3.5874
G1 X99.697 Y104.410 E4.1179
G1 X99.909 Y103.900
;segType:Infill
G0 X101.681 Y103.811 F10800
G1 X101.681 Y94.331 E4.5909 F3044
G0 X104.911 Y94.331 F10800
G1 X104.911 Y103.811 E5.0638 F3044
G0 X109.730 Y99.150 F10800
G1 X100.251 Y99.150 E5.5367 F3044
G0 X100.251 Y102.380 F10800
G1 X109.730 Y102.380 E6.0096 F3044
G0 X108.141 Y103.811 F10800
G1 X108.141 Y94.331 E6.4825 F3044
G0 X109.730 Y95.920 F10800
G1 X100.251 Y95.920 E6.9555 F3044
; ------------------------------------
; Layer #14
; ------------------------------------
G21 ; mm
G90 ; abs
G92 E0 ; reset extr
M106 S255
;segType:Loop
G0 F4800 E-1.0000
G0 F300 Z4.500
G0 X100.051 Y103.567 F10800
G0 F4800 E0.0000
G1 X100.051 Y94.131 E0.4707 F2029
G1 X109.930 Y94.131 E0.9636
G1 X109.930 Y104.010 E1.4565
G1 X100.051 Y104.010 E1.9494
G1 X100.051 Y103.720 E1.9638
;segType:Perimeter
G0 X100.161 Y104.153 F10800
G1 X99.651 Y104.364 E1.9914 F1217
G1 X99.651 Y93.731 E2.5219
G1 X110.330 Y93.731 E3.0547
G1 X110.330 Y104.410 E3.5874
G1 X99.697 Y104.410 E4.1179
G1 X99.909 Y103.900
;segType:Infill
G0 X101.681 Y103.811 F10800
G1 X101.681 Y94.331 E4.5909 F3044
G0 X104.911 Y94.331 F10800
G1 X104.911 Y103.811 E5.0638 F3044
G0 X109.730 Y99.150 F10800
G1 X100.251 Y99.150 E5.5367 F3044
G0 X100.251 Y102.380 F10800
G1 X109.730 Y102.380 E6.0096 F3044
G0 X108.141 Y103.811 F10800
G1 X108.141 Y94.331 E6.4825 F3044
G0 X109.730 Y95.920 F10800
G1 X100.251 Y95.920 E6.9555 F3044
; ------------------------------------
; Layer #15
; ------------------------------------
G21 ; mm
G90 ; abs
G92 E0 ; reset extr
M106 S255
;segType:Loop
G0 F4800 E-1.0000
G0 F300 Z4.800
G0 X100.051 Y103.567 F10800
G0 F4800 E0.0000
G1 X100.051 Y94.131 E0.4707 F2029
G1 X109.930 Y94.131 E0.9636
G1 X109.930 Y104.010 E1.4565
G1 X100.051 Y104.010 E1.9494
G1 X100.051 Y103.720 E1.9638
;segType:Perimeter
G0 X100.161 Y104.153 F10800
G1 X99.651 Y104.364 E1.9914 F1217
G1 X99.651 Y93.731 E2.5219
G1 X110.330 Y93.731 E3.0547
G1 X110.330 Y104.410 E3.5874
G1 X99.697 Y104.410 E4.1179
G1 X99.909 Y103.900
;segType:Infill
G0 X101.681 Y103.811 F10800
G1 X101.681 Y94.331 E4.5909 F3044
G0 X104.911 Y94.331 F10800
G1 X104.911 Y103.811 E5.0638 F3044
G0 X109.730 Y99.150 F10800
G1 X100.251 Y99.150 E5.5367 F3044
G0 X100.251 Y102.380 F10800
G1 X109.730 Y102.380 E6.0096 F3044
G0 X108.141 Y103.811 F10800
G1 X108.141 Y94.331 E6.4825 F3044
G0 X109.730 Y95.920 F10800
G1 X100.251 Y95.920 E6.9555 F3044
; ------------------------------------
; Layer #16
; ------------------------------------
G21 ; mm
G90 ; abs
G92 E0 ; reset extr
M106 S255
;segType:Loop
G0 F4800 E-1.0000
G0 F300 Z5.100
G0 X100.051 Y103.567 F10800
G0 F4800 E0.0000
G1 X100.051 Y94.131 E0.4707 F2029
G1 X109.930 Y94.131 E0.9636
G1 X109.930 Y104.010 E1.4565
G1 X100.051 Y104.010 E1.9494
G1 X100.051 Y103.720 E1.9638
;segType:Perimeter
G0 X100.161 Y104.153 F10800
G1 X99.651 Y104.364 E1.9914 F1217
G1 X99.651 Y93.731 E2.5219
G1 X110.330 Y93.731 E3.0547
G1 X110.330 Y104.410 E3.5874
G1 X99.697 Y104.410 E4.1179
G1 X99.909 Y103.900
;segType:Infill
G0 X101.681 Y103.811 F10800
G1 X101.681 Y94.331 E4.5909 F3044
G0 X104.911 Y94.331 F10800
G1 X104.911 Y103.811 E5.0638 F3044
G0 X109.730 Y99.150 F10800
G1 X100.251 Y99.150 E5.5367 F3044
G0 X100.251 Y102.380 F10800
G1 X109.730 Y102.380 E6.0096 F3044
G0 X108.141 Y103.811 F10800
G1 X108.141 Y94.331 E6.4825 F3044
G0 X109.730 Y95.920 F10800
G1 X100.251 Y95.920 E6.9555 F3044
; ------------------------------------
; Layer #17
; ------------------------------------
G21 ; mm
G90 ; abs
G92 E0 ; reset extr
M106 S255
;segType:Loop
G0 F4800 E-1.0000
G0 F300 Z5.400
G0 X100.051 Y103.567 F10800
G0 F4800 E0.0000
G1 X100.051 Y94.131 E0.4707 F2029
G1 X109.930 Y94.131 E0.9636
G1 X109.930 Y104.010 E1.4565
G1 X100.051 Y104.010 E1.9494
G1 X100.051 Y103.720 E1.9638
;segType:Perimeter
G0 X100.161 Y104.153 F10800
G1 X99.651 Y104.364 E1.9914 F1217
G1 X99.651 Y93.731 E2.5219
G1 X110.330 Y93.731 E3.0547
G1 X110.330 Y104.410 E3.5874
G1 X99.697 Y104.410 E4.1179
G1 X99.909 Y103.900
;segType:Infill
G0 X101.681 Y103.811 F10800
G1 X101.681 Y94.331 E4.5909 F3044
G0 X104.911 Y94.331 F10800
G1 X104.911 Y103.811 E5.0638 F3044
G0 X109.730 Y99.150 F10800
G1 X100.251 Y99.150 E5.5367 F3044
G0 X100.251 Y102.380 F10800
G1 X109.730 Y102.380 E6.0096 F3044
G0 X108.141 Y103.811 F10800
G1 X108.141 Y94.331 E6.4825 F3044
G0 X109.730 Y95.920 F10800
G1 X100.251 Y95.920 E6.9555 F3044
; ------------------------------------
; Layer #18
; ------------------------------------
G21 ; mm
G90 ; abs
G92 E0 ; reset extr
M106 S255
;segType:Loop
G0 F4800 E-1.0000
G0 F300 Z5.700
G0 X100.051 Y103.567 F10800
G0 F4800 E0.0000
G1 X100.051 Y94.131 E0.4707 F2029
G1 X109.930 Y94.131 E0.9636
G1 X109.930 Y104.010 E1.4565
G1 X100.051 Y104.010 E1.9494
G1 X100.051 Y103.720 E1.9638
;segType:Perimeter
G0 X100.161 Y104.153 F10800
G1 X99.651 Y104.364 E1.9914 F1217
G1 X99.651 Y93.731 E2.5219
G1 X110.330 Y93.731 E3.0547
G1 X110.330 Y104.410 E3.5874
G1 X99.697 Y104.410 E4.1179
G1 X99.909 Y103.900
;segType:Infill
G0 X101.681 Y103.811 F10800
G1 X101.681 Y94.331 E4.5909 F3044
G0 X104.911 Y94.331 F10800
G1 X104.911 Y103.811 E5.0638 F3044
G0 X109.730 Y99.150 F10800
G1 X100.251 Y99.150 E5.5367 F3044
G0 X100.251 Y102.380 F10800
G1 X109.730 Y102.380 E6.0096 F3044
G0 X108.141 Y103.811 F10800
G1 X108.141 Y94.331 E6.4825 F3044
G0 X109.730 Y95.920 F10800
G1 X100.251 Y95.920 E6.9555 F3044
; ------------------------------------
; Layer #19
; ------------------------------------
G21 ; mm
G90 ; abs
G92 E0 ; reset extr
M106 S255
;segType:Loop
G0 F4800 E-1.0000
G0 F300 Z6.000
G0 X100.051 Y103.567 F10800
G0 F4800 E0.0000
G1 X100.051 Y94.131 E0.4707 F2029
G1 X109.930 Y94.131 E0.9636
G1 X109.930 Y104.010 E1.4565
G1 X100.051 Y104.010 E1.9494
G1 X100.051 Y103.720 E1.9638
;segType:Perimeter
G0 X100.161 Y104.153 F10800
G1 X99.651 Y104.364 E1.9914 F1217
G1 X99.651 Y93.731 E2.5219
G1 X110.330 Y93.731 E3.0547
G1 X110.330 Y104.410 E3.5874
G1 X99.697 Y104.410 E4.1179
G1 X99.909 Y103.900
;segType:Infill
G0 X101.681 Y103.811 F10800
G1 X101.681 Y94.331 E4.5909 F3044
G0 X104.911 Y94.331 F10800
G1 X104.911 Y103.811 E5.0638 F3044
G0 X109.730 Y99.150 F10800
G1 X100.251 Y99.150 E5.5367 F3044
G0 X100.251 Y102.380 F10800
G1 X109.730 Y102.380 E6.0096 F3044
G0 X108.141 Y103.811 F10800
G1 X108.141 Y94.331 E6.4825 F3044
G0 X109.730 Y95.920 F10800
G1 X100.251 Y95.920 E6.9555 F3044
; ------------------------------------
; Layer #20
; ------------------------------------
G21 ; mm
G90 ; abs
G92 E0 ; reset extr
M106 S255
;segType:Loop
G0 F4800 E-1.0000
G0 F300 Z6.300
G0 X100.051 Y103.567 F10800
G0 F4800 E0.0000
G1 X100.051 Y94.131 E0.4707 F2029
G1 X109.930 Y94.131 E0.9636
G1 X109.930 Y104.010 E1.4565
G1 X100.051 Y104.010 E1.9494
G1 X100.051 Y103.720 E1.9638
;segType:Perimeter
G0 X100.161 Y104.153 F10800
G1 X99.651 Y104.364 E1.9914 F1217
G1 X99.651 Y93.731 E2.5219
G1 X110.330 Y93.731 E3.0547
G1 X110.330 Y104.410 E3.5874
G1 X99.697 Y104.410 E4.1179
G1 X99.909 Y103.900
;segType:Infill
G0 X101.681 Y103.811 F10800
G1 X101.681 Y94.331 E4.5909 F3044
G0 X104.911 Y94.331 F10800
G1 X104.911 Y103.811 E5.0638 F3044
G0 X109.730 Y99.150 F10800
G1 X100.251 Y99.150 E5.5367 F3044
G0 X100.251 Y102.380 F10800
G1 X109.730 Y102.380 E6.0096 F3044
G0 X108.141 Y103.811 F10800
G1 X108.141 Y94.331 E6.4825 F3044
G0 X109.730 Y95.920 F10800
G1 X100.251 Y95.920 E6.9555 F3044
; ------------------------------------
; Layer #21
; ------------------------------------
G21 ; mm
G90 ; abs
G92 E0 ; reset extr
M106 S255
;segType:Loop
G0 F4800 E-1.0000
G0 F300 Z6.600
G0 X100.051 Y103.567 F10800
G0 F4800 E0.0000
G1 X100.051 Y94.131 E0.4707 F2029
G1 X109.930 Y94.131 E0.9636
G1 X109.930 Y104.010 E1.4565
G1 X100.051 Y104.010 E1.9494
G1 X100.051 Y103.720 E1.9638
;segType:Perimeter
G0 X100.161 Y104.153 F10800
G1 X99.651 Y104.364 E1.9914 F1217
G1 X99.651 Y93.731 E2.5219
G1 X110.330 Y93.731 E3.0547
G1 X110.330 Y104.410 E3.5874
G1 X99.697 Y104.410 E4.1179
G1 X99.909 Y103.900
;segType:Infill
G0 X101.681 Y103.811 F10800
G1 X101.681 Y94.331 E4.5909 F3044
G0 X104.911 Y94.331 F10800
G1 X104.911 Y103.811 E5.0638 F3044
G0 X109.730 Y99.150 F10800
G1 X100.251 Y99.150 E5.5367 F3044
G0 X100.251 Y102.380 F10800
G1 X109.730 Y102.380 E6.0096 F3044
G0 X108.141 Y103.811 F10800
G1 X108.141 Y94.331 E6.4825 F3044
G0 X109.730 Y95.920 F10800
G1 X100.251 Y95.920 E6.9555 F3044
; ------------------------------------
; Layer #22
; ------------------------------------
G21 ; mm
G90 ; abs
G92 E0 ; reset extr
M106 S255
;segType:Loop
G0 F4800 E-1.0000
G0 F300 Z6.900
G0 X100.051 Y103.567 F10800
G0 F4800 E0.0000
G1 X100.051 Y94.131 E0.4707 F2029
G1 X109.930 Y94.131 E0.9636
G1 X109.930 Y104.010 E1.4565
G1 X100.051 Y104.010 E1.9494
G1 X100.051 Y103.720 E1.9638
;segType:Perimeter
G0 X100.161 Y104.153 F10800
G1 X99.651 Y104.364 E1.9914 F1217
G1 X99.651 Y93.731 E2.5219
G1 X110.330 Y93.731 E3.0547
G1 X110.330 Y104.410 E3.5874
G1 X99.697 Y104.410 E4.1179
G1 X99.909 Y103.900
;segType:Infill
G0 X101.681 Y103.811 F10800
G1 X101.681 Y94.331 E4.5909 F3044
G0 X104.911 Y94.331 F10800
G1 X104.911 Y103.811 E5.0638 F3044
G0 X109.730 Y99.150 F10800
G1 X100.251 Y99.150 E5.5367 F3044
G0 X100.251 Y102.380 F10800
G1 X109.730 Y102.380 E6.0096 F3044
G0 X108.141 Y103.811 F10800
G1 X108.141 Y94.331 E6.4825 F3044
G0 X109.730 Y95.920 F10800
G1 X100.251 Y95.920 E6.9555 F3044
; ------------------------------------
; Layer #23
; ------------------------------------
G21 ; mm
G90 ; abs
G92 E0 ; reset extr
M106 S255
;segType:Loop
G0 F4800 E-1.0000
G0 F300 Z7.200
G0 X100.051 Y103.567 F10800
G0 F4800 E0.0000
G1 X100.051 Y94.131 E0.4707 F2029
G1 X109.930 Y94.131 E0.9636
G1 X109.930 Y104.010 E1.4565
G1 X100.051 Y104.010 E1.9494
G1 X100.051 Y103.720 E1.9638
;segType:Perimeter
G0 X100.161 Y104.153 F10800
G1 X99.651 Y104.364 E1.9914 F1217
G1 X99.651 Y93.731 E2.5219
G1 X110.330 Y93.731 E3.0547
G1 X110.330 Y104.410 E3.5874
G1 X99.697 Y104.410 E4.1179
G1 X99.909 Y103.900
;segType:Infill
G0 X101.681 Y103.811 F10800
G1 X101.681 Y94.331 E4.5909 F3044
G0 X104.911 Y94.331 F10800
G1 X104.911 Y103.811 E5.0638 F3044
G0 X109.730 Y99.150 F10800
G1 X100.251 Y99.150 E5.5367 F3044
G0 X100.251 Y102.380 F10800
G1 X109.730 Y102.380 E6.0096 F3044
G0 X108.141 Y103.811 F10800
G1 X108.141 Y94.331 E6.4825 F3044
G0 X109.730 Y95.920 F10800
G1 X100.251 Y95.920 E6.9555 F3044
; ------------------------------------
; Layer #24
; ------------------------------------
G21 ; mm
G90 ; abs
G92 E0 ; reset extr
M106 S255
;segType:Loop
G0 F4800 E-1.0000
G0 F300 Z7.500
G0 X100.051 Y103.567 F10800
G0 F4800 E0.0000
G1 X100.051 Y94.131 E0.4707 F2029
G1 X109.930 Y94.131 E0.9636
G1 X109.930 Y104.010 E1.4565
G1 X100.051 Y104.010 E1.9494
G1 X100.051 Y103.720 E1.9638
;segType:Perimeter
G0 X100.161 Y104.153 F10800
G1 X99.651 Y104.364 E1.9914 F1217
G1 X99.651 Y93.731 E2.5219
G1 X110.330 Y93.731 E3.0547
G1 X110.330 Y104.410 E3.5874
G1 X99.697 Y104.410 E4.1179
G1 X99.909 Y103.900
;segType:Infill
G0 X101.681 Y103.811 F10800
G1 X101.681 Y94.331 E4.5909 F3044
G0 X104.911 Y94.331 F10800
G1 X104.911 Y103.811 E5.0638 F3044
G0 X109.730 Y99.150 F10800
G1 X100.251 Y99.150 E5.5367 F3044
G0 X100.251 Y102.380 F10800
G1 X109.730 Y102.380 E6.0096 F3044
G0 X108.141 Y103.811 F10800
G1 X108.141 Y94.331 E6.4825 F3044
G0 X109.730 Y95.920 F10800
G1 X100.251 Y95.920 E6.9555 F3044
; ------------------------------------
; Layer #25
; ------------------------------------
G21 ; mm
G90 ; abs
G92 E0 ; reset extr
M106 S255
;segType:Loop
G0 F4800 E-1.0000
G0 F300 Z7.800
G0 X100.051 Y103.567 F10800
G0 F4800 E0.0000
G1 X100.051 Y94.131 E0.4707 F2029
G1 X109.930 Y94.131 E0.9636
G1 X109.930 Y104.010 E1.4565
G1 X100.051 Y104.010 E1.9494
G1 X100.051 Y103.720 E1.9638
;segType:Perimeter
G0 X100.161 Y104.153 F10800
G1 X99.651 Y104.364 E1.9914 F1217
G1 X99.651 Y93.731 E2.5219
G1 X110.330 Y93.731 E3.0547
G1 X110.330 Y104.410 E3.5874
G1 X99.697 Y104.410 E4.1179
G1 X99.909 Y103.900
;segType:Infill
G0 X101.681 Y103.811 F10800
G1 X101.681 Y94.331 E4.5909 F3044
G0 X104.911 Y94.331 F10800
G1 X104.911 Y103.811 E5.0638 F3044
G0 X109.730 Y99.150 F10800
G1 X100.251 Y99.150 E5.5367 F3044
G0 X100.251 Y102.380 F10800
G1 X109.730 Y102.380 E6.0096 F3044
G0 X108.141 Y103.811 F10800
G1 X108.141 Y94.331 E6.4825 F3044
G0 X109.730 Y95.920 F10800
G1 X100.251 Y95.920 E6.9555 F3044
; ------------------------------------
; Layer #26
; ------------------------------------
G21 ; mm
G90 ; abs
G92 E0 ; reset extr
M106 S255
;segType:Loop
G0 F4800 E-1.0000
G0 F300 Z8.100
G0 X100.051 Y103.567 F10800
G0 F4800 E0.0000
G1 X100.051 Y94.131 E0.4707 F2029
G1 X109.930 Y94.131 E0.9636
G1 X109.930 Y104.010 E1.4565
G1 X100.051 Y104.010 E1.9494
G1 X100.051 Y103.720 E1.9638
;segType:Perimeter
G0 X100.161 Y104.153 F10800
G1 X99.651 Y104.364 E1.9914 F1217
G1 X99.651 Y93.731 E2.5219
G1 X110.330 Y93.731 E3.0547
G1 X110.330 Y104.410 E3.5874
G1 X99.697 Y104.410 E4.1179
G1 X99.909 Y103.900
;segType:Infill
G0 X101.681 Y103.811 F10800
G1 X101.681 Y94.331 E4.5909 F3044
G0 X104.911 Y94.331 F10800
G1 X104.911 Y103.811 E5.0638 F3044
G0 X109.730 Y99.150 F10800
G1 X100.251 Y99.150 E5.5367 F3044
G0 X100.251 Y102.380 F10800
G1 X109.730 Y102.380 E6.0096 F3044
G0 X108.141 Y103.811 F10800
G1 X108.141 Y94.331 E6.4825 F3044
G0 X109.730 Y95.920 F10800
G1 X100.251 Y95.920 E6.9555 F3044
; ------------------------------------
; Layer #27
; ------------------------------------
G21 ; mm
G90 ; abs
G92 E0 ; reset extr
M106 S255
;segType:Loop
G0 F4800 E-1.0000
G0 F300 Z8.400
G0 X100.051 Y103.567 F10800
G0 F4800 E0.0000
G1 X100.051 Y94.131 E0.4707 F2029
G1 X109.930 Y94.131 E0.9636
G1 X109.930 Y104.010 E1.4565
G1 X100.051 Y104.010 E1.9494
G1 X100.051 Y103.720 E1.9638
;segType:Perimeter
G0 X100.161 Y104.153 F10800
G1 X99.651 Y104.364 E1.9914 F1217
G1 X99.651 Y93.731 E2.5219
G1 X110.330 Y93.731 E3.0547
G1 X110.330 Y104.410 E3.5874
G1 X99.697 Y104.410 E4.1179
G1 X99.909 Y103.900
;segType:Infill
G0 X101.681 Y103.811 F10800
G1 X101.681 Y94.331 E4.5909 F3044
G0 X104.911 Y94.331 F10800
G1 X104.911 Y103.811 E5.0638 F3044
G0 X109.730 Y99.150 F10800
G1 X100.251 Y99.150 E5.5367 F3044
G0 X100.251 Y102.380 F10800
G1 X109.730 Y102.380 E6.0096 F3044
G0 X108.141 Y103.811 F10800
G1 X108.141 Y94.331 E6.4825 F3044
G0 X109.730 Y95.920 F10800
G1 X100.251 Y95.920 E6.9555 F3044
; ------------------------------------
; Layer #28
; ------------------------------------
G21 ; mm
G90 ; abs
G92 E0 ; reset extr
M106 S255
;segType:Loop
G0 F4800 E-1.0000
G0 F300 Z8.700
G0 X100.051 Y103.567 F10800
G0 F4800 E0.0000
G1 X100.051 Y94.131 E0.4707 F2029
G1 X109.930 Y94.131 E0.9636
G1 X109.930 Y104.010 E1.4565
G1 X100.051 Y104.010 E1.9494
G1 X100.051 Y103.720 E1.9638
;segType:Perimeter
G0 X100.161 Y104.153 F10800
G1 X99.651 Y104.364 E1.9914 F1217
G1 X99.651 Y93.731 E2.5219
G1 X110.330 Y93.731 E3.0547
G1 X110.330 Y104.410 E3.5874
G1 X99.697 Y104.410 E4.1179
G1 X99.909 Y103.900
;segType:Infill
G0 X101.681 Y103.811 F10800
G1 X101.681 Y94.331 E4.5909 F3044
G0 X104.911 Y94.331 F10800
G1 X104.911 Y103.811 E5.0638 F3044
G0 X109.730 Y99.150 F10800
G1 X100.251 Y99.150 E5.5367 F3044
G0 X100.251 Y102.380 F10800
G1 X109.730 Y102.380 E6.0096 F3044
G0 X108.141 Y103.811 F10800
G1 X108.141 Y94.331 E6.4825 F3044
G0 X109.730 Y95.920 F10800
G1 X100.251 Y95.920 E6.9555 F3044
; ------------------------------------
; Layer #29
; ------------------------------------
G21 ; mm
G90 ; abs
G92 E0 ; reset extr
M106 S255
;segType:Loop
G0 F4800 E-1.0000
G0 F300 Z9.000
G0 X100.051 Y103.567 F10800
G0 F4800 E0.0000
G1 X100.051 Y94.131 E0.4707 F2029
G1 X109.930 Y94.131 E0.9636
G1 X109.930 Y104.010 E1.4565
G1 X100.051 Y104.010 E1.9494
G1 X100.051 Y103.720 E1.9638
;segType:Perimeter
G0 X100.161 Y104.153 F10800
G1 X99.651 Y104.364 E1.9914 F1217
G1 X99.651 Y93.731 E2.5219
G1 X110.330 Y93.731 E3.0547
G1 X110.330 Y104.410 E3.5874
G1 X99.697 Y104.410 E4.1179
G1 X99.909 Y103.900
;segType:Infill
G0 X101.681 Y103.811 F10800
G1 X101.681 Y94.331 E4.5909 F3044
G0 X104.911 Y94.331 F10800
G1 X104.911 Y103.811 E5.0638 F3044
G0 X109.730 Y99.150 F10800
G1 X100.251 Y99.150 E5.5367 F3044
G0 X100.251 Y102.380 F10800
G1 X109.730 Y102.380 E6.0096 F3044
G0 X108.141 Y103.811 F10800
G1 X108.141 Y94.331 E6.4825 F3044
G0 X109.730 Y95.920 F10800
G1 X100.251 Y95.920 E6.9555 F3044
; ------------------------------------
; Layer #30
; ------------------------------------
G21 ; mm
G90 ; abs
G92 E0 ; reset extr
M106 S255
;segType:Loop
G0 F4800 E-1.0000
G0 F300 Z9.300
G0 X100.051 Y103.567 F10800
G0 F4800 E0.0000
G1 X100.051 Y94.131 E0.4707 F2029
G1 X109.930 Y94.131 E0.9636
G1 X109.930 Y104.010 E1.4565
G1 X100.051 Y104.010 E1.9494
G1 X100.051 Y103.720 E1.9638
;segType:Perimeter
G0 X100.161 Y104.153 F10800
G1 X99.651 Y104.364 E1.9914 F1217
G1 X99.651 Y93.731 E2.5219
G1 X110.330 Y93.731 E3.0547
G1 X110.330 Y104.410 E3.5874
G1 X99.697 Y104.410 E4.1179
G1 X99.909 Y103.900
;segType:Infill
G0 X101.681 Y103.811 F10800
G1 X101.681 Y94.331 E4.5909 F3044
G0 X104.911 Y94.331 F10800
G1 X104.911 Y103.811 E5.0638 F3044
G0 X109.730 Y99.150 F10800
G1 X100.251 Y99.150 E5.5367 F3044
G0 X100.251 Y102.380 F10800
G1 X109.730 Y102.380 E6.0096 F3044
G0 X108.141 Y103.811 F10800
G1 X108.141 Y94.331 E6.4825 F3044
G0 X109.730 Y95.920 F10800
G1 X100.251 Y95.920 E6.9555 F3044
; ------------------------------------
; Layer #31
; ------------------------------------
G21 ; mm
G90 ; abs
G92 E0 ; reset extr
M106 S255
;segType:Loop
G0 F4800 E-1.0000
G0 F300 Z9.600
G0 X100.051 Y103.567 F10800
G0 F4800 E0.0000
G1 X100.051 Y94.131 E0.4707 F2029
G1 X109.930 Y94.131 E0.9636
G1 X109.930 Y104.010 E1.4565
G1 X100.051 Y104.010 E1.9494
G1 X100.051 Y103.720 E1.9638
;segType:Perimeter
G0 X100.161 Y104.153 F10800
G1 X99.651 Y104.364 E1.9914 F1217
G1 X99.651 Y93.731 E2.5219
G1 X110.330 Y93.731 E3.0547
G1 X110.330 Y104.410 E3.5874
G1 X99.697 Y104.410 E4.1179
G1 X99.909 Y103.900
;segType:Infill
G0 X101.681 Y103.811 F10800
G1 X101.681 Y94.331 E4.5909 F3044
G0 X104.911 Y94.331 F10800
G1 X104.911 Y103.811 E5.0638 F3044
G0 X109.730 Y99.150 F10800
G1 X100.251 Y99.150 E5.5367 F3044
G0 X100.251 Y102.380 F10800
G1 X109.730 Y102.380 E6.0096 F3044
G0 X108.141 Y103.811 F10800
G1 X108.141 Y94.331 E6.4825 F3044
G0 X109.730 Y95.920 F10800
G1 X100.251 Y95.920 E6.9555 F3044
; ------------------------------------
; Layer #32
; ------------------------------------
G21 ; mm
G90 ; abs
G92 E0 ; reset extr
M106 S255
;segType:Loop
G0 F4800 E-1.0000
G0 F300 Z9.900
G0 X100.051 Y103.567 F10800
G0 F4800 E0.0000
G1 X100.051 Y94.131 E0.4707 F2029
G1 X109.930 Y94.131 E0.9636
G1 X109.930 Y104.010 E1.4565
G1 X100.051 Y104.010 E1.9494
G1 X100.051 Y103.720 E1.9638
;segType:Perimeter
G0 X100.161 Y104.153 F10800
G1 X99.651 Y104.364 E1.9914 F1217
G1 X99.651 Y93.731 E2.5219
G1 X110.330 Y93.731 E3.0547
G1 X110.330 Y104.410 E3.5874
G1 X99.697 Y104.410 E4.1179
G1 X99.909 Y103.900
;segType:Infill
G0 X101.681 Y103.811 F10800
G1 X101.681 Y94.331 E4.5909 F3044
G0 X104.911 Y94.331 F10800
G1 X104.911 Y103.811 E5.0638 F3044
G0 X109.730 Y99.150 F10800
G1 X100.251 Y99.150 E5.5367 F3044
G0 X100.251 Y102.380 F10800
G1 X109.730 Y102.380 E6.0096 F3044
G0 X108.141 Y103.811 F10800
G1 X108.141 Y94.331 E6.4825 F3044
G0 X109.730 Y95.920 F10800
G1 X100.251 Y95.920 E6.9555 F3044
; ------------------------------------
; Layer #33
; ------------------------------------
G21 ; mm
G90 ; abs
G92 E0 ; reset extr
M106 S255
;segType:Loop
G0 F4800 E-1.0000
G0 F300 Z10.200
G0 X100.051 Y103.567 F10800
G0 F4800 E0.0000
G1 X100.051 Y94.131 E0.4707 F2029
G1 X109.930 Y94.131 E0.9636
G1 X109.930 Y104.010 E1.4565
G1 X100.051 Y104.010 E1.9494
G1 X100.051 Y103.720 E1.9638
;segType:Perimeter
G0 X100.161 Y104.153 F10800
G1 X99.651 Y104.364 E1.9914 F1217
G1 X99.651 Y93.731 E2.5219
G1 X110.330 Y93.731 E3.0547
G1 X110.330 Y104.410 E3.5874
G1 X99.697 Y104.410 E4.1179
G1 X99.909 Y103.900
;segType:Infill
G0 X101.681 Y103.811 F10800
G1 X101.681 Y94.331 E4.5909 F3044
G0 X104.911 Y94.331 F10800
G1 X104.911 Y103.811 E5.0638 F3044
G0 X109.730 Y99.150 F10800
G1 X100.251 Y99.150 E5.5367 F3044
G0 X100.251 Y102.380 F10800
G1 X109.730 Y102.380 E6.0096 F3044
G0 X108.141 Y103.811 F10800
G1 X108.141 Y94.331 E6.4825 F3044
G0 X109.730 Y95.920 F10800
G1 X100.251 Y95.920 E6.9555 F3044
; ------------------------------------
; Layer #34
; ------------------------------------
G21 ; mm
G90 ; abs
G92 E0 ; reset extr
M106 S255
;segType:Loop
G0 F4800 E-1.0000
G0 F300 Z10.500
G0 X100.051 Y103.567 F10800
G0 F4800 E0.0000
G1 X100.051 Y94.131 E0.4707 F2029
G1 X109.930 Y94.131 E0.9636
G1 X109.930 Y104.010 E1.4565
G1 X100.051 Y104.010 E1.9494
G1 X100.051 Y103.720 E1.9638
;segType:Perimeter
G0 X100.161 Y104.153 F10800
G1 X99.651 Y104.364 E1.9914 F1217
G1 X99.651 Y93.731 E2.5219
G1 X110.330 Y93.731 E3.0547
G1 X110.330 Y104.410 E3.5874
G1 X99.697 Y104.410 E4.1179
G1 X99.909 Y103.900
;segType:Infill
G0 X101.681 Y103.811 F10800
G1 X101.681 Y94.331 E4.5909 F3044
G0 X104.911 Y94.331 F10800
G1 X104.911 Y103.811 E5.0638 F3044
G0 X109.730 Y99.150 F10800
G1 X100.251 Y99.150 E5.5367 F3044
G0 X100.251 Y102.380 F10800
G1 X109.730 Y102.380 E6.0096 F3044
G0 X108.141 Y103.811 F10800
G1 X108.141 Y94.331 E6.4825 F3044
G0 X109.730 Y95.920 F10800
G1 X100.251 Y95.920 E6.9555 F3044
; ------------------------------------
; Layer #35
; ------------------------------------
G21 ; mm
G90 ; abs
G92 E0 ; reset extr
M106 S255
;segType:Loop
G0 F4800 E-1.0000
G0 F300 Z10.800
G0 X100.051 Y103.567 F10800
G0 F4800 E0.0000
G1 X100.051 Y94.131 E0.4707 F2029
G1 X109.930 Y94.131 E0.9636
G1 X109.930 Y104.010 E1.4565
G1 X100.051 Y104.010 E1.9494
G1 X100.051 Y103.720 E1.9638
;segType:Perimeter
G0 X100.161 Y104.153 F10800
G1 X99.651 Y104.364 E1.9914 F1217
G1 X99.651 Y93.731 E2.5219
G1 X110.330 Y93.731 E3.0547
G1 X110.330 Y104.410 E3.5874
G1 X99.697 Y104.410 E4.1179
G1 X99.909 Y103.900
;segType:Infill
G0 X101.681 Y103.811 F10800
G1 X101.681 Y94.331 E4.5909 F3044
G0 X104.911 Y94.331 F10800
G1 X104.911 Y103.811 E5.0638 F3044
G0 X109.730 Y99.150 F10800
G1 X100.251 Y99.150 E5.5367 F3044
G0 X100.251 Y102.380 F10800
G1 X109.730 Y102.380 E6.0096 F3044
G0 X108.141 Y103.811 F10800
G1 X108.141 Y94.331 E6.4825 F3044
G0 X109.730 Y95.920 F10800
G1 X100.251 Y95.920 E6.9555 F3044
; ------------------------------------
; Layer #36
; ------------------------------------
G21 ; mm
G90 ; abs
G92 E0 ; reset extr
M106 S255
;segType:Loop
G0 F4800 E-1.0000
G0 F300 Z11.100
G0 X100.051 Y103.567 F10800
G0 F4800 E0.0000
G1 X100.051 Y94.131 E0.4707 F2029
G1 X109.930 Y94.131 E0.9636
G1 X109.930 Y104.010 E1.4565
G1 X100.051 Y104.010 E1.9494
G1 X100.051 Y103.720 E1.9638
;segType:Perimeter
G0 X100.161 Y104.153 F10800
G1 X99.651 Y104.364 E1.9914 F1217
G1 X99.651 Y93.731 E2.5219
G1 X110.330 Y93.731 E3.0547
G1 X110.330 Y104.410 E3.5874
G1 X99.697 Y104.410 E4.1179
G1 X99.909 Y103.900
;segType:Infill
G0 X101.681 Y103.811 F10800
G1 X101.681 Y94.331 E4.5909 F3044
G0 X104.911 Y94.331 F10800
G1 X104.911 Y103.811 E5.0638 F3044
G0 X109.730 Y99.150 F10800
G1 X100.251 Y99.150 E5.5367 F3044
G0 X100.251 Y102.380 F10800
G1 X109.730 Y102.380 E6.0096 F3044
G0 X108.141 Y103.811 F10800
G1 X108.141 Y94.331 E6.4825 F3044
G0 X109.730 Y95.920 F10800
G1 X100.251 Y95.920 E6.9555 F3044
; ------------------------------------
; Layer #37
; ------------------------------------
G21 ; mm
G90 ; abs
G92 E0 ; reset extr
M106 S255
;segType:Loop
G0 F4800 E-1.0000
G0 F300 Z11.400
G0 X100.051 Y103.567 F10800
G0 F4800 E0.0000
G1 X100.051 Y94.131 E0.4707 F2029
G1 X109.930 Y94.131 E0.9636
G1 X109.930 Y104.010 E1.4565
G1 X100.051 Y104.010 E1.9494
G1 X100.051 Y103.720 E1.9638
;segType:Perimeter
G0 X100.161 Y104.153 F10800
G1 X99.651 Y104.364 E1.9914 F1217
G1 X99.651 Y93.731 E2.5219
G1 X110.330 Y93.731 E3.0547
G1 X110.330 Y104.410 E3.5874
G1 X99.697 Y104.410 E4.1179
G1 X99.909 Y103.900
;segType:Infill
G0 X101.681 Y103.811 F10800
G1 X101.681 Y94.331 E4.5909 F3044
G0 X104.911 Y94.331 F10800
G1 X104.911 Y103.811 E5.0638 F3044
G0 X109.730 Y99.150 F10800
G1 X100.251 Y99.150 E5.5367 F3044
G0 X100.251 Y102.380 F10800
G1 X109.730 Y102.380 E6.0096 F3044
G0 X108.141 Y103.811 F10800
G1 X108.141 Y94.331 E6.4825 F3044
G0 X109.730 Y95.920 F10800
G1 X100.251 Y95.920 E6.9555 F3044
; ------------------------------------
; Layer #38
; ------------------------------------
G21 ; mm
G90 ; abs
G92 E0 ; reset extr
M106 S255
;segType:Loop
G0 F4800 E-1.0000
G0 F300 Z11.700
G0 X100.051 Y103.567 F10800
G0 F4800 E0.0000
G1 X100.051 Y94.131 E0.4707 F2029
G1 X109.930 Y94.131 E0.9636
G1 X109.930 Y104.010 E1.4565
G1 X100.051 Y104.010 E1.9494
G1 X100.051 Y103.720 E1.9638
;segType:Perimeter
G0 X100.161 Y104.153 F10800
G1 X99.651 Y104.364 E1.9914 F1217
G1 X99.651 Y93.731 E2.5219
G1 X110.330 Y93.731 E3.0547
G1 X110.330 Y104.410 E3.5874
G1 X99.697 Y104.410 E4.1179
G1 X99.909 Y103.900
;segType:Infill
G0 X101.681 Y103.811 F10800
G1 X101.681 Y94.331 E4.5909 F3044
G0 X104.911 Y94.331 F10800
G1 X104.911 Y103.811 E5.0638 F3044
G0 X109.730 Y99.150 F10800
G1 X100.251 Y99.150 E5.5367 F3044
G0 X100.251 Y102.380 F10800
G1 X109.730 Y102.380 E6.0096 F3044
G0 X108.141 Y103.811 F10800
G1 X108.141 Y94.331 E6.4825 F3044
G0 X109.730 Y95.920 F10800
G1 X100.251 Y95.920 E6.9555 F3044
; ------------------------------------
; Layer #39
; ------------------------------------
G21 ; mm
G90 ; abs
G92 E0 ; reset extr
M106 S255
;segType:Loop
G0 F4800 E-1.0000
G0 F300 Z12.000
G0 X100.051 Y103.567 F10800
G0 F4800 E0.0000
G1 X100.051 Y94.131 E0.4707 F2029
G1 X109.930 Y94.131 E0.9636
G1 X109.930 Y104.010 E1.4565
G1 X100.051 Y104.010 E1.9494
G1 X100.051 Y103.720 E1.9638
;segType:Perimeter
G0 X100.161 Y104.153 F10800
G1 X99.651 Y104.364 E1.9914 F1217
G1 X99.651 Y93.731 E2.5219
G1 X110.330 Y93.731 E3.0547
G1 X110.330 Y104.410 E3.5874
G1 X99.697 Y104.410 E4.1179
G1 X99.909 Y103.900
;segType:Infill
G0 X101.681 Y103.811 F10800
G1 X101.681 Y94.331 E4.5909 F3044
G0 X104.911 Y94.331 F10800
G1 X104.911 Y103.811 E5.0638 F3044
G0 X109.730 Y99.150 F10800
G1 X100.251 Y99.150 E5.5367 F3044
G0 X100.251 Y102.380 F10800
G1 X109.730 Y102.380 E6.0096 F3044
G0 X108.141 Y103.811 F10800
G1 X108.141 Y94.331 E6.4825 F3044
G0 X109.730 Y95.920 F10800
G1 X100.251 Y95.920 E6.9555 F3044
; ------------------------------------
; Layer #40
; ------------------------------------
G21 ; mm
G90 ; abs
G92 E0 ; reset extr
M106 S255
;segType:Loop
G0 F4800 E-1.0000
G0 F300 Z12.300
G0 X100.051 Y103.567 F10800
G0 F4800 E0.0000
G1 X100.051 Y94.131 E0.4707 F2029
G1 X109.930 Y94.131 E0.9636
G1 X109.930 Y104.010 E1.4565
G1 X100.051 Y104.010 E1.9494
G1 X100.051 Y103.720 E1.9638
;segType:Perimeter
G0 X100.161 Y104.153 F10800
G1 X99.651 Y104.364 E1.9914 F1217
G1 X99.651 Y93.731 E2.5219
G1 X110.330 Y93.731 E3.0547
G1 X110.330 Y104.410 E3.5874
G1 X99.697 Y104.410 E4.1179
G1 X99.909 Y103.900
;segType:Infill
G0 X101.681 Y103.811 F10800
G1 X101.681 Y94.331 E4.5909 F3044
G0 X104.911 Y94.331 F10800
G1 X104.911 Y103.811 E5.0638 F3044
G0 X109.730 Y99.150 F10800
G1 X100.251 Y99.150 E5.5367 F3044
G0 X100.251 Y102.380 F10800
G1 X109.730 Y102.380 E6.0096 F3044
G0 X108.141 Y103.811 F10800
G1 X108.141 Y94.331 E6.4825 F3044
G0 X109.730 Y95.920 F10800
G1 X100.251 Y95.920 E6.9555 F3044
; ------------------------------------
; Layer #41
; ------------------------------------
G21 ; mm
G90 ; abs
G92 E0 ; reset extr
M106 S255
;segType:Loop
G0 F4800 E-1.0000
G0 F300 Z12.600
G0 X100.051 Y103.567 F10800
G0 F4800 E0.0000
G1 X100.051 Y94.131 E0.4707 F2029
G1 X109.930 Y94.131 E0.9636
G1 X109.930 Y104.010 E1.4565
G1 X100.051 Y104.010 E1.9494
G1 X100.051 Y103.720 E1.9638
;segType:Perimeter
G0 X100.161 Y104.153 F10800
G1 X99.651 Y104.364 E1.9914 F1217
G1 X99.651 Y93.731 E2.5219
G1 X110.330 Y93.731 E3.0547
G1 X110.330 Y104.410 E3.5874
G1 X99.697 Y104.410 E4.1179
G1 X99.909 Y103.900
;segType:Infill
G0 X101.681 Y103.811 F10800
G1 X101.681 Y94.331 E4.5909 F3044
G0 X104.911 Y94.331 F10800
G1 X104.911 Y103.811 E5.0638 F3044
G0 X109.730 Y99.150 F10800
G1 X100.251 Y99.150 E5.5367 F3044
G0 X100.251 Y102.380 F10800
G1 X109.730 Y102.380 E6.0096 F3044
G0 X108.141 Y103.811 F10800
G1 X108.141 Y94.331 E6.4825 F3044
G0 X109.730 Y95.920 F10800
G1 X100.251 Y95.920 E6.9555 F3044
; ------------------------------------
; Layer #42
; ------------------------------------
G21 ; mm
G90 ; abs
G92 E0 ; reset extr
M106 S255
;segType:Loop
G0 F4800 E-1.0000
G0 F300 Z12.900
G0 X100.051 Y103.567 F10800
G0 F4800 E0.0000
G1 X100.051 Y94.131 E0.4707 F2029
G1 X109.930 Y94.131 E0.9636
G1 X109.930 Y104.010 E1.4565
G1 X100.051 Y104.010 E1.9494
G1 X100.051 Y103.720 E1.9638
;segType:Perimeter
G0 X100.161 Y104.153 F10800
G1 X99.651 Y104.364 E1.9914 F1217
G1 X99.651 Y93.731 E2.5219
G1 X110.330 Y93.731 E3.0547
G1 X110.330 Y104.410 E3.5874
G1 X99.697 Y104.410 E4.1179
G1 X99.909 Y103.900
;segType:Infill
G0 X101.681 Y103.811 F10800
G1 X101.681 Y94.331 E4.5909 F3044
G0 X104.911 Y94.331 F10800
G1 X104.911 Y103.811 E5.0638 F3044
G0 X109.730 Y99.150 F10800
G1 X100.251 Y99.150 E5.5367 F3044
G0 X100.251 Y102.380 F10800
G1 X109.730 Y102.380 E6.0096 F3044
G0 X108.141 Y103.811 F10800
G1 X108.141 Y94.331 E6.4825 F3044
G0 X109.730 Y95.920 F10800
G1 X100.251 Y95.920 E6.9555 F3044
; ------------------------------------
; Layer #43
; ------------------------------------
G21 ; mm
G90 ; abs
G92 E0 ; reset extr
M106 S255
;segType:Loop
G0 F4800 E-1.0000
G0 F300 Z13.200
G0 X100.051 Y103.567 F10800
G0 F4800 E0.0000
G1 X100.051 Y94.131 E0.4707 F2029
G1 X109.930 Y94.131 E0.9636
G1 X109.930 Y104.010 E1.4565
G1 X100.051 Y104.010 E1.9494
G1 X100.051 Y103.720 E1.9638
;segType:Perimeter
G0 X100.161 Y104.153 F10800
G1 X99.651 Y104.364 E1.9914 F1217
G1 X99.651 Y93.731 E2.5219
G1 X110.330 Y93.731 E3.0547
G1 X110.330 Y104.410 E3.5874
G1 X99.697 Y104.410 E4.1179
G1 X99.909 Y103.900
;segType:Infill
G0 X101.681 Y103.811 F10800
G1 X101.681 Y94.331 E4.5909 F3044
G0 X104.911 Y94.331 F10800
G1 X104.911 Y103.811 E5.0638 F3044
G0 X109.730 Y99.150 F10800
G1 X100.251 Y99.150 E5.5367 F3044
G0 X100.251 Y102.380 F10800
G1 X109.730 Y102.380 E6.0096 F3044
G0 X108.141 Y103.811 F10800
G1 X108.141 Y94.331 E6.4825 F3044
G0 X109.730 Y95.920 F10800
G1 X100.251 Y95.920 E6.9555 F3044
; ------------------------------------
; Layer #44
; ------------------------------------
G21 ; mm
G90 ; abs
G92 E0 ; reset extr
M106 S255
;segType:Loop
G0 F4800 E-1.0000
G0 F300 Z13.500
G0 X100.051 Y103.567 F10800
G0 F4800 E0.0000
G1 X100.051 Y94.131 E0.4707 F2029
G1 X109.930 Y94.131 E0.9636
G1 X109.930 Y104.010 E1.4565
G1 X100.051 Y104.010 E1.9494
G1 X100.051 Y103.720 E1.9638
;segType:Perimeter
G0 X100.161 Y104.153 F10800
G1 X99.651 Y104.364 E1.9914 F1217
G1 X99.651 Y93.731 E2.5219
G1 X110.330 Y93.731 E3.0547
G1 X110.330 Y104.410 E3.5874
G1 X99.697 Y104.410 E4.1179
G1 X99.909 Y103.900
;segType:Infill
G0 X101.681 Y103.811 F10800
G1 X101.681 Y94.331 E4.5909 F3044
G0 X104.911 Y94.331 F10800
G1 X104.911 Y103.811 E5.0638 F3044
G0 X109.730 Y99.150 F10800
G1 X100.251 Y99.150 E5.5367 F3044
G0 X100.251 Y102.380 F10800
G1 X109.730 Y102.380 E6.0096 F3044
G0 X108.141 Y103.811 F10800
G1 X108.141 Y94.331 E6.4825 F3044
G0 X109.730 Y95.920 F10800
G1 X100.251 Y95.920 E6.9555 F3044
; ------------------------------------
; Layer #45
; ------------------------------------
G21 ; mm
G90 ; abs
G92 E0 ; reset extr
M106 S255
;segType:Loop
G0 F4800 E-1.0000
G0 F300 Z13.800
G0 X100.051 Y103.567 F10800
G0 F4800 E0.0000
G1 X100.051 Y94.131 E0.4707 F2029
G1 X109.930 Y94.131 E0.9636
G1 X109.930 Y104.010 E1.4565
G1 X100.051 Y104.010 E1.9494
G1 X100.051 Y103.720 E1.9638
;segType:Perimeter
G0 X100.161 Y104.153 F10800
G1 X99.651 Y104.364 E1.9914 F1217
G1 X99.651 Y93.731 E2.5219
G1 X110.330 Y93.731 E3.0547
G1 X110.330 Y104.410 E3.5874
G1 X99.697 Y104.410 E4.1179
G1 X99.909 Y103.900
;segType:Infill
G0 X101.681 Y103.811 F10800
G1 X101.681 Y94.331 E4.5909 F3044
G0 X104.911 Y94.331 F10800
G1 X104.911 Y103.811 E5.0638 F3044
G0 X109.730 Y99.150 F10800
G1 X100.251 Y99.150 E5.5367 F3044
G0 X100.251 Y102.380 F10800
G1 X109.730 Y102.380 E6.0096 F3044
G0 X108.141 Y103.811 F10800
G1 X108.141 Y94.331 E6.4825 F3044
G0 X109.730 Y95.920 F10800
G1 X100.251 Y95.920 E6.9555 F3044
; ------------------------------------
; Layer #46
; ------------------------------------
G21 ; mm
G90 ; abs
G92 E0 ; reset extr
M106 S255
;segType:Loop
G0 F4800 E-1.0000
G0 F300 Z14.100
G0 X100.051 Y103.567 F10800
G0 F4800 E0.0000
G1 X100.051 Y94.131 E0.4707 F2029
G1 X109.930 Y94.131 E0.9636
G1 X109.930 Y104.010 E1.4565
G1 X100.051 Y104.010 E1.9494
G1 X100.051 Y103.720 E1.9638
;segType:Perimeter
G0 X100.161 Y104.153 F10800
G1 X99.651 Y104.364 E1.9914 F1217
G1 X99.651 Y93.731 E2.5219
G1 X110.330 Y93.731 E3.0547
G1 X110.330 Y104.410 E3.5874
G1 X99.697 Y104.410 E4.1179
G1 X99.909 Y103.900
;segType:Infill
G0 X101.681 Y103.811 F10800
G1 X101.681 Y94.331 E4.5909 F3044
G0 X104.911 Y94.331 F10800
G1 X104.911 Y103.811 E5.0638 F3044
G0 X109.730 Y99.150 F10800
G1 X100.251 Y99.150 E5.5367 F3044
G0 X100.251 Y102.380 F10800
G1 X109.730 Y102.380 E6.0096 F3044
G0 X108.141 Y103.811 F10800
G1 X108.141 Y94.331 E6.4825 F3044
G0 X109.730 Y95.920 F10800
G1 X100.251 Y95.920 E6.9555 F3044
; ------------------------------------
; Layer #47
; ------------------------------------
G21 ; mm
G90 ; abs
G92 E0 ; reset extr
M106 S255
;segType:Loop
G0 F4800 E-1.0000
G0 F300 Z14.400
G0 X100.051 Y103.567 F10800
G0 F4800 E0.0000
G1 X100.051 Y94.131 E0.4707 F2029
G1 X109.930 Y94.131 E0.9636
G1 X109.930 Y104.010 E1.4565
G1 X100.051 Y104.010 E1.9494
G1 X100.051 Y103.720 E1.9638
;segType:Perimeter
G0 X100.161 Y104.153 F10800
G1 X99.651 Y104.364 E1.9914 F1217
G1 X99.651 Y93.731 E2.5219
G1 X110.330 Y93.731 E3.0547
G1 X110.330 Y104.410 E3.5874
G1 X99.697 Y104.410 E4.1179
G1 X99.909 Y103.900
;segType:Infill
G0 X101.681 Y103.811 F10800
G1 X101.681 Y94.331 E4.5909 F3044
G0 X104.911 Y94.331 F10800
G1 X104.911 Y103.811 E5.0638 F3044
G0 X109.730 Y99.150 F10800
G1 X100.251 Y99.150 E5.5367 F3044
G0 X100.251 Y102.380 F10800
G1 X109.730 Y102.380 E6.0096 F3044
G0 X108.141 Y103.811 F10800
G1 X108.141 Y94.331 E6.4825 F3044
G0 X109.730 Y95.920 F10800
G1 X100.251 Y95.920 E6.9555 F3044
; ------------------------------------
; Layer #48
; ------------------------------------
G21 ; mm
G90 ; abs
G92 E0 ; reset extr
M106 S255
;segType:Loop
G0 F4800 E-1.0000
G0 F300 Z14.700
G0 X100.051 Y103.567 F10800
G0 F4800 E0.0000
G1 X100.051 Y94.131 E0.4707 F2029
G1 X109.930 Y94.131 E0.9636
G1 X109.930 Y104.010 E1.4565
G1 X100.051 Y104.010 E1.9494
G1 X100.051 Y103.720 E1.9638
;segType:Perimeter
G0 X100.161 Y104.153 F10800
G1 X99.651 Y104.364 E1.9914 F1217
G1 X99.651 Y93.731 E2.5219
G1 X110.330 Y93.731 E3.0547
G1 X110.330 Y104.410 E3.5874
G1 X99.697 Y104.410 E4.1179
G1 X99.909 Y103.900
;segType:Infill
G0 X101.681 Y103.811 F10800
G1 X101.681 Y94.331 E4.5909 F3044
G0 X104.911 Y94.331 F10800
G1 X104.911 Y103.811 E5.0638 F3044
G0 X109.730 Y99.150 F10800
G1 X100.251 Y99.150 E5.5367 F3044
G0 X100.251 Y102.380 F10800
G1 X109.730 Y102.380 E6.0096 F3044
G0 X108.141 Y103.811 F10800
G1 X108.141 Y94.331 E6.4825 F3044
G0 X109.730 Y95.920 F10800
G1 X100.251 Y95.920 E6.9555 F3044
; ------------------------------------
; Layer #49
; ------------------------------------
G21 ; mm
G90 ; abs
G92 E0 ; reset extr
M106 S255
;segType:Loop
G0 F4800 E-1.0000
G0 F300 Z15.000
G0 X100.051 Y103.567 F10800
G0 F4800 E0.0000
G1 X100.051 Y94.131 E0.4707 F2029
G1 X109.930 Y94.131 E0.9636
G1 X109.930 Y104.010 E1.4565
G1 X100.051 Y104.010 E1.9494
G1 X100.051 Y103.720 E1.9638
;segType:Perimeter
G0 X100.161 Y104.153 F10800
G1 X99.651 Y104.364 E1.9914 F1217
G1 X99.651 Y93.731 E2.5219
G1 X110.330 Y93.731 E3.0547
G1 X110.330 Y104.410 E3.5874
G1 X99.697 Y104.410 E4.1179
G1 X99.909 Y103.900
;segType:Infill
G0 X101.681 Y103.811 F10800
G1 X101.681 Y94.331 E4.5909 F3044
G0 X104.911 Y94.331 F10800
G1 X104.911 Y103.811 E5.0638 F3044
G0 X109.730 Y99.150 F10800
G1 X100.251 Y99.150 E5.5367 F3044
G0 X100.251 Y102.380 F10800
G1 X109.730 Y102.380 E6.0096 F3044
G0 X108.141 Y103.811 F10800
G1 X108.141 Y94.331 E6.4825 F3044
G0 X109.730 Y95.920 F10800
G1 X100.251 Y95.920 E6.9555 F3044
; ------------------------------------
; Layer #50
; ------------------------------------
G21 ; mm
G90 ; abs
G92 E0 ; reset extr
M106 S255
;segType:Loop
G0 F4800 E-1.0000
G0 F300 Z15.300
G0 X100.051 Y103.567 F10800
G0 F4800 E0.0000
G1 X100.051 Y94.131 E0.4707 F2029
G1 X109.930 Y94.131 E0.9636
G1 X109.930 Y104.010 E1.4565
G1 X100.051 Y104.010 E1.9494
G1 X100.051 Y103.720 E1.9638
;segType:Perimeter
G0 X100.161 Y104.153 F10800
G1 X99.651 Y104.364 E1.9914 F1217
G1 X99.651 Y93.731 E2.5219
G1 X110.330 Y93.731 E3.0547
G1 X110.330 Y104.410 E3.5874
G1 X99.697 Y104.410 E4.1179
G1 X99.909 Y103.900
;segType:Infill
G0 X101.681 Y103.811 F10800
G1 X101.681 Y94.331 E4.5909 F3044
G0 X104.911 Y94.331 F10800
G1 X104.911 Y103.811 E5.0638 F3044
G0 X109.730 Y99.150 F10800
G1 X100.251 Y99.150 E5.5367 F3044
G0 X100.251 Y102.380 F10800
G1 X109.730 Y102.380 E6.0096 F3044
G0 X108.141 Y103.811 F10800
G1 X108.141 Y94.331 E6.4825 F3044
G0 X109.730 Y95.920 F10800
G1 X100.251 Y95.920 E6.9555 F3044
; ------------------------------------
; Layer #51
; ------------------------------------
G21 ; mm
G90 ; abs
G92 E0 ; reset extr
M106 S255
;segType:Loop
G0 F4800 E-1.0000
G0 F300 Z15.600
G0 X100.051 Y103.567 F10800
G0 F4800 E0.0000
G1 X100.051 Y94.131 E0.4707 F2029
G1 X109.930 Y94.131 E0.9636
G1 X109.930 Y104.010 E1.4565
G1 X100.051 Y104.010 E1.9494
G1 X100.051 Y103.720 E1.9638
;segType:Perimeter
G0 X100.161 Y104.153 F10800
G1 X99.651 Y104.364 E1.9914 F1217
G1 X99.651 Y93.731 E2.5219
G1 X110.330 Y93.731 E3.0547
G1 X110.330 Y104.410 E3.5874
G1 X99.697 Y104.410 E4.1179
G1 X99.909 Y103.900
;segType:Infill
G0 X101.681 Y103.811 F10800
G1 X101.681 Y94.331 E4.5909 F3044
G0 X104.911 Y94.331 F10800
G1 X104.911 Y103.811 E5.0638 F3044
G0 X109.730 Y99.150 F10800
G1 X100.251 Y99.150 E5.5367 F3044
G0 X100.251 Y102.380 F10800
G1 X109.730 Y102.380 E6.0096 F3044
G0 X108.141 Y103.811 F10800
G1 X108.141 Y94.331 E6.4825 F3044
G0 X109.730 Y95.920 F10800
G1 X100.251 Y95.920 E6.9555 F3044
; ------------------------------------
; Layer #52
; ------------------------------------
G21 ; mm
G90 ; abs
G92 E0 ; reset extr
M106 S255
;segType:Loop
G0 F4800 E-1.0000
G0 F300 Z15.900
G0 X100.051 Y103.567 F10800
G0 F4800 E0.0000
G1 X100.051 Y94.131 E0.4707 F2029
G1 X109.930 Y94.131 E0.9636
G1 X109.930 Y104.010 E1.4565
G1 X100.051 Y104.010 E1.9494
G1 X100.051 Y103.720 E1.9638
;segType:Perimeter
G0 X100.161 Y104.153 F10800
G1 X99.651 Y104.364 E1.9914 F1217
G1 X99.651 Y93.731 E2.5219
G1 X110.330 Y93.731 E3.0547
G1 X110.330 Y104.410 E3.5874
G1 X99.697 Y104.410 E4.1179
G1 X99.909 Y103.900
;segType:Infill
G0 X101.681 Y103.811 F10800
G1 X101.681 Y94.331 E4.5909 F3044
G0 X104.911 Y94.331 F10800
G1 X104.911 Y103.811 E5.0638 F3044
G0 X109.730 Y99.150 F10800
G1 X100.251 Y99.150 E5.5367 F3044
G0 X100.251 Y102.380 F10800
G1 X109.730 Y102.380 E6.0096 F3044
G0 X108.141 Y103.811 F10800
G1 X108.141 Y94.331 E6.4825 F3044
G0 X109.730 Y95.920 F10800
G1 X100.251 Y95.920 E6.9555 F3044
; ------------------------------------
; Layer #53
; ------------------------------------
G21 ; mm
G90 ; abs
G92 E0 ; reset extr
M106 S255
;segType:Loop
G0 F4800 E-1.0000
G0 F300 Z16.200
G0 X100.051 Y103.567 F10800
G0 F4800 E0.0000
G1 X100.051 Y94.131 E0.4707 F2029
G1 X109.930 Y94.131 E0.9636
G1 X109.930 Y104.010 E1.4565
G1 X100.051 Y104.010 E1.9494
G1 X100.051 Y103.720 E1.9638
;segType:Perimeter
G0 X100.161 Y104.153 F10800
G1 X99.651 Y104.364 E1.9914 F1217
G1 X99.651 Y93.731 E2.5219
G1 X110.330 Y93.731 E3.0547
G1 X110.330 Y104.410 E3.5874
G1 X99.697 Y104.410 E4.1179
G1 X99.909 Y103.900
;segType:Infill
G0 X101.681 Y103.811 F10800
G1 X101.681 Y94.331 E4.5909 F3044
G0 X104.911 Y94.331 F10800
G1 X104.911 Y103.811 E5.0638 F3044
G0 X109.730 Y99.150 F10800
G1 X100.251 Y99.150 E5.5367 F3044
G0 X100.251 Y102.380 F10800
G1 X109.730 Y102.380 E6.0096 F3044
G0 X108.141 Y103.811 F10800
G1 X108.141 Y94.331 E6.4825 F3044
G0 X109.730 Y95.920 F10800
G1 X100.251 Y95.920 E6.9555 F3044
; ------------------------------------
; Layer #54
; ------------------------------------
G21 ; mm
G90 ; abs
G92 E0 ; reset extr
M106 S255
;segType:Loop
G0 F4800 E-1.0000
G0 F300 Z16.500
G0 X100.051 Y103.567 F10800
G0 F4800 E0.0000
G1 X100.051 Y94.131 E0.4707 F2029
G1 X109.930 Y94.131 E0.9636
G1 X109.930 Y104.010 E1.4565
G1 X100.051 Y104.010 E1.9494
G1 X100.051 Y103.720 E1.9638
;segType:Perimeter
G0 X100.161 Y104.153 F10800
G1 X99.651 Y104.364 E1.9914 F1217
G1 X99.651 Y93.731 E2.5219
G1 X110.330 Y93.731 E3.0547
G1 X110.330 Y104.410 E3.5874
G1 X99.697 Y104.410 E4.1179
G1 X99.909 Y103.900
;segType:Infill
G0 X101.681 Y103.811 F10800
G1 X101.681 Y94.331 E4.5909 F3044
G0 X104.911 Y94.331 F10800
G1 X104.911 Y103.811 E5.0638 F3044
G0 X109.730 Y99.150 F10800
G1 X100.251 Y99.150 E5.5367 F3044
G0 X100.251 Y102.380 F10800
G1 X109.730 Y102.380 E6.0096 F3044
G0 X108.141 Y103.811 F10800
G1 X108.141 Y94.331 E6.4825 F3044
G0 X109.730 Y95.920 F10800
G1 X100.251 Y95.920 E6.9555 F3044
; ------------------------------------
; Layer #55
; ------------------------------------
G21 ; mm
G90 ; abs
G92 E0 ; reset extr
M106 S255
;segType:Loop
G0 F4800 E-1.0000
G0 F300 Z16.800
G0 X100.051 Y103.567 F10800
G0 F4800 E0.0000
G1 X100.051 Y94.131 E0.4707 F2029
G1 X109.930 Y94.131 E0.9636
G1 X109.930 Y104.010 E1.4565
G1 X100.051 Y104.010 E1.9494
G1 X100.051 Y103.720 E1.9638
;segType:Perimeter
G0 X100.161 Y104.153 F10800
G1 X99.651 Y104.364 E1.9914 F1217
G1 X99.651 Y93.731 E2.5219
G1 X110.330 Y93.731 E3.0547
G1 X110.330 Y104.410 E3.5874
G1 X99.697 Y104.410 E4.1179
G1 X99.909 Y103.900
;segType:Infill
G0 X101.681 Y103.811 F10800
G1 X101.681 Y94.331 E4.5909 F3044
G0 X104.911 Y94.331 F10800
G1 X104.911 Y103.811 E5.0638 F3044
G0 X109.730 Y99.150 F10800
G1 X100.251 Y99.150 E5.5367 F3044
G0 X100.251 Y102.380 F10800
G1 X109.730 Y102.380 E6.0096 F3044
G0 X108.141 Y103.811 F10800
G1 X108.141 Y94.331 E6.4825 F3044
G0 X109.730 Y95.920 F10800
G1 X100.251 Y95.920 E6.9555 F3044
; ------------------------------------
; Layer #56
; ------------------------------------
G21 ; mm
G90 ; abs
G92 E0 ; reset extr
M106 S255
;segType:Loop
G0 F4800 E-1.0000
G0 F300 Z17.100
G0 X100.051 Y103.567 F10800
G0 F4800 E0.0000
G1 X100.051 Y94.131 E0.4707 F2029
G1 X109.930 Y94.131 E0.9636
G1 X109.930 Y104.010 E1.4565
G1 X100.051 Y104.010 E1.9494
G1 X100.051 Y103.720 E1.9638
;segType:Perimeter
G0 X100.161 Y104.153 F10800
G1 X99.651 Y104.364 E1.9914 F1217
G1 X99.651 Y93.731 E2.5219
G1 X110.330 Y93.731 E3.0547
G1 X110.330 Y104.410 E3.5874
G1 X99.697 Y104.410 E4.1179
G1 X99.909 Y103.900
;segType:Infill
G0 X101.681 Y103.811 F10800
G1 X101.681 Y94.331 E4.5909 F3044
G0 X104.911 Y94.331 F10800
G1 X104.911 Y103.811 E5.0638 F3044
G0 X109.730 Y99.150 F10800
G1 X100.251 Y99.150 E5.5367 F3044
G0 X100.251 Y102.380 F10800
G1 X109.730 Y102.380 E6.0096 F3044
G0 X108.141 Y103.811 F10800
G1 X108.141 Y94.331 E6.4825 F3044
G0 X109.730 Y95.920 F10800
G1 X100.251 Y95.920 E6.9555 F3044
; ------------------------------------
; Layer #57
; ------------------------------------
G21 ; mm
G90 ; abs
G92 E0 ; reset extr
M106 S255
;segType:Loop
G0 F4800 E-1.0000
G0 F300 Z17.400
G0 X100.051 Y103.567 F10800
G0 F4800 E0.0000
G1 X100.051 Y94.131 E0.4707 F2029
G1 X109.930 Y94.131 E0.9636
G1 X109.930 Y104.010 E1.4565
G1 X100.051 Y104.010 E1.9494
G1 X100.051 Y103.720 E1.9638
;segType:Perimeter
G0 X100.161 Y104.153 F10800
G1 X99.651 Y104.364 E1.9914 F1217
G1 X99.651 Y93.731 E2.5219
G1 X110.330 Y93.731 E3.0547
G1 X110.330 Y104.410 E3.5874
G1 X99.697 Y104.410 E4.1179
G1 X99.909 Y103.900
;segType:Infill
G0 X101.681 Y103.811 F10800
G1 X101.681 Y94.331 E4.5909 F3044
G0 X104.911 Y94.331 F10800
G1 X104.911 Y103.811 E5.0638 F3044
G0 X109.730 Y99.150 F10800
G1 X100.251 Y99.150 E5.5367 F3044
G0 X100.251 Y102.380 F10800
G1 X109.730 Y102.380 E6.0096 F3044
G0 X108.141 Y103.811 F10800
G1 X108.141 Y94.331 E6.4825 F3044
G0 X109.730 Y95.920 F10800
G1 X100.251 Y95.920 E6.9555 F3044
; ------------------------------------
; Layer #58
; ------------------------------------
G21 ; mm
G90 ; abs
G92 E0 ; reset extr
M106 S255
;segType:Loop
G0 F4800 E-1.0000
G0 F300 Z17.700
G0 X100.051 Y103.567 F10800
G0 F4800 E0.0000
G1 X100.051 Y94.131 E0.4707 F2029
G1 X109.930 Y94.131 E0.9636
G1 X109.930 Y104.010 E1.4565
G1 X100.051 Y104.010 E1.9494
G1 X100.051 Y103.720 E1.9638
;segType:Perimeter
G0 X100.161 Y104.153 F10800
G1 X99.651 Y104.364 E1.9914 F1217
G1 X99.651 Y93.731 E2.5219
G1 X110.330 Y93.731 E3.0547
G1 X110.330 Y104.410 E3.5874
G1 X99.697 Y104.410 E4.1179
G1 X99.909 Y103.900
;segType:Infill
G0 X101.681 Y103.811 F10800
G1 X101.681 Y94.331 E4.5909 F3044
G0 X104.911 Y94.331 F10800
G1 X104.911 Y103.811 E5.0638 F3044
G0 X109.730 Y99.150 F10800
G1 X100.251 Y99.150 E5.5367 F3044
G0 X100.251 Y102.380 F10800
G1 X109.730 Y102.380 E6.0096 F3044
G0 X108.141 Y103.811 F10800
G1 X108.141 Y94.331 E6.4825 F3044
G0 X109.730 Y95.920 F10800
G1 X100.251 Y95.920 E6.9555 F3044
; ------------------------------------
; Layer #59
; ------------------------------------
G21 ; mm
G90 ; abs
G92 E0 ; reset extr
M106 S255
;segType:Loop
G0 F4800 E-1.0000
G0 F300 Z18.000
G0 X100.051 Y103.567 F10800
G0 F4800 E0.0000
G1 X100.051 Y94.131 E0.4707 F2029
G1 X109.930 Y94.131 E0.9636
G1 X109.930 Y104.010 E1.4565
G1 X100.051 Y104.010 E1.9494
G1 X100.051 Y103.720 E1.9638
;segType:Perimeter
G0 X100.161 Y104.153 F10800
G1 X99.651 Y104.364 E1.9914 F1217
G1 X99.651 Y93.731 E2.5219
G1 X110.330 Y93.731 E3.0547
G1 X110.330 Y104.410 E3.5874
G1 X99.697 Y104.410 E4.1179
G1 X99.909 Y103.900
;segType:Infill
G0 X101.681 Y103.811 F10800
G1 X101.681 Y94.331 E4.5909 F3044
G0 X104.911 Y94.331 F10800
G1 X104.911 Y103.811 E5.0638 F3044
G0 X109.730 Y99.150 F10800
G1 X100.251 Y99.150 E5.5367 F3044
G0 X100.251 Y102.380 F10800
G1 X109.730 Y102.380 E6.0096 F3044
G0 X108.141 Y103.811 F10800
G1 X108.141 Y94.331 E6.4825 F3044
G0 X109.730 Y95.920 F10800
G1 X100.251 Y95.920 E6.9555 F3044
; ------------------------------------
; Layer #60
; ------------------------------------
G21 ; mm
G90 ; abs
G92 E0 ; reset extr
M106 S255
;segType:Loop
G0 F4800 E-1.0000
G0 F300 Z18.300
G0 X100.051 Y103.567 F10800
G0 F4800 E0.0000
G1 X100.051 Y94.131 E0.4707 F2029
G1 X109.930 Y94.131 E0.9636
G1 X109.930 Y104.010 E1.4565
G1 X100.051 Y104.010 E1.9494
G1 X100.051 Y103.720 E1.9638
;segType:Perimeter
G0 X100.161 Y104.153 F10800
G1 X99.651 Y104.364 E1.9914 F1217
G1 X99.651 Y93.731 E2.5219
G1 X110.330 Y93.731 E3.0547
G1 X110.330 Y104.410 E3.5874
G1 X99.697 Y104.410 E4.1179
G1 X99.909 Y103.900
;segType:Infill
G0 X101.681 Y103.811 F10800
G1 X101.681 Y94.331 E4.5909 F3044
G0 X104.911 Y94.331 F10800
G1 X104.911 Y103.811 E5.0638 F3044
G0 X109.730 Y99.150 F10800
G1 X100.251 Y99.150 E5.5367 F3044
G0 X100.251 Y102.380 F10800
G1 X109.730 Y102.380 E6.0096 F3044
G0 X108.141 Y103.811 F10800
G1 X108.141 Y94.331 E6.4825 F3044
G0 X109.730 Y95.920 F10800
G1 X100.251 Y95.920 E6.9555 F3044
; ------------------------------------
; Layer #61
; ------------------------------------
G21 ; mm
G90 ; abs
G92 E0 ; reset extr
M106 S255
;segType:Loop
G0 F4800 E-1.0000
G0 F300 Z18.600
G0 X100.051 Y103.567 F10800
G0 F4800 E0.0000
G1 X100.051 Y94.131 E0.4707 F2029
G1 X109.930 Y94.131 E0.9636
G1 X109.930 Y104.010 E1.4565
G1 X100.051 Y104.010 E1.9494
G1 X100.051 Y103.720 E1.9638
;segType:Perimeter
G0 X100.161 Y104.153 F10800
G1 X99.651 Y104.364 E1.9914 F1217
G1 X99.651 Y93.731 E2.5219
G1 X110.330 Y93.731 E3.0547
G1 X110.330 Y104.410 E3.5874
G1 X99.697 Y104.410 E4.1179
G1 X99.909 Y103.900
;segType:Infill
G0 X101.681 Y103.811 F10800
G1 X101.681 Y94.331 E4.5909 F3044
G0 X104.911 Y94.331 F10800
G1 X104.911 Y103.811 E5.0638 F3044
G0 X109.730 Y99.150 F10800
G1 X100.251 Y99.150 E5.5367 F3044
G0 X100.251 Y102.380 F10800
G1 X109.730 Y102.380 E6.0096 F3044
G0 X108.141 Y103.811 F10800
G1 X108.141 Y94.331 E6.4825 F3044
G0 X109.730 Y95.920 F10800
G1 X100.251 Y95.920 E6.9555 F3044
; ------------------------------------
; Layer #62
; ------------------------------------
G21 ; mm
G90 ; abs
G92 E0 ; reset extr
M106 S255
;segType:Loop
G0 F4800 E-1.0000
G0 F300 Z18.900
G0 X100.051 Y103.567 F10800
G0 F4800 E0.0000
G1 X100.051 Y94.131 E0.4707 F2029
G1 X109.930 Y94.131 E0.9636
G1 X109.930 Y104.010 E1.4565
G1 X100.051 Y104.010 E1.9494
G1 X100.051 Y103.720 E1.9638
;segType:Perimeter
G0 X100.161 Y104.153 F10800
G1 X99.651 Y104.364 E1.9914 F1217
G1 X99.651 Y93.731 E2.5219
G1 X110.330 Y93.731 E3.0547
G1 X110.330 Y104.410 E3.5874
G1 X99.697 Y104.410 E4.1179
G1 X99.909 Y103.900
;segType:Infill
G0 X101.681 Y103.811 F10800
G1 X101.681 Y94.331 E4.5909 F3044
G0 X104.911 Y94.331 F10800
G1 X104.911 Y103.811 E5.0638 F3044
G0 X109.730 Y99.150 F10800
G1 X100.251 Y99.150 E5.5367 F3044
G0 X100.251 Y102.380 F10800
G1 X109.730 Y102.380 E6.0096 F3044
G0 X108.141 Y103.811 F10800
G1 X108.141 Y94.331 E6.4825 F3044
G0 X109.730 Y95.920 F10800
G1 X100.251 Y95.920 E6.9555 F3044
; ------------------------------------
; Layer #63
; ------------------------------------
G21 ; mm
G90 ; abs
G92 E0 ; reset extr
M106 S255
;segType:Loop
G0 F4800 E-1.0000
G0 F300 Z19.200
G0 X100.051 Y103.567 F10800
G0 F4800 E0.0000
G1 X100.051 Y94.131 E0.4707 F2029
G1 X109.930 Y94.131 E0.9636
G1 X109.930 Y104.010 E1.4565
G1 X100.051 Y104.010 E1.9494
G1 X100.051 Y103.720 E1.9638
;segType:Perimeter
G0 X100.161 Y104.153 F10800
G1 X99.651 Y104.364 E1.9914 F1217
G1 X99.651 Y93.731 E2.5219
G1 X110.330 Y93.731 E3.0547
G1 X110.330 Y104.410 E3.5874
G1 X99.697 Y104.410 E4.1179
G1 X99.909 Y103.900
;segType:Infill
G0 X101.681 Y103.811 F10800
G1 X101.681 Y94.331 E4.5909 F3044
G0 X104.911 Y94.331 F10800
G1 X104.911 Y103.811 E5.0638 F3044
G0 X109.730 Y99.150 F10800
G1 X100.251 Y99.150 E5.5367 F3044
G0 X100.251 Y102.380 F10800
G1 X109.730 Y102.380 E6.0096 F3044
G0 X108.141 Y103.811 F10800
G1 X108.141 Y94.331 E6.4825 F3044
G0 X109.730 Y95.920 F10800
G1 X100.251 Y95.920 E6.9555 F3044
; ------------------------------------
; Layer #64
; ------------------------------------
G21 ; mm
G90 ; abs
G92 E0 ; reset extr
M106 S255
;segType:Loop
G0 F4800 E-1.0000
G0 F300 Z19.500
G0 X100.051 Y103.567 F10800
G0 F4800 E0.0000
G1 X100.051 Y94.131 E0.4707 F2029
G1 X109.930 Y94.131 E0.9636
G1 X109.930 Y104.010 E1.4565
G1 X100.051 Y104.010 E1.9494
G1 X100.051 Y103.720 E1.9638
;segType:Perimeter
G0 X100.161 Y104.153 F10800
G1 X99.651 Y104.364 E1.9914 F1217
G1 X99.651 Y93.731 E2.5219
G1 X110.330 Y93.731 E3.0547
G1 X110.330 Y104.410 E3.5874
G1 X99.697 Y104.410 E4.1179
G1 X99.909 Y103.900
;segType:Infill
G0 X101.681 Y103.811 F10800
G1 X101.681 Y94.331 E4.5909 F3044
G0 X104.911 Y94.331 F10800
G1 X104.911 Y103.811 E5.0638 F3044
G0 X109.730 Y99.150 F10800
G1 X100.251 Y99.150 E5.5367 F3044
G0 X100.251 Y102.380 F10800
G1 X109.730 Y102.380 E6.0096 F3044
G0 X108.141 Y103.811 F10800
G1 X108.141 Y94.331 E6.4825 F3044
G0 X109.730 Y95.920 F10800
G1 X100.251 Y95.920 E6.9555 F3044
; ------------------------------------
; Layer #65
; ------------------------------------
G21 ; mm
G90 ; abs
G92 E0 ; reset extr
M106 S255
;segType:Loop
G0 F4800 E-1.0000
G0 F300 Z19.800
G0 X100.051 Y103.567 F10800
G0 F4800 E0.0000
G1 X100.051 Y94.131 E0.4707 F2029
G1 X109.930 Y94.131 E0.9636
G1 X109.930 Y104.010 E1.4565
G1 X100.051 Y104.010 E1.9494
G1 X100.051 Y103.720 E1.9638
;segType:Perimeter
G0 X100.161 Y104.153 F10800
G1 X99.651 Y104.364 E1.9914 F1217
G1 X99.651 Y93.731 E2.5219
G1 X110.330 Y93.731 E3.0547
G1 X110.330 Y104.410 E3.5874
G1 X99.697 Y104.410 E4.1179
G1 X99.909 Y103.900
;segType:Infill
G0 X101.681 Y103.811 F10800
G1 X101.681 Y94.331 E4.5909 F3044
G0 X104.911 Y94.331 F10800
G1 X104.911 Y103.811 E5.0638 F3044
G0 X109.730 Y99.150 F10800
G1 X100.251 Y99.150 E5.5367 F3044
G0 X100.251 Y102.380 F10800
G1 X109.730 Y102.380 E6.0096 F3044
G0 X108.141 Y103.811 F10800
G1 X108.141 Y94.331 E6.4825 F3044
G0 X109.730 Y95.920 F10800
G1 X100.251 Y95.920 E6.9555 F3044
; ------------------------------------
; Layer #66
; ------------------------------------
G21 ; mm
G90 ; abs
G92 E0 ; reset extr
M106 S255
;segType:Loop
G0 F4800 E-1.0000
G0 F300 Z20.100
G0 X100.051 Y103.567 F10800
G0 F4800 E0.0000
G1 X100.051 Y94.131 E0.4707 F2029
G1 X109.930 Y94.131 E0.9636
G1 X109.930 Y104.010 E1.4565
G1 X100.051 Y104.010 E1.9494
G1 X100.051 Y103.720 E1.9638
;segType:Perimeter
G0 X100.161 Y104.153 F10800
G1 X99.651 Y104.364 E1.9914 F1217
G1 X99.651 Y93.731 E2.5219
G1 X110.330 Y93.731 E3.0547
G1 X110.330 Y104.410 E3.5874
G1 X99.697 Y104.410 E4.1179
G1 X99.909 Y103.900
;segType:Infill
G0 X101.681 Y103.811 F10800
G1 X101.681 Y94.331 E4.5909 F3044
G0 X104.911 Y94.331 F10800
G1 X104.911 Y103.811 E5.0638 F3044
G0 X109.730 Y99.150 F10800
G1 X100.251 Y99.150 E5.5367 F3044
G0 X100.251 Y102.380 F10800
G1 X109.730 Y102.380 E6.0096 F3044
G0 X108.141 Y103.811 F10800
G1 X108.141 Y94.331 E6.4825 F3044
G0 X109.730 Y95.920 F10800
G1 X100.251 Y95.920 E6.9555 F3044
; ------------------------------------
; Layer #67
; ------------------------------------
G21 ; mm
G90 ; abs
G92 E0 ; reset extr
M106 S255
;segType:Loop
G0 F4800 E-1.0000
G0 F300 Z20.400
G0 X100.051 Y103.567 F10800
G0 F4800 E0.0000
G1 X100.051 Y94.131 E0.4707 F2029
G1 X109.930 Y94.131 E0.9636
G1 X109.930 Y104.010 E1.4565
G1 X100.051 Y104.010 E1.9494
G1 X100.051 Y103.720 E1.9638
;segType:Perimeter
G0 X100.161 Y104.153 F10800
G1 X99.651 Y104.364 E1.9914 F1217
G1 X99.651 Y93.731 E2.5219
G1 X110.330 Y93.731 E3.0547
G1 X110.330 Y104.410 E3.5874
G1 X99.697 Y104.410 E4.1179
G1 X99.909 Y103.900
;segType:Infill
G0 X101.681 Y103.811 F10800
G1 X101.681 Y94.331 E4.5909 F3044
G0 X104.911 Y94.331 F10800
G1 X104.911 Y103.811 E5.0638 F3044
G0 X109.730 Y99.150 F10800
G1 X100.251 Y99.150 E5.5367 F3044
G0 X100.251 Y102.380 F10800
G1 X109.730 Y102.380 E6.0096 F3044
G0 X108.141 Y103.811 F10800
G1 X108.141 Y94.331 E6.4825 F3044
G0 X109.730 Y95.920 F10800
G1 X100.251 Y95.920 E6.9555 F3044
; ------------------------------------
; Layer #68
; ------------------------------------
G21 ; mm
G90 ; abs
G92 E0 ; reset extr
M106 S255
;segType:Loop
G0 F4800 E-1.0000
G0 F300 Z20.700
G0 X100.051 Y103.567 F10800
G0 F4800 E0.0000
G1 X100.051 Y94.131 E0.4707 F2029
G1 X109.930 Y94.131 E0.9636
G1 X109.930 Y104.010 E1.4565
G1 X100.051 Y104.010 E1.9494
G1 X100.051 Y103.720 E1.9638
;segType:Perimeter
G0 X100.161 Y104.153 F10800
G1 X99.651 Y104.364 E1.9914 F1217
G1 X99.651 Y93.731 E2.5219
G1 X110.330 Y93.731 E3.0547
G1 X110.330 Y104.410 E3.5874
G1 X99.697 Y104.410 E4.1179
G1 X99.909 Y103.900
;segType:Infill
G0 X101.681 Y103.811 F10800
G1 X101.681 Y94.331 E4.5909 F3044
G0 X104.911 Y94.331 F10800
G1 X104.911 Y103.811 E5.0638 F3044
G0 X109.730 Y99.150 F10800
G1 X100.251 Y99.150 E5.5367 F3044
G0 X100.251 Y102.380 F10800
G1 X109.730 Y102.380 E6.0096 F3044
G0 X108.141 Y103.811 F10800
G1 X108.141 Y94.331 E6.4825 F3044
G0 X109.730 Y95.920 F10800
G1 X100.251 Y95.920 E6.9555 F3044
; ------------------------------------
; Layer #69
; ------------------------------------
G21 ; mm
G90 ; abs
G92 E0 ; reset extr
M106 S255
;segType:Loop
G0 F4800 E-1.0000
G0 F300 Z21.000
G0 X100.051 Y103.567 F10800
G0 F4800 E0.0000
G1 X100.051 Y94.131 E0.4707 F2029
G1 X109.930 Y94.131 E0.9636
G1 X109.930 Y104.010 E1.4565
G1 X100.051 Y104.010 E1.9494
G1 X100.051 Y103.720 E1.9638
;segType:Perimeter
G0 X100.161 Y104.153 F10800
G1 X99.651 Y104.364 E1.9914 F1217
G1 X99.651 Y93.731 E2.5219
G1 X110.330 Y93.731 E3.0547
G1 X110.330 Y104.410 E3.5874
G1 X99.697 Y104.410 E4.1179
G1 X99.909 Y103.900
;segType:Infill
G0 X101.681 Y103.811 F10800
G1 X101.681 Y94.331 E4.5909 F3044
G0 X104.911 Y94.331 F10800
G1 X104.911 Y103.811 E5.0638 F3044
G0 X109.730 Y99.150 F10800
G1 X100.251 Y99.150 E5.5367 F3044
G0 X100.251 Y102.380 F10800
G1 X109.730 Y102.380 E6.0096 F3044
G0 X108.141 Y103.811 F10800
G1 X108.141 Y94.331 E6.4825 F3044
G0 X109.730 Y95.920 F10800
G1 X100.251 Y95.920 E6.9555 F3044
; ------------------------------------
; Layer #70
; ------------------------------------
G21 ; mm
G90 ; abs
G92 E0 ; reset extr
M106 S255
;segType:Loop
G0 F4800 E-1.0000
G0 F300 Z21.300
G0 X100.051 Y103.567 F10800
G0 F4800 E0.0000
G1 X100.051 Y94.131 E0.4707 F2029
G1 X109.930 Y94.131 E0.9636
G1 X109.930 Y104.010 E1.4565
G1 X100.051 Y104.010 E1.9494
G1 X100.051 Y103.720 E1.9638
;segType:Perimeter
G0 X100.161 Y104.153 F10800
G1 X99.651 Y104.364 E1.9914 F1217
G1 X99.651 Y93.731 E2.5219
G1 X110.330 Y93.731 E3.0547
G1 X110.330 Y104.410 E3.5874
G1 X99.697 Y104.410 E4.1179
G1 X99.909 Y103.900
;segType:Infill
G0 X101.681 Y103.811 F10800
G1 X101.681 Y94.331 E4.5909 F3044
G0 X104.911 Y94.331 F10800
G1 X104.911 Y103.811 E5.0638 F3044
G0 X109.730 Y99.150 F10800
G1 X100.251 Y99.150 E5.5367 F3044
G0 X100.251 Y102.380 F10800
G1 X109.730 Y102.380 E6.0096 F3044
G0 X108.141 Y103.811 F10800
G1 X108.141 Y94.331 E6.4825 F3044
G0 X109.730 Y95.920 F10800
G1 X100.251 Y95.920 E6.9555 F3044
; ------------------------------------
; Layer #71
; ------------------------------------
G21 ; mm
G90 ; abs
G92 E0 ; reset extr
M106 S255
;segType:Loop
G0 F4800 E-1.0000
G0 F300 Z21.600
G0 X100.051 Y103.567 F10800
G0 F4800 E0.0000
G1 X100.051 Y94.131 E0.4707 F2029
G1 X109.930 Y94.131 E0.9636
G1 X109.930 Y104.010 E1.4565
G1 X100.051 Y104.010 E1.9494
G1 X100.051 Y103.720 E1.9638
;segType:Perimeter
G0 X100.161 Y104.153 F10800
G1 X99.651 Y104.364 E1.9914 F1217
G1 X99.651 Y93.731 E2.5219
G1 X110.330 Y93.731 E3.0547
G1 X110.330 Y104.410 E3.5874
G1 X99.697 Y104.410 E4.1179
G1 X99.909 Y103.900
;segType:Infill
G0 X101.681 Y103.811 F10800
G1 X101.681 Y94.331 E4.5909 F3044
G0 X104.911 Y94.331 F10800
G1 X104.911 Y103.811 E5.0638 F3044
G0 X109.730 Y99.150 F10800
G1 X100.251 Y99.150 E5.5367 F3044
G0 X100.251 Y102.380 F10800
G1 X109.730 Y102.380 E6.0096 F3044
G0 X108.141 Y103.811 F10800
G1 X108.141 Y94.331 E6.4825 F3044
G0 X109.730 Y95.920 F10800
G1 X100.251 Y95.920 E6.9555 F3044
; ------------------------------------
; Layer #72
; ------------------------------------
G21 ; mm
G90 ; abs
G92 E0 ; reset extr
M106 S255
;segType:Loop
G0 F4800 E-1.0000
G0 F300 Z21.900
G0 X100.051 Y103.567 F10800
G0 F4800 E0.0000
G1 X100.051 Y94.131 E0.4707 F2029
G1 X109.930 Y94.131 E0.9636
G1 X109.930 Y104.010 E1.4565
G1 X100.051 Y104.010 E1.9494
G1 X100.051 Y103.720 E1.9638
;segType:Perimeter
G0 X100.161 Y104.153 F10800
G1 X99.651 Y104.364 E1.9914 F1217
G1 X99.651 Y93.731 E2.5219
G1 X110.330 Y93.731 E3.0547
G1 X110.330 Y104.410 E3.5874
G1 X99.697 Y104.410 E4.1179
G1 X99.909 Y103.900
;segType:Infill
G0 X101.681 Y103.811 F10800
G1 X101.681 Y94.331 E4.5909 F3044
G0 X104.911 Y94.331 F10800
G1 X104.911 Y103.811 E5.0638 F3044
G0 X109.730 Y99.150 F10800
G1 X100.251 Y99.150 E5.5367 F3044
G0 X100.251 Y102.380 F10800
G1 X109.730 Y102.380 E6.0096 F3044
G0 X108.141 Y103.811 F10800
G1 X108.141 Y94.331 E6.4825 F3044
G0 X109.730 Y95.920 F10800
G1 X100.251 Y95.920 E6.9555 F3044
; ------------------------------------
; Layer #73
; ------------------------------------
G21 ; mm
G90 ; abs
G92 E0 ; reset extr
M106 S255
;segType:Loop
G0 F4800 E-1.0000
G0 F300 Z22.200
G0 X100.051 Y103.567 F10800
G0 F4800 E0.0000
G1 X100.051 Y94.131 E0.4707 F2029
G1 X109.930 Y94.131 E0.9636
G1 X109.930 Y104.010 E1.4565
G1 X100.051 Y104.010 E1.9494
G1 X100.051 Y103.720 E1.9638
;segType:Perimeter
G0 X100.161 Y104.153 F10800
G1 X99.651 Y104.364 E1.9914 F1217
G1 X99.651 Y93.731 E2.5219
G1 X110.330 Y93.731 E3.0547
G1 X110.330 Y104.410 E3.5874
G1 X99.697 Y104.410 E4.1179
G1 X99.909 Y103.900
;segType:Infill
G0 X101.681 Y103.811 F10800
G1 X101.681 Y94.331 E4.5909 F3044
G0 X104.911 Y94.331 F10800
G1 X104.911 Y103.811 E5.0638 F3044
G0 X109.730 Y99.150 F10800
G1 X100.251 Y99.150 E5.5367 F3044
G0 X100.251 Y102.380 F10800
G1 X109.730 Y102.380 E6.0096 F3044
G0 X108.141 Y103.811 F10800
G1 X108.141 Y94.331 E6.4825 F3044
G0 X109.730 Y95.920 F10800
G1 X100.251 Y95.920 E6.9555 F3044
; ------------------------------------
; Layer #74
; ------------------------------------
G21 ; mm
G90 ; abs
G92 E0 ; reset extr
M106 S255
;segType:Loop
G0 F4800 E-1.0000
G0 F300 Z22.500
G0 X100.051 Y103.567 F10800
G0 F4800 E0.0000
G1 X100.051 Y94.131 E0.4707 F2029
G1 X109.930 Y94.131 E0.9636
G1 X109.930 Y104.010 E1.4565
G1 X100.051 Y104.010 E1.9494
G1 X100.051 Y103.720 E1.9638
;segType:Perimeter
G0 X100.161 Y104.153 F10800
G1 X99.651 Y104.364 E1.9914 F1217
G1 X99.651 Y93.731 E2.5219
G1 X110.330 Y93.731 E3.0547
G1 X110.330 Y104.410 E3.5874
G1 X99.697 Y104.410 E4.1179
G1 X99.909 Y103.900
;segType:Infill
G0 X101.681 Y103.811 F10800
G1 X101.681 Y94.331 E4.5909 F3044
G0 X104.911 Y94.331 F10800
G1 X104.911 Y103.811 E5.0638 F3044
G0 X109.730 Y99.150 F10800
G1 X100.251 Y99.150 E5.5367 F3044
G0 X100.251 Y102.380 F10800
G1 X109.730 Y102.380 E6.0096 F3044
G0 X108.141 Y103.811 F10800
G1 X108.141 Y94.331 E6.4825 F3044
G0 X109.730 Y95.920 F10800
G1 X100.251 Y95.920 E6.9555 F3044
; ------------------------------------
; Layer #75
; ------------------------------------
G21 ; mm
G90 ; abs
G92 E0 ; reset extr
M106 S255
;segType:Loop
G0 F4800 E-1.0000
G0 F300 Z22.800
G0 X100.051 Y103.567 F10800
G0 F4800 E0.0000
G1 X100.051 Y94.131 E0.4707 F2029
G1 X109.930 Y94.131 E0.9636
G1 X109.930 Y104.010 E1.4565
G1 X100.051 Y104.010 E1.9494
G1 X100.051 Y103.720 E1.9638
;segType:Perimeter
G0 X100.161 Y104.153 F10800
G1 X99.651 Y104.364 E1.9914 F1217
G1 X99.651 Y93.731 E2.5219
G1 X110.330 Y93.731 E3.0547
G1 X110.330 Y104.410 E3.5874
G1 X99.697 Y104.410 E4.1179
G1 X99.909 Y103.900
;segType:Infill
G0 X101.681 Y103.811 F10800
G1 X101.681 Y94.331 E4.5909 F3044
G0 X104.911 Y94.331 F10800
G1 X104.911 Y103.811 E5.0638 F3044
G0 X109.730 Y99.150 F10800
G1 X100.251 Y99.150 E5.5367 F3044
G0 X100.251 Y102.380 F10800
G1 X109.730 Y102.380 E6.0096 F3044
G0 X108.141 Y103.811 F10800
G1 X108.141 Y94.331 E6.4825 F3044
G0 X109.730 Y95.920 F10800
G1 X100.251 Y95.920 E6.9555 F3044
; ------------------------------------
; Layer #76
; ------------------------------------
G21 ; mm
G90 ; abs
G92 E0 ; reset extr
M106 S255
;segType:Loop
G0 F4800 E-1.0000
G0 F300 Z23.100
G0 X100.051 Y103.567 F10800
G0 F4800 E0.0000
G1 X100.051 Y94.131 E0.4707 F2029
G1 X109.930 Y94.131 E0.9636
G1 X109.930 Y104.010 E1.4565
G1 X100.051 Y104.010 E1.9494
G1 X100.051 Y103.720 E1.9638
;segType:Perimeter
G0 X100.161 Y104.153 F10800
G1 X99.651 Y104.364 E1.9914 F1217
G1 X99.651 Y93.731 E2.5219
G1 X110.330 Y93.731 E3.0547
G1 X110.330 Y104.410 E3.5874
G1 X99.697 Y104.410 E4.1179
G1 X99.909 Y103.900
;segType:Infill
G0 X101.681 Y103.811 F10800
G1 X101.681 Y94.331 E4.5909 F3044
G0 X104.911 Y94.331 F10800
G1 X104.911 Y103.811 E5.0638 F3044
G0 X109.730 Y99.150 F10800
G1 X100.251 Y99.150 E5.5367 F3044
G0 X100.251 Y102.380 F10800
G1 X109.730 Y102.380 E6.0096 F3044
G0 X108.141 Y103.811 F10800
G1 X108.141 Y94.331 E6.4825 F3044
G0 X109.730 Y95.920 F10800
G1 X100.251 Y95.920 E6.9555 F3044
; ------------------------------------
; Layer #77
; ------------------------------------
G21 ; mm
G90 ; abs
G92 E0 ; reset extr
M106 S255
;segType:Loop
G0 F4800 E-1.0000
G0 F300 Z23.400
G0 X100.051 Y103.567 F10800
G0 F4800 E0.0000
G1 X100.051 Y94.131 E0.4707 F2029
G1 X109.930 Y94.131 E0.9636
G1 X109.930 Y104.010 E1.4565
G1 X100.051 Y104.010 E1.9494
G1 X100.051 Y103.720 E1.9638
;segType:Perimeter
G0 X100.161 Y104.153 F10800
G1 X99.651 Y104.364 E1.9914 F1217
G1 X99.651 Y93.731 E2.5219
G1 X110.330 Y93.731 E3.0547
G1 X110.330 Y104.410 E3.5874
G1 X99.697 Y104.410 E4.1179
G1 X99.909 Y103.900
;segType:Infill
G0 X101.681 Y103.811 F10800
G1 X101.681 Y94.331 E4.5909 F3044
G0 X104.911 Y94.331 F10800
G1 X104.911 Y103.811 E5.0638 F3044
G0 X109.730 Y99.150 F10800
G1 X100.251 Y99.150 E5.5367 F3044
G0 X100.251 Y102.380 F10800
G1 X109.730 Y102.380 E6.0096 F3044
G0 X108.141 Y103.811 F10800
G1 X108.141 Y94.331 E6.4825 F3044
G0 X109.730 Y95.920 F10800
G1 X100.251 Y95.920 E6.9555 F3044
; ------------------------------------
; Layer #78
; ------------------------------------
G21 ; mm
G90 ; abs
G92 E0 ; reset extr
M106 S255
;segType:Loop
G0 F4800 E-1.0000
G0 F300 Z23.700
G0 X100.051 Y103.567 F10800
G0 F4800 E0.0000
G1 X100.051 Y94.131 E0.4707 F2029
G1 X109.930 Y94.131 E0.9636
G1 X109.930 Y104.010 E1.4565
G1 X100.051 Y104.010 E1.9494
G1 X100.051 Y103.720 E1.9638
;segType:Perimeter
G0 X100.161 Y104.153 F10800
G1 X99.651 Y104.364 E1.9914 F1217
G1 X99.651 Y93.731 E2.5219
G1 X110.330 Y93.731 E3.0547
G1 X110.330 Y104.410 E3.5874
G1 X99.697 Y104.410 E4.1179
G1 X99.909 Y103.900
;segType:Infill
G0 X101.681 Y103.811 F10800
G1 X101.681 Y94.331 E4.5909 F3044
G0 X104.911 Y94.331 F10800
G1 X104.911 Y103.811 E5.0638 F3044
G0 X109.730 Y99.150 F10800
G1 X100.251 Y99.150 E5.5367 F3044
G0 X100.251 Y102.380 F10800
G1 X109.730 Y102.380 E6.0096 F3044
G0 X108.141 Y103.811 F10800
G1 X108.141 Y94.331 E6.4825 F3044
G0 X109.730 Y95.920 F10800
G1 X100.251 Y95.920 E6.9555 F3044
; ------------------------------------
; Layer #79
; ------------------------------------
G21 ; mm
G90 ; abs
G92 E0 ; reset extr
M106 S255
;segType:Loop
G0 F4800 E-1.0000
G0 F300 Z24.000
G0 X100.051 Y103.567 F10800
G0 F4800 E0.0000
G1 X100.051 Y94.131 E0.4707 F2029
G1 X109.930 Y94.131 E0.9636
G1 X109.930 Y104.010 E1.4565
G1 X100.051 Y104.010 E1.9494
G1 X100.051 Y103.720 E1.9638
;segType:Perimeter
G0 X100.161 Y104.153 F10800
G1 X99.651 Y104.364 E1.9914 F1217
G1 X99.651 Y93.731 E2.5219
G1 X110.330 Y93.731 E3.0547
G1 X110.330 Y104.410 E3.5874
G1 X99.697 Y104.410 E4.1179
G1 X99.909 Y103.900
;segType:Infill
G0 X101.681 Y103.811 F10800
G1 X101.681 Y94.331 E4.5909 F3044
G0 X104.911 Y94.331 F10800
G1 X104.911 Y103.811 E5.0638 F3044
G0 X109.730 Y99.150 F10800
G1 X100.251 Y99.150 E5.5367 F3044
G0 X100.251 Y102.380 F10800
G1 X109.730 Y102.380 E6.0096 F3044
G0 X108.141 Y103.811 F10800
G1 X108.141 Y94.331 E6.4825 F3044
G0 X109.730 Y95.920 F10800
G1 X100.251 Y95.920 E6.9555 F3044
; ------------------------------------
; Layer #80
; ------------------------------------
G21 ; mm
G90 ; abs
G92 E0 ; reset extr
M106 S255
;segType:Loop
G0 F4800 E-1.0000
G0 F300 Z24.300
G0 X100.051 Y103.567 F10800
G0 F4800 E0.0000
G1 X100.051 Y94.131 E0.4707 F2029
G1 X109.930 Y94.131 E0.9636
G1 X109.930 Y104.010 E1.4565
G1 X100.051 Y104.010 E1.9494
G1 X100.051 Y103.720 E1.9638
;segType:Perimeter
G0 X100.161 Y104.153 F10800
G1 X99.651 Y104.364 E1.9914 F1217
G1 X99.651 Y93.731 E2.5219
G1 X110.330 Y93.731 E3.0547
G1 X110.330 Y104.410 E3.5874
G1 X99.697 Y104.410 E4.1179
G1 X99.909 Y103.900
;segType:Infill
G0 X101.681 Y103.811 F10800
G1 X101.681 Y94.331 E4.5909 F3044
G0 X104.911 Y94.331 F10800
G1 X104.911 Y103.811 E5.0638 F3044
G0 X109.730 Y99.150 F10800
G1 X100.251 Y99.150 E5.5367 F3044
G0 X100.251 Y102.380 F10800
G1 X109.730 Y102.380 E6.0096 F3044
G0 X108.141 Y103.811 F10800
G1 X108.141 Y94.331 E6.4825 F3044
G0 X109.730 Y95.920 F10800
G1 X100.251 Y95.920 E6.9555 F3044
; ------------------------------------
; Layer #81
; ------------------------------------
G21 ; mm
G90 ; abs
G92 E0 ; reset extr
M106 S255
;segType:Loop
G0 F4800 E-1.0000
G0 F300 Z24.600
G0 X100.051 Y103.567 F10800
G0 F4800 E0.0000
G1 X100.051 Y94.131 E0.4707 F2029
G1 X109.930 Y94.131 E0.9636
G1 X109.930 Y104.010 E1.4565
G1 X100.051 Y104.010 E1.9494
G1 X100.051 Y103.720 E1.9638
;segType:Perimeter
G0 X100.161 Y104.153 F10800
G1 X99.651 Y104.364 E1.9914 F1217
G1 X99.651 Y93.731 E2.5219
G1 X110.330 Y93.731 E3.0547
G1 X110.330 Y104.410 E3.5874
G1 X99.697 Y104.410 E4.1179
G1 X99.909 Y103.900
;segType:Infill
G0 X101.681 Y103.811 F10800
G1 X101.681 Y94.331 E4.5909 F3044
G0 X104.911 Y94.331 F10800
G1 X104.911 Y103.811 E5.0638 F3044
G0 X109.730 Y99.150 F10800
G1 X100.251 Y99.150 E5.5367 F3044
G0 X100.251 Y102.380 F10800
G1 X109.730 Y102.380 E6.0096 F3044
G0 X108.141 Y103.811 F10800
G1 X108.141 Y94.331 E6.4825 F3044
G0 X109.730 Y95.920 F10800
G1 X100.251 Y95.920 E6.9555 F3044
; ------------------------------------
; Layer #82
; ------------------------------------
G21 ; mm
G90 ; abs
G92 E0 ; reset extr
M106 S255
;segType:Loop
G0 F4800 E-1.0000
G0 F300 Z24.900
G0 X100.051 Y103.567 F10800
G0 F4800 E0.0000
G1 X100.051 Y94.131 E0.4707 F2029
G1 X109.930 Y94.131 E0.9636
G1 X109.930 Y104.010 E1.4565
G1 X100.051 Y104.010 E1.9494
G1 X100.051 Y103.720 E1.9638
;segType:Perimeter
G0 X100.161 Y104.153 F10800
G1 X99.651 Y104.364 E1.9914 F1217
G1 X99.651 Y93.731 E2.5219
G1 X110.330 Y93.731 E3.0547
G1 X110.330 Y104.410 E3.5874
G1 X99.697 Y104.410 E4.1179
G1 X99.909 Y103.900
;segType:Infill
G0 X101.681 Y103.811 F10800
G1 X101.681 Y94.331 E4.5909 F3044
G0 X104.911 Y94.331 F10800
G1 X104.911 Y103.811 E5.0638 F3044
G0 X109.730 Y99.150 F10800
G1 X100.251 Y99.150 E5.5367 F3044
G0 X100.251 Y102.380 F10800
G1 X109.730 Y102.380 E6.0096 F3044
G0 X108.141 Y103.811 F10800
G1 X108.141 Y94.331 E6.4825 F3044
G0 X109.730 Y95.920 F10800
G1 X100.251 Y95.920 E6.9555 F3044
; ------------------------------------
; Layer #83
; ------------------------------------
G21 ; mm
G90 ; abs
G92 E0 ; reset extr
M106 S255
;segType:Loop
G0 F4800 E-1.0000
G0 F300 Z25.200
G0 X100.051 Y103.567 F10800
G0 F4800 E0.0000
G1 X100.051 Y94.131 E0.4707 F2029
G1 X109.930 Y94.131 E0.9636
G1 X109.930 Y104.010 E1.4565
G1 X100.051 Y104.010 E1.9494
G1 X100.051 Y103.720 E1.9638
;segType:Perimeter
G0 X100.161 Y104.153 F10800
G1 X99.651 Y104.364 E1.9914 F1217
G1 X99.651 Y93.731 E2.5219
G1 X110.330 Y93.731 E3.0547
G1 X110.330 Y104.410 E3.5874
G1 X99.697 Y104.410 E4.1179
G1 X99.909 Y103.900
;segType:Infill
G0 X101.681 Y103.811 F10800
G1 X101.681 Y94.331 E4.5909 F3044
G0 X104.911 Y94.331 F10800
G1 X104.911 Y103.811 E5.0638 F3044
G0 X109.730 Y99.150 F10800
G1 X100.251 Y99.150 E5.5367 F3044
G0 X100.251 Y102.380 F10800
G1 X109.730 Y102.380 E6.0096 F3044
G0 X108.141 Y103.811 F10800
G1 X108.141 Y94.331 E6.4825 F3044
G0 X109.730 Y95.920 F10800
G1 X100.251 Y95.920 E6.9555 F3044
; ------------------------------------
; Layer #84
; ------------------------------------
G21 ; mm
G90 ; abs
G92 E0 ; reset extr
M106 S255
;segType:Loop
G0 F4800 E-1.0000
G0 F300 Z25.500
G0 X100.051 Y103.567 F10800
G0 F4800 E0.0000
G1 X100.051 Y94.131 E0.4707 F2029
G1 X109.930 Y94.131 E0.9636
G1 X109.930 Y104.010 E1.4565
G1 X100.051 Y104.010 E1.9494
G1 X100.051 Y103.720 E1.9638
;segType:Perimeter
G0 X100.161 Y104.153 F10800
G1 X99.651 Y104.364 E1.9914 F1217
G1 X99.651 Y93.731 E2.5219
G1 X110.330 Y93.731 E3.0547
G1 X110.330 Y104.410 E3.5874
G1 X99.697 Y104.410 E4.1179
G1 X99.909 Y103.900
;segType:Infill
G0 X101.681 Y103.811 F10800
G1 X101.681 Y94.331 E4.5909 F3044
G0 X104.911 Y94.331 F10800
G1 X104.911 Y103.811 E5.0638 F3044
G0 X109.730 Y99.150 F10800
G1 X100.251 Y99.150 E5.5367 F3044
G0 X100.251 Y102.380 F10800
G1 X109.730 Y102.380 E6.0096 F3044
G0 X108.141 Y103.811 F10800
G1 X108.141 Y94.331 E6.4825 F3044
G0 X109.730 Y95.920 F10800
G1 X100.251 Y95.920 E6.9555 F3044
; ------------------------------------
; Layer #85
; ------------------------------------
G21 ; mm
G90 ; abs
G92 E0 ; reset extr
M106 S255
;segType:Loop
G0 F4800 E-1.0000
G0 F300 Z25.800
G0 X100.051 Y103.567 F10800
G0 F4800 E0.0000
G1 X100.051 Y94.131 E0.4707 F2029
G1 X109.930 Y94.131 E0.9636
G1 X109.930 Y104.010 E1.4565
G1 X100.051 Y104.010 E1.9494
G1 X100.051 Y103.720 E1.9638
;segType:Perimeter
G0 X100.161 Y104.153 F10800
G1 X99.651 Y104.364 E1.9914 F1217
G1 X99.651 Y93.731 E2.5219
G1 X110.330 Y93.731 E3.0547
G1 X110.330 Y104.410 E3.5874
G1 X99.697 Y104.410 E4.1179
G1 X99.909 Y103.900
;segType:Infill
G0 X101.681 Y103.811 F10800
G1 X101.681 Y94.331 E4.5909 F3044
G0 X104.911 Y94.331 F10800
G1 X104.911 Y103.811 E5.0638 F3044
G0 X109.730 Y99.150 F10800
G1 X100.251 Y99.150 E5.5367 F3044
G0 X100.251 Y102.380 F10800
G1 X109.730 Y102.380 E6.0096 F3044
G0 X108.141 Y103.811 F10800
G1 X108.141 Y94.331 E6.4825 F3044
G0 X109.730 Y95.920 F10800
G1 X100.251 Y95.920 E6.9555 F3044
; ------------------------------------
; Layer #86
; ------------------------------------
G21 ; mm
G90 ; abs
G92 E0 ; reset extr
M106 S255
;segType:Loop
G0 F4800 E-1.0000
G0 F300 Z26.100
G0 X100.051 Y103.567 F10800
G0 F4800 E0.0000
G1 X100.051 Y94.131 E0.4707 F2029
G1 X109.930 Y94.131 E0.9636
G1 X109.930 Y104.010 E1.4565
G1 X100.051 Y104.010 E1.9494
G1 X100.051 Y103.720 E1.9638
;segType:Perimeter
G0 X100.161 Y104.153 F10800
G1 X99.651 Y104.364 E1.9914 F1217
G1 X99.651 Y93.731 E2.5219
G1 X110.330 Y93.731 E3.0547
G1 X110.330 Y104.410 E3.5874
G1 X99.697 Y104.410 E4.1179
G1 X99.909 Y103.900
;segType:Infill
G0 X101.681 Y103.811 F10800
G1 X101.681 Y94.331 E4.5909 F3044
G0 X104.911 Y94.331 F10800
G1 X104.911 Y103.811 E5.0638 F3044
G0 X109.730 Y99.150 F10800
G1 X100.251 Y99.150 E5.5367 F3044
G0 X100.251 Y102.380 F10800
G1 X109.730 Y102.380 E6.0096 F3044
G0 X108.141 Y103.811 F10800
G1 X108.141 Y94.331 E6.4825 F3044
G0 X109.730 Y95.920 F10800
G1 X100.251 Y95.920 E6.9555 F3044
; ------------------------------------
; Layer #87
; ------------------------------------
G21 ; mm
G90 ; abs
G92 E0 ; reset extr
M106 S255
;segType:Loop
G0 F4800 E-1.0000
G0 F300 Z26.400
G0 X100.051 Y103.567 F10800
G0 F4800 E0.0000
G1 X100.051 Y94.131 E0.4707 F2029
G1 X109.930 Y94.131 E0.9636
G1 X109.930 Y104.010 E1.4565
G1 X100.051 Y104.010 E1.9494
G1 X100.051 Y103.720 E1.9638
;segType:Perimeter
G0 X100.161 Y104.153 F10800
G1 X99.651 Y104.364 E1.9914 F1217
G1 X99.651 Y93.731 E2.5219
G1 X110.330 Y93.731 E3.0547
G1 X110.330 Y104.410 E3.5874
G1 X99.697 Y104.410 E4.1179
G1 X99.909 Y103.900
;segType:Infill
G0 X101.681 Y103.811 F10800
G1 X101.681 Y94.331 E4.5909 F3044
G0 X104.911 Y94.331 F10800
G1 X104.911 Y103.811 E5.0638 F3044
G0 X109.730 Y99.150 F10800
G1 X100.251 Y99.150 E5.5367 F3044
G0 X100.251 Y102.380 F10800
G1 X109.730 Y102.380 E6.0096 F3044
G0 X108.141 Y103.811 F10800
G1 X108.141 Y94.331 E6.4825 F3044
G0 X109.730 Y95.920 F10800
G1 X100.251 Y95.920 E6.9555 F3044
; ------------------------------------
; Layer #88
; ------------------------------------
G21 ; mm
G90 ; abs
G92 E0 ; reset extr
M106 S255
;segType:Loop
G0 F4800 E-1.0000
G0 F300 Z26.700
G0 X100.051 Y103.567 F10800
G0 F4800 E0.0000
G1 X100.051 Y94.131 E0.4707 F2029
G1 X109.930 Y94.131 E0.9636
G1 X109.930 Y104.010 E1.4565
G1 X100.051 Y104.010 E1.9494
G1 X100.051 Y103.720 E1.9638
;segType:Perimeter
G0 X100.161 Y104.153 F10800
G1 X99.651 Y104.364 E1.9914 F1217
G1 X99.651 Y93.731 E2.5219
G1 X110.330 Y93.731 E3.0547
G1 X110.330 Y104.410 E3.5874
G1 X99.697 Y104.410 E4.1179
G1 X99.909 Y103.900
;segType:Infill
G0 X101.681 Y103.811 F10800
G1 X101.681 Y94.331 E4.5909 F3044
G0 X104.911 Y94.331 F10800
G1 X104.911 Y103.811 E5.0638 F3044
G0 X109.730 Y99.150 F10800
G1 X100.251 Y99.150 E5.5367 F3044
G0 X100.251 Y102.380 F10800
G1 X109.730 Y102.380 E6.0096 F3044
G0 X108.141 Y103.811 F10800
G1 X108.141 Y94.331 E6.4825 F3044
G0 X109.730 Y95.920 F10800
G1 X100.251 Y95.920 E6.9555 F3044
; ------------------------------------
; Layer #89
; ------------------------------------
G21 ; mm
G90 ; abs
G92 E0 ; reset extr
M106 S255
;segType:Loop
G0 F4800 E-1.0000
G0 F300 Z27.000
G0 X100.051 Y103.567 F10800
G0 F4800 E0.0000
G1 X100.051 Y94.131 E0.4707 F2029
G1 X109.930 Y94.131 E0.9636
G1 X109.930 Y104.010 E1.4565
G1 X100.051 Y104.010 E1.9494
G1 X100.051 Y103.720 E1.9638
;segType:Perimeter
G0 X100.161 Y104.153 F10800
G1 X99.651 Y104.364 E1.9914 F1217
G1 X99.651 Y93.731 E2.5219
G1 X110.330 Y93.731 E3.0547
G1 X110.330 Y104.410 E3.5874
G1 X99.697 Y104.410 E4.1179
G1 X99.909 Y103.900
;segType:Infill
G0 X101.681 Y103.811 F10800
G1 X101.681 Y94.331 E4.5909 F3044
G0 X104.911 Y94.331 F10800
G1 X104.911 Y103.811 E5.0638 F3044
G0 X109.730 Y99.150 F10800
G1 X100.251 Y99.150 E5.5367 F3044
G0 X100.251 Y102.380 F10800
G1 X109.730 Y102.380 E6.0096 F3044
G0 X108.141 Y103.811 F10800
G1 X108.141 Y94.331 E6.4825 F3044
G0 X109.730 Y95.920 F10800
G1 X100.251 Y95.920 E6.9555 F3044
; ------------------------------------
; Layer #90
; ------------------------------------
G21 ; mm
G90 ; abs
G92 E0 ; reset extr
M106 S255
;segType:Loop
G0 F4800 E-1.0000
G0 F300 Z27.300
G0 X100.051 Y103.567 F10800
G0 F4800 E0.0000
G1 X100.051 Y94.131 E0.4707 F2029
G1 X109.930 Y94.131 E0.9636
G1 X109.930 Y104.010 E1.4565
G1 X100.051 Y104.010 E1.9494
G1 X100.051 Y103.720 E1.9638
;segType:Perimeter
G0 X100.161 Y104.153 F10800
G1 X99.651 Y104.364 E1.9914 F1217
G1 X99.651 Y93.731 E2.5219
G1 X110.330 Y93.731 E3.0547
G1 X110.330 Y104.410 E3.5874
G1 X99.697 Y104.410 E4.1179
G1 X99.909 Y103.900
;segType:Infill
G0 X101.681 Y103.811 F10800
G1 X101.681 Y94.331 E4.5909 F3044
G0 X104.911 Y94.331 F10800
G1 X104.911 Y103.811 E5.0638 F3044
G0 X109.730 Y99.150 F10800
G1 X100.251 Y99.150 E5.5367 F3044
G0 X100.251 Y102.380 F10800
G1 X109.730 Y102.380 E6.0096 F3044
G0 X108.141 Y103.811 F10800
G1 X108.141 Y94.331 E6.4825 F3044
G0 X109.730 Y95.920 F10800
G1 X100.251 Y95.920 E6.9555 F3044
; ------------------------------------
; Layer #91
; ------------------------------------
G21 ; mm
G90 ; abs
G92 E0 ; reset extr
M106 S255
;segType:Loop
G0 F4800 E-1.0000
G0 F300 Z27.600
G0 X100.051 Y103.567 F10800
G0 F4800 E0.0000
G1 X100.051 Y94.131 E0.4707 F2029
G1 X109.930 Y94.131 E0.9636
G1 X109.930 Y104.010 E1.4565
G1 X100.051 Y104.010 E1.9494
G1 X100.051 Y103.720 E1.9638
;segType:Perimeter
G0 X100.161 Y104.153 F10800
G1 X99.651 Y104.364 E1.9914 F1217
G1 X99.651 Y93.731 E2.5219
G1 X110.330 Y93.731 E3.0547
G1 X110.330 Y104.410 E3.5874
G1 X99.697 Y104.410 E4.1179
G1 X99.909 Y103.900
;segType:Infill
G0 X101.681 Y103.811 F10800
G1 X101.681 Y94.331 E4.5909 F3044
G0 X104.911 Y94.331 F10800
G1 X104.911 Y103.811 E5.0638 F3044
G0 X109.730 Y99.150 F10800
G1 X100.251 Y99.150 E5.5367 F3044
G0 X100.251 Y102.380 F10800
G1 X109.730 Y102.380 E6.0096 F3044
G0 X108.141 Y103.811 F10800
G1 X108.141 Y94.331 E6.4825 F3044
G0 X109.730 Y95.920 F10800
G1 X100.251 Y95.920 E6.9555 F3044
; ------------------------------------
; Layer #92
; ------------------------------------
G21 ; mm
G90 ; abs
G92 E0 ; reset extr
M106 S255
;segType:Loop
G0 F4800 E-1.0000
G0 F300 Z27.900
G0 X100.051 Y103.567 F10800
G0 F4800 E0.0000
G1 X100.051 Y94.131 E0.4707 F2029
G1 X109.930 Y94.131 E0.9636
G1 X109.930 Y104.010 E1.4565
G1 X100.051 Y104.010 E1.9494
G1 X100.051 Y103.720 E1.9638
;segType:Perimeter
G0 X100.161 Y104.153 F10800
G1 X99.651 Y104.364 E1.9914 F1217
G1 X99.651 Y93.731 E2.5219
G1 X110.330 Y93.731 E3.0547
G1 X110.330 Y104.410 E3.5874
G1 X99.697 Y104.410 E4.1179
G1 X99.909 Y103.900
;segType:Infill
G0 X101.681 Y103.811 F10800
G1 X101.681 Y94.331 E4.5909 F3044
G0 X104.911 Y94.331 F10800
G1 X104.911 Y103.811 E5.0638 F3044
G0 X109.730 Y99.150 F10800
G1 X100.251 Y99.150 E5.5367 F3044
G0 X100.251 Y102.380 F10800
G1 X109.730 Y102.380 E6.0096 F3044
G0 X108.141 Y103.811 F10800
G1 X108.141 Y94.331 E6.4825 F3044
G0 X109.730 Y95.920 F10800
G1 X100.251 Y95.920 E6.9555 F3044
; ------------------------------------
; Layer #93
; ------------------------------------
G21 ; mm
G90 ; abs
G92 E0 ; reset extr
M106 S255
;segType:Loop
G0 F4800 E-1.0000
G0 F300 Z28.200
G0 X100.051 Y103.567 F10800
G0 F4800 E0.0000
G1 X100.051 Y94.131 E0.4707 F2029
G1 X109.930 Y94.131 E0.9636
G1 X109.930 Y104.010 E1.4565
G1 X100.051 Y104.010 E1.9494
G1 X100.051 Y103.720 E1.9638
;segType:Perimeter
G0 X100.161 Y104.153 F10800
G1 X99.651 Y104.364 E1.9914 F1217
G1 X99.651 Y93.731 E2.5219
G1 X110.330 Y93.731 E3.0547
G1 X110.330 Y104.410 E3.5874
G1 X99.697 Y104.410 E4.1179
G1 X99.909 Y103.900
;segType:Infill
G0 X101.681 Y103.811 F10800
G1 X101.681 Y94.331 E4.5909 F3044
G0 X104.911 Y94.331 F10800
G1 X104.911 Y103.811 E5.0638 F3044
G0 X109.730 Y99.150 F10800
G1 X100.251 Y99.150 E5.5367 F3044
G0 X100.251 Y102.380 F10800
G1 X109.730 Y102.380 E6.0096 F3044
G0 X108.141 Y103.811 F10800
G1 X108.141 Y94.331 E6.4825 F3044
G0 X109.730 Y95.920 F10800
G1 X100.251 Y95.920 E6.9555 F3044
; ------------------------------------
; Layer #94
; ------------------------------------
G21 ; mm
G90 ; abs
G92 E0 ; reset extr
M106 S255
;segType:Loop
G0 F4800 E-1.0000
G0 F300 Z28.500
G0 X100.051 Y103.567 F10800
G0 F4800 E0.0000
G1 X100.051 Y94.131 E0.4707 F2029
G1 X109.930 Y94.131 E0.9636
G1 X109.930 Y104.010 E1.4565
G1 X100.051 Y104.010 E1.9494
G1 X100.051 Y103.720 E1.9638
;segType:Perimeter
G0 X100.161 Y104.153 F10800
G1 X99.651 Y104.364 E1.9914 F1217
G1 X99.651 Y93.731 E2.5219
G1 X110.330 Y93.731 E3.0547
G1 X110.330 Y104.410 E3.5874
G1 X99.697 Y104.410 E4.1179
G1 X99.909 Y103.900
;segType:Infill
G0 X101.681 Y103.811 F10800
G1 X101.681 Y94.331 E4.5909 F3044
G0 X104.911 Y94.331 F10800
G1 X104.911 Y103.811 E5.0638 F3044
G0 X109.730 Y99.150 F10800
G1 X100.251 Y99.150 E5.5367 F3044
G0 X100.251 Y102.380 F10800
G1 X109.730 Y102.380 E6.0096 F3044
G0 X108.141 Y103.811 F10800
G1 X108.141 Y94.331 E6.4825 F3044
G0 X109.730 Y95.920 F10800
